/* XPM */
static char *theme2_one_xpm[] = {
/* columns rows colors chars-per-pixel */
"64 64 200 2",
"   c #0A0E0E",
".  c #091B1B",
"X  c gray9",
"o  c #082323",
"O  c #132424",
"+  c #1E2929",
"@  c #0A3636",
"#  c #153F3F",
"$  c gray13",
"%  c #212222",
"&  c #2C2C2C",
"*  c #2B3030",
"=  c gray21",
"-  c #0E4444",
";  c #165F5F",
":  c #234545",
">  c #2A4848",
",  c #334F4F",
"<  c #1A6868",
"1  c #1A7171",
"2  c #1B7575",
"3  c #1F7F7F",
"4  c #226E6E",
"5  c #217F7F",
"6  c #2B7C7C",
"7  c #367070",
"8  c #397777",
"9  c #414141",
"0  c #4B4B4B",
"q  c #494D4D",
"w  c #555555",
"e  c gray37",
"r  c #547575",
"t  c #517D7D",
"y  c #676767",
"u  c #606868",
"i  c #717171",
"p  c #797979",
"a  c #268383",
"s  c #2C8585",
"d  c #2E8484",
"f  c #2E8585",
"g  c #2D8686",
"h  c #2F8888",
"j  c #2C8B8B",
"k  c #2E8C8C",
"l  c #308484",
"z  c #338888",
"x  c #338989",
"c  c #348B8B",
"v  c #308D8D",
"b  c #338C8C",
"n  c #348F8F",
"m  c #398E8E",
"M  c #458F8F",
"N  c #4E8C8C",
"B  c #538484",
"V  c #409292",
"C  c #4F9090",
"Z  c #4E9696",
"A  c #479898",
"S  c #4F9999",
"D  c #529A9A",
"F  c #579E9E",
"G  c #6F8787",
"H  c #6E8D8D",
"J  c #768282",
"K  c #619090",
"L  c #6B9191",
"P  c #7C9393",
"I  c #61A3A3",
"U  c #64A3A3",
"Y  c #65A3A3",
"T  c #65A4A4",
"R  c #68A5A5",
"E  c #6CA7A7",
"W  c #71AAAA",
"Q  c #7AADAD",
"!  c #7EB1B1",
"~  c #818181",
"^  c #868686",
"/  c gray53",
"(  c #818888",
")  c #888888",
"_  c #898989",
"`  c gray54",
"'  c #8B8B8B",
"]  c #8D8D8D",
"[  c #8E8E8E",
"{  c gray56",
"}  c #8F9090",
"|  c #909090",
" . c gray57",
".. c #929292",
"X. c #939393",
"o. c gray58",
"O. c #959595",
"+. c gray59",
"@. c #979797",
"#. c #989898",
"$. c gray60",
"%. c #9A9A9A",
"&. c gray61",
"*. c #9F9F9F",
"=. c #88B2B2",
"-. c #89B3B3",
";. c #8EBCBC",
":. c #9FBDBD",
">. c #A2A2A2",
",. c #A5BFBF",
"<. c gray69",
"1. c #B2B2B2",
"2. c gray71",
"3. c #B6B6B6",
"4. c #B7B7B7",
"5. c gray72",
"6. c #B9B9B9",
"7. c gray73",
"8. c #BBBBBB",
"9. c #BCBCBC",
"0. c gray74",
"q. c gray75",
"w. c #9CC0C0",
"e. c #A1C6C6",
"r. c #A6C4C4",
"t. c #ACC3C3",
"y. c #ABC5C5",
"u. c #AEC9C9",
"i. c #B3C4C4",
"p. c #B4C7C7",
"a. c #BCD1D1",
"s. c #BFD3D3",
"d. c #C0C0C0",
"f. c #C1C1C1",
"g. c gray76",
"h. c #C3C3C3",
"j. c #C5C5C5",
"k. c #C6C6C6",
"l. c gray78",
"z. c #C2CBCB",
"x. c #C8C8C8",
"c. c gray79",
"v. c #CACACA",
"b. c #CBCBCB",
"n. c #C8CDCD",
"m. c #CACDCD",
"M. c gray80",
"N. c #CDCDCD",
"B. c #CECECE",
"V. c gray81",
"C. c #C7D6D6",
"Z. c #CFD2D2",
"A. c #D0D0D0",
"S. c gray82",
"D. c #D1D2D2",
"F. c LightGray",
"G. c #D1D4D4",
"H. c #D1D7D7",
"J. c gray83",
"K. c #D5D5D5",
"L. c gray84",
"P. c #D7D7D7",
"I. c #D0D8D8",
"U. c #D0DADA",
"Y. c #D5DADA",
"T. c #D8D8D8",
"R. c #DADADA",
"E. c gray86",
"W. c gainsboro",
"Q. c #DDDDDD",
"!. c gray87",
"~. c #DFDFDF",
"^. c #DEE0E0",
"/. c #E1E1E1",
"(. c #E2E2E2",
"). c gray89",
"_. c #E4E4E4",
"`. c gray90",
"'. c #E7E7E7",
"]. c gray91",
"[. c #E9E9E9",
"{. c #EAEAEA",
"}. c gray92",
"|. c #ECECEC",
" X c gray93",
".X c #EEEEEE",
"XX c #EFEFEF",
"oX c gray94",
"OX c #F1F1F1",
"+X c gray95",
"@X c #F3F3F3",
"#X c gray96",
"$X c #F6F6F6",
"%X c gray97",
"&X c #F8F8F8",
"*X c #F9F9F9",
"=X c gray98",
"-X c gray99",
";X c #FDFDFD",
":X c None",
/* pixels */
":X:X:X:X:X .+.&.&.&.&.&.&.&.&.&.&.&.&.&.&.&.&.&.&.&.&.&.&.&.&.&.&.&.&.&.&.&.&.&.&.&.&.&.&.&.&.&.&.&.&.&.&.&.&.&.&.+. .:X:X:X:X:X",
":X:X:X[ b.%X;X;X;X;X;X;X;X;X;X;X;X;X;X;X;X;X;X;X;X;X;X;X;X;X;X;X;X;X;X;X;X;X;X;X;X;X;X;X;X;X;X;X;X;X;X;X;X;X;X;X;X;X%Xb.[ :X:X:X",
":X:X#.XX-X-X-X-X-X-X-X-X-X-X-X-X-X-X-X-X-X-X-X-X-X-X-X-X-X-X-X-X-X-X-X-X-X-X-X-X-X-X-X-X-X-X-X-X-X-X-X-X-X-X-X-X-X-X-X-XXX#.:X:X",
":X[  X=X=X=X=X=X=X=X=X=X=X=X=X=X=X=X=X=X=X=X=X=X=X=X=X=X=X=X=X=X=X=X=X=X=X=X=X=X=X=X=X=X=X=X=X=X=X=X=X=X=X=X=X=X=X=X=X=X=X X[ :X",
":Xx.*X*X*X*X*X*X*X*X*X*X*X*X*X*X*X*X*X*X*X*X*X*X*X*X*X*X*X*X*X*X*X*X*X*X*X*X*X*X*X*X*X*X*X*X*X*X*X*X*X*X*X*X*X*X*X*X*X*X*X*Xx.:X",
"| +X&X&X&X&X&X&X&X&X&X&X&X&X&X&X&X&X&X&X&X&X&X&X&X&X&X&X&X&X&X&X&X&X&X&X&X&X&X&X&X&X&X&X&X&X&X&X&X&X&X&X&X&X&X&X&X&X&X&X&X&X+X| ",
"o.%X%X%X%X%X%X%X%X%X%X%X%X%X%X%X%X%X%X%X%X%X%X%X%X%X%X%X%X%X%X%X%X%X%X%X%X%X%X%X%X%X%X%X%X%X%X%X%X%X%X%X%X%X%X%X%X%X%X%X%X%X%Xo.",
"%.$X$X$X$X$X$X$X$X$X$X$X$X$X$X$X$X$X$X$X$X$X$X$X$X$X$X$X$X$X$X$X$X$X$X$X$X$X$X$X$X$X$X$X$X$X$X$X$X$X$X$X$X$X$X$X$X$X$X$X$X$X$X%.",
"%.#X#X#X#X#X#X#X#X#X#X#X#X#X#X#X#X#X#X#X#X#X#X#X#X#X#X#X#X#X#X#X#X#X#X#X#X#X#X#X#X#X#X#X#X#X#X#X#X#X#X#X#X#X#X#X#X#X#X#X#X#X#X%.",
"$.@X@X@X@X@X@X@X@X@X@X@X@X@X@X@X@X@X@X@X@X@X@X@X@X@X@X@X@X@X@X@X@X@X@X@X@X@X@X@X@X@X@X@X@X@X@X@X@X@X@X@X@X@X@X@X@X@X@X@X@X@X@X$.",
"$.+X+X+X+X+X+X+X+X+X+X+X+X+X+X+X+X+X+X+X+X+X+X+X+X+X+X+X+X+X+X+X+X+X+X+X+X+X+X+X+X+X+X+X+X+X+X+X+X+X+X+X+X+X+X+X+X+X+X+X+X+X+X$.",
"$.OXOXOXOXOXOXOXOXOXOXOXOXOXOXOXOXOXOXOXOXOXOXOXOXOXOXOXOXOXOXOXOXOXOXOXOXOXOXOXOXOXOXOXOXOXOXOXOXOXOXOXOXOXOXOXOXOXOXOXOXOXOX$.",
"$.oXoXoXoXoXoXoXoXoXoXoXoXoXoXoXoXoXoXoXoXoXoXoXoXoXoXoXoXoXoXoXoXoXoXoXoXoXoXoXoXoXoXoXoXoXoXoXoXoXoXoXoXoXoXoXoXoXoXoXoXoXoX$.",
"$.XXXXXXXXXXXXXXXXXXXXXXXXXXXXXXXXXXXXXXXXXXXXXXXXXXXXXXXXXXXXXXXXXXXXXXXXXXXXXXXXXXXXXXXXXXXXXXXXXXXXXXXXXXXXXXXXXXXXXXXXXXXX$.",
"#..X.X.X.X.X.X.X.X.X.X.X.X.X.X.X.X.X.X.X.X.X.X.X.X.X.X.X.X.X.X.X.X.X.X.X.X.X.X.X.X.X.X.X.X.X.X.X.X.X.X.X.X.X.X.X.X.X.X.X.X.X.X#.",
"#.|.|.|.|.|.|.|.|.|.|.|.|.|.|.|.|.|.|.|.|.|.|.|.|.|.|.|.|.|.|.|.|.|.|.|.|.|.|.|.|.|.|.|.|.|.|.|.|.|.|.|.|.|.|.|.|.|.|.|.|.|.|.#.",
"#.}.}.}.}.}.}.}.}.}.}.}.}.}.}.}.}.}.}.}.}.}.}.}.}.}.}.}.}.}.}.}.}.}.}.}.}.}.}.}.}.}.}.}.}.}.}.}.}.}.}.}.}.}.}.}.}.}.}.}.}.}.}.#.",
"@.{.{.{.{.{.{.{.{.{.{.{.{.{.{.{.{.{.{.{.{.{.{.{.{.{.{.{.{.{.{.{.{.{.{.{.{.{.{.{.{.{.{.{.{.{.{.{.{.{.{.{.{.{.{.{.{.{.{.{.{.{.{.@.",
"@.[.[.[.[.[.[.[.[.[.[.[.[.[.[.[.[.[.[.[.[.[.[.[.[.[.[.[.[.[.[.[.[.[.[.[.[.[.[.[.[.[.[.[.[.[.[.[.[.[.[.[.[.[.[.[.[.[.[.[.[.[.[.@.",
"@.].].].].].].].].].].].].].].].].].].].].].].].].].].].].].].].].].].].].].].].].].].].].].].].].].].].].].].].].].].].].].].@.",
"@.'.'.'.'.'.'.'.'.'.'.'.'.'.'.'.'.'.'.'.'.'.'.'.'.'.'.'.'.'.'.'.'.'.'.'.'.'.'.'.'.'.'.'.'.'.'.'.'.'.'.'.'.'.'.'.'.'.'.'.'.'.'.@.",
"+.`.`.`.`.`.`.`.`.`.`.`.`.`.`.`.`.`.`.`.`.`.`.`.`.`.`.`.`.`.`.`.`.`.`.`.`.`.`.`.`.`.`.`.`.`.`.`.`.`.`.`.`.`.`.`.`.`.`.`.`.`.`.+.",
"+._._._._._._._._._._._._._._._._._._._._._._._._._._._._._._._._._._._._._._._._._._._._._._._._._._._._._._._._._._._._._._.+.",
"+.).).).).).).).).).).).).).).).).).).).).).).).).).).).U.e.Y z Z ;.s.).).).).).).).).).).).).).).).).).).).).).).).).).).).).+.",
"+.(.(.(.(.(.(.(.(.(.(.(.(.(.(.(.(.(.(.(.(.(.(.(.(.(.^.U 1 - o   . @ ; x C.(.(.(.(.(.(.(.(.(.(.(.(.(.(.(.(.(.(.(.(.(.(.(.(.(.(.+.",
"O././././././././././././././././././././././././.a.a # X X X X X X X O 2 ! /././././././././././././././././././././././././.O.",
"O.~.~.~.~.~.~.~.~.~.~.~.~.~.~.~.~.~.~.~.~.~.~.~.Y.5 + $ $ $ $ $ $ $ $ $ % < w.~.~.~.~.~.~.~.~.~.~.~.~.~.~.~.~.~.~.~.~.~.~.~.~.O.",
"O.!.!.!.!.!.!.!.!.!.!.!.!.!.!.!.!.!.!.!.!.!.!.!.S : & & & & & & & & & & & * 3 I.!.!.!.!.!.!.!.!.!.!.!.!.!.!.!.!.!.!.!.!.!.!.!.O.",
"o.Q.Q.Q.Q.Q.Q.Q.Q.Q.Q.Q.Q.Q.Q.Q.Q.Q.Q.Q.Q.Q.Q.u.4 = = = = = = = = = = = = = > D Q.Q.Q.Q.Q.Q.Q.Q.Q.Q.Q.Q.Q.Q.Q.Q.Q.Q.Q.Q.Q.Q.Q.o.",
"o.W.W.W.W.W.W.W.W.W.W.W.W.W.W.W.W.W.W.W.W.W.W.R , 9 9 9 9 9 9 9 9 9 9 9 9 9 9 d W.W.W.W.W.W.W.W.W.W.W.W.W.W.W.W.W.W.W.W.W.W.W.o.",
"o.E.E.E.E.E.E.E.E.E.E.E.E.E.E.E.E.E.E.E.E.E.E.m q 0 0 0 0 0 0 0 0 0 0 0 0 0 0 6 H.E.E.E.E.E.E.E.E.E.E.E.E.E.E.E.E.E.E.E.E.E.E.o.",
"o.R.R.R.R.R.R.R.R.R.R.R.R.R.R.R.R.R.R.R.R.R.R.s w w w w w w w w w w w w w w w 7 r.R.R.R.R.R.R.R.R.R.R.R.R.R.R.R.R.R.R.R.R.R.R.o.",
"X.T.T.T.T.T.T.T.T.T.T.T.T.T.T.T.T.T.T.T.T.T.T.g e e e e e e e e e e e e e e e 8 y.T.T.T.T.T.T.T.T.T.T.T.T.T.T.T.T.T.T.T.T.T.T.X.",
"X.P.P.P.P.P.P.P.P.P.P.P.P.P.P.P.P.P.P.P.P.P.P.V u y y y y y y y y y y y y y y l G.P.P.P.P.P.P.P.P.P.P.P.P.P.P.P.P.P.P.P.P.P.P.X.",
"X.L.L.L.L.L.L.L.L.L.L.L.L.L.L.L.L.L.L.L.L.L.L.W r i i i i i i i i i i i i i i c L.L.L.L.L.L.L.L.L.L.L.L.L.L.L.L.L.L.L.L.L.L.L.X.",
"X.K.K.K.K.K.K.K.K.K.K.K.K.K.K.K.K.K.K.K.K.K.K.p.f p p p p p p p p p p p p p t T K.K.K.K.K.K.K.K.K.K.K.K.K.K.K.K.K.K.K.K.K.K.K.X.",
"..J.J.J.J.J.J.J.J.J.J.J.J.J.J.J.J.J.J.J.J.J.J.J.E B ~ ~ ~ ~ ~ ~ ~ ~ ~ ~ ~ J j Z.J.J.J.J.J.J.J.J.J.J.J.J.J.J.J.J.J.J.J.J.J.J.J...",
"..F.F.F.F.F.F.F.F.F.F.F.F.F.F.F.F.F.F.F.F.F.F.F.D.n G _ _ _ _ _ _ _ _ _ ( h t.F.F.F.F.F.F.F.F.F.F.F.F.F.F.F.F.F.F.F.F.F.F.F.F...",
"..S.S.S.S.S.S.S.S.S.S.S.S.S.S.S.S.S.S.S.S.S.S.S.S.z.A N }  . . . . . .H v :.S.S.S.S.S.S.S.S.S.S.S.S.S.S.S.S.S.S.S.S.S.S.S.S.S...",
" .A.A.A.A.A.A.A.A.A.A.A.A.A.A.A.A.A.A.A.A.A.A.A.A.A.A.=.k M K P L C b F n.A.A.A.A.A.A.A.A.A.A.A.A.A.A.A.A.A.A.A.A.A.A.A.A.A.A. .",
" .V.V.V.V.V.V.V.V.V.V.V.V.V.V.V.V.V.V.V.V.V.V.V.V.V.V.V.V.i.-.I Q ,.m.V.V.V.V.V.V.V.V.V.V.V.V.V.V.V.V.V.V.V.V.V.V.V.V.V.V.V.V. .",
" .B.B.B.B.B.B.B.B.B.B.B.B.B.B.B.B.B.B.B.B.B.B.B.B.B.B.B.B.B.B.B.B.B.B.B.B.B.B.B.B.B.B.B.B.B.B.B.B.B.B.B.B.B.B.B.B.B.B.B.B.B.B. .",
" .N.N.N.N.N.N.N.N.N.N.N.N.N.N.N.N.N.N.N.N.N.N.N.N.N.N.N.N.N.N.N.N.N.N.N.N.N.N.N.N.N.N.N.N.N.N.N.N.N.N.N.N.N.N.N.N.N.N.N.N.N.N. .",
" .M.M.M.M.M.M.M.M.M.M.M.M.M.M.M.M.M.M.M.M.M.M.M.M.M.M.M.M.M.M.M.M.M.M.M.M.M.M.M.M.M.M.M.M.M.M.M.M.M.M.M.M.M.M.M.M.M.M.M.M.M.M. .",
"| v.v.v.v.v.v.v.v.v.v.v.v.v.v.v.v.v.v.v.v.v.v.v.v.v.v.v.v.v.v.v.v.v.v.v.v.v.v.v.v.v.v.v.v.v.v.v.v.v.v.v.v.v.v.v.v.v.v.v.v.v.v.| ",
"| c.c.c.c.c.c.c.c.c.c.c.c.c.c.c.c.c.c.c.c.c.c.c.c.c.c.c.c.c.c.c.c.c.c.c.c.c.c.c.c.c.c.c.c.c.c.c.c.c.c.c.c.c.c.c.c.c.c.c.c.c.c.| ",
"| x.x.x.x.x.x.x.x.x.x.x.x.x.x.x.x.x.x.x.x.x.x.x.x.x.x.x.x.x.x.x.x.x.x.x.x.x.x.x.x.x.x.x.x.x.x.x.x.x.x.x.x.x.x.x.x.x.x.x.x.x.x.| ",
"{ l.l.l.l.l.l.l.l.l.l.l.l.l.l.l.l.l.l.l.l.l.l.l.l.l.l.l.l.l.l.l.l.l.l.l.l.l.l.l.l.l.l.l.l.l.l.l.l.l.l.l.l.l.l.l.l.l.l.l.l.l.l.{ ",
"{ k.k.k.k.k.k.k.k.k.k.k.k.k.k.k.k.k.k.k.k.k.k.k.k.k.k.k.k.k.k.k.k.k.k.k.k.k.k.k.k.k.k.k.k.k.k.k.k.k.k.k.k.k.k.k.k.k.k.k.k.k.k.{ ",
"{ j.j.j.j.j.j.j.j.j.j.j.j.j.j.j.j.j.j.j.j.j.j.j.j.j.j.j.j.j.j.j.j.j.j.j.j.j.j.j.j.j.j.j.j.j.j.j.j.j.j.j.j.j.j.j.j.j.j.j.j.j.j.{ ",
"{ h.h.h.h.h.h.h.h.h.h.h.h.h.h.h.h.h.h.h.h.h.h.h.h.h.h.h.h.h.h.h.h.h.h.h.h.h.h.h.h.h.h.h.h.h.h.h.h.h.h.h.h.h.h.h.h.h.h.h.h.h.h.{ ",
"[ g.g.g.g.g.g.g.g.g.g.g.g.g.g.g.g.g.g.g.g.g.g.g.g.g.g.g.g.g.g.g.g.g.g.g.g.g.g.g.g.g.g.g.g.g.g.g.g.g.g.g.g.g.g.g.g.g.g.g.g.g.g.[ ",
"[ f.f.f.f.f.f.f.f.f.f.f.f.f.f.f.f.f.f.f.f.f.f.f.f.f.f.f.f.f.f.f.f.f.f.f.f.f.f.f.f.f.f.f.f.f.f.f.f.f.f.f.f.f.f.f.f.f.f.f.f.f.f.[ ",
"[ d.d.d.d.d.d.d.d.d.d.d.d.d.d.d.d.d.d.d.d.d.d.d.d.d.d.d.d.d.d.d.d.d.d.d.d.d.d.d.d.d.d.d.d.d.d.d.d.d.d.d.d.d.d.d.d.d.d.d.d.d.d.[ ",
"[ q.q.q.q.q.q.q.q.q.q.q.q.q.q.q.q.q.q.q.q.q.q.q.q.q.q.q.q.q.q.q.q.q.q.q.q.q.q.q.q.q.q.q.q.q.q.q.q.q.q.q.q.q.q.q.q.q.q.q.q.q.q.[ ",
"] 0.0.0.0.0.0.0.0.0.0.0.0.0.0.0.0.0.0.0.0.0.0.0.0.0.0.0.0.0.0.0.0.0.0.0.0.0.0.0.0.0.0.0.0.0.0.0.0.0.0.0.0.0.0.0.0.0.0.0.0.0.0.] ",
"] 9.9.9.9.9.9.9.9.9.9.9.9.9.9.9.9.9.9.9.9.9.9.9.9.9.9.9.9.9.9.9.9.9.9.9.9.9.9.9.9.9.9.9.9.9.9.9.9.9.9.9.9.9.9.9.9.9.9.9.9.9.9.] ",
"` 8.8.8.8.8.8.8.8.8.8.8.8.8.8.8.8.8.8.8.8.8.8.8.8.8.8.8.8.8.8.8.8.8.8.8.8.8.8.8.8.8.8.8.8.8.8.8.8.8.8.8.8.8.8.8.8.8.8.8.8.8.8.` ",
"/ 4.7.7.7.7.7.7.7.7.7.7.7.7.7.7.7.7.7.7.7.7.7.7.7.7.7.7.7.7.7.7.7.7.7.7.7.7.7.7.7.7.7.7.7.7.7.7.7.7.7.7.7.7.7.7.7.7.7.7.7.7.4./ ",
":X>.6.6.6.6.6.6.6.6.6.6.6.6.6.6.6.6.6.6.6.6.6.6.6.6.6.6.6.6.6.6.6.6.6.6.6.6.6.6.6.6.6.6.6.6.6.6.6.6.6.6.6.6.6.6.6.6.6.6.6.6.>.:X",
":X^ 1.5.5.5.5.5.5.5.5.5.5.5.5.5.5.5.5.5.5.5.5.5.5.5.5.5.5.5.5.5.5.5.5.5.5.5.5.5.5.5.5.5.5.5.5.5.5.5.5.5.5.5.5.5.5.5.5.5.5.1.^ :X",
":X:X` <.3.3.3.3.3.3.3.3.3.3.3.3.3.3.3.3.3.3.3.3.3.3.3.3.3.3.3.3.3.3.3.3.3.3.3.3.3.3.3.3.3.3.3.3.3.3.3.3.3.3.3.3.3.3.3.3.<.` :X:X",
":X:X:X^ *.1.2.2.2.2.2.2.2.2.2.2.2.2.2.2.2.2.2.2.2.2.2.2.2.2.2.2.2.2.2.2.2.2.2.2.2.2.2.2.2.2.2.2.2.2.2.2.2.2.2.2.2.2.1.*.^ :X:X:X",
":X:X:X:X:X^ ) ' ' ' ' ' ' ' ' ' ' ' ' ' ' ' ' ' ' ' ' ' ' ' ' ' ' ' ' ' ' ' ' ' ' ' ' ' ' ' ' ' ' ' ' ' ' ' ' ' ' ) ^ :X:X:X:X:X"
};
