/* XPM */
static char *theme2_six_xpm[] = {
/* columns rows colors chars-per-pixel */
"64 64 206 2",
"   c #0A1111",
".  c #0C1C1C",
"X  c #141414",
"o  c #161E1E",
"O  c #1C1C1C",
"+  c #082121",
"@  c #072929",
"#  c #122424",
"$  c #1C2222",
"%  c #142E2E",
"&  c #063434",
"*  c #0C3333",
"=  c #0B3D3D",
"-  c #153131",
";  c #1B3333",
":  c #143B3B",
">  c #1A3939",
",  c #222323",
"<  c #232929",
"1  c #2D2D2D",
"2  c #273737",
"3  c #2B3232",
"4  c gray21",
"5  c #323D3D",
"6  c gray22",
"7  c #0C4242",
"8  c #1E4343",
"9  c #124D4D",
"0  c #0F5050",
"q  c #145454",
"w  c #1A5252",
"e  c #155C5C",
"r  c #1C5D5D",
"t  c #274646",
"y  c #244C4C",
"u  c #314242",
"i  c #3D4646",
"p  c #3B4B4B",
"a  c #2F5050",
"s  c #225959",
"d  c #285A5A",
"f  c #305353",
"g  c #3C5757",
"h  c #325E5E",
"j  c #3A5D5D",
"k  c #156767",
"l  c #196565",
"z  c #166E6E",
"x  c #1A6C6C",
"c  c #1B7575",
"v  c #1D7A7A",
"b  c #256262",
"n  c #2B6161",
"m  c #216A6A",
"M  c #2C6D6D",
"N  c #3B6161",
"B  c #3D6B6B",
"V  c #227575",
"C  c #287575",
"Z  c #227C7C",
"A  c #2B7C7C",
"S  c #377171",
"D  c #307979",
"F  c #387C7C",
"G  c #424242",
"H  c #454D4D",
"J  c #4C4C4C",
"K  c #535353",
"L  c #515C5C",
"P  c #5B5B5B",
"I  c #4B6161",
"U  c #476A6A",
"Y  c #4C6C6C",
"T  c #5B6262",
"R  c #4A7373",
"E  c #427C7C",
"W  c #4D7B7B",
"Q  c #597171",
"!  c #557C7C",
"~  c #646464",
"^  c #656C6C",
"/  c #6C6C6C",
"(  c #667272",
")  c #697272",
"_  c #647979",
"`  c #6E7B7B",
"'  c #717171",
"]  c #747979",
"[  c #797979",
"{  c #258181",
"}  c #2B8585",
"|  c #2D8A8A",
" . c #328383",
".. c #398787",
"X. c #348B8B",
"o. c #3C8C8C",
"O. c #369292",
"+. c #3C9292",
"@. c #3F9898",
"#. c #428383",
"$. c #4A8686",
"%. c #428E8E",
"&. c #498F8F",
"*. c #558484",
"=. c #5C8383",
"-. c #518F8F",
";. c #5F8B8B",
":. c #449494",
">. c #4B9494",
",. c #449999",
"<. c #4D9C9C",
"1. c #529696",
"2. c #5A9393",
"3. c #539C9C",
"4. c #5B9A9A",
"5. c #658383",
"6. c #6C8383",
"7. c #628C8C",
"8. c #748282",
"9. c #7E8383",
"0. c #7A8A8A",
"q. c #639090",
"w. c #6D9090",
"e. c #649C9C",
"r. c #6D9999",
"t. c #769494",
"y. c #7A9494",
"u. c #779B9B",
"i. c #57A0A0",
"p. c #5DA2A2",
"a. c #62A5A5",
"s. c #6CA4A4",
"d. c #65AAAA",
"f. c #6DADAD",
"g. c #73A2A2",
"h. c #7AA6A6",
"j. c #72AAAA",
"k. c #7DADAD",
"l. c #76B2B2",
"z. c #7FB4B4",
"x. c #828282",
"c. c #838989",
"v. c #8B8B8B",
"b. c #879292",
"n. c #839E9E",
"m. c #8E9C9C",
"M. c #939393",
"N. c #9B9B9B",
"B. c #85ACAC",
"V. c #98A3A3",
"C. c #93AEAE",
"Z. c #9BAFAF",
"A. c #82B4B4",
"S. c #8CB4B4",
"D. c #85BABA",
"F. c #8EBEBE",
"G. c #94B4B4",
"H. c #9BB4B4",
"J. c #94B9B9",
"K. c #9CBDBD",
"L. c #A3A4A4",
"P. c #A1B1B1",
"I. c #A9B4B4",
"U. c #A2BBBB",
"Y. c #ADBABA",
"T. c #B5B5B5",
"R. c #B6BABA",
"E. c #BBBBBB",
"W. c #95C1C1",
"Q. c #99C4C4",
"!. c #9DC8C8",
"~. c #A2C5C5",
"^. c #ACC3C3",
"/. c #A3C9C9",
"(. c #AACACA",
"). c #B3C4C4",
"_. c #BCC3C3",
"`. c #B4CECE",
"'. c #BDC8C8",
"]. c #A6D1D1",
"[. c #AED3D3",
"{. c #B3D2D2",
"}. c #BDD3D3",
"|. c #BDDADA",
" X c #C4C4C4",
".X c #C5CCCC",
"XX c #CCCCCC",
"oX c #C4D4D4",
"OX c #CBD4D4",
"+X c #C4DADA",
"@X c #CED8D8",
"#X c #D3D3D3",
"$X c #D4DCDC",
"%X c #DCDCDC",
"&X c #C7E0E0",
"*X c #CDE3E3",
"=X c #D5E3E3",
"-X c #DFE1E1",
";X c #DFEBEB",
":X c #E4E4E4",
">X c #E3E9E9",
",X c #EBEBEB",
"<X c #EDF2F2",
"1X c #F4F4F4",
"2X c #FBFBFB",
"3X c None",
/* pixels */
"3X3X3X3X3XM.M.N.N.N.N.N.N.N.N.N.N.N.N.N.N.N.N.N.N.N.N.N.N.N.N.N.N.N.N.N.N.N.N.N.N.N.N.N.N.N.N.N.N.N.N.N.N.N.N.N.N.M.M.3X3X3X3X3X",
"3X3X3Xv.XX1X2X2X2X2X2X2X2X2X2X2X2X2X2X2X2X2X2X2X2X2X2X2X2X2X2X2X2X2X2X2X2X2X2X2X2X2X2X2X2X2X2X2X2X2X2X2X2X2X2X2X2X2X1XXXv.3X3X3X",
"3X3XN.,X2X2X2X2X2X;X[.|.<X2X2X2X2X2X2X2X2X2X2X2X2X2X2X2X2X2X2X2X2X2X2X2X2X2X2X2X2X2X2X2X2X2X2X2X2X2X2X*X].*X2X2X2X2X2X2X,XN.3X3X",
"3Xv.,X2X2X2X>X:.Z l 7 9 z { f.1X2X2X2X2X2X2X2X2X2X2X2X2X2X2X2X2X2X2X2X2X2X2X2X2X2X2X2X2X2X2X2X2X{.} c e = e c } [.2X2X2X2X,Xv.3X",
"3X.X2X2X2XQ.Z # X X X X X X : } &X2X2X2X2X2X2X2X2X2X2X2X2X2X2X2X2X2X2X2X2X2X2X2X2X2X2X2X2X2X<X3.l X X X X X X X r 3.<X2X2X2X.X3X",
"M.1X2X2Xl.r $ O O O O O O O O $ c +X2X2X2X2X2X2X2X2X2X2X2X2X2X2X2X2X2X2X2X2X2X2X2X2X2X2X2X1X| > O O O O O O O O O > | 1X2X2X1XM.",
"M.1X1X&XV 1 1 1 1 1 1 1 1 1 1 1 3 } <X1X1X1X1X1X1X1X1X1X1X1X1X1X1X1X1X1X1X1X1X1X1X1X1X1X1Xf.y 1 1 1 1 1 1 1 1 1 1 1 y d.1X1X1XM.",
"N.1X1XX.5 6 6 6 6 6 6 6 6 6 6 6 6 a a.1X1X1X1X1X1X1X1X1X1X1X1X1X1X1X1X1X1X1X1X1X1X1X1X1X+XC 6 6 6 6 6 6 6 6 6 6 6 6 6 C |.1X1XN.",
"N.1X|.M G G G G G G G G G G G G G G { 1X1X1X1X1X1X1X1X1X1X1X1X1X1X1X1X1X1X1X1X1X1X1X1X1Xi.p G G G G G G G G G G G G G p <.1X1XN.",
"N.1XD.j J J J J J J J J J J J J J J D *X1X1X1X1X1X1X1X1X1X1X1X1X1X1X1X1X1X1X1X1X1X1X1X1XX.J J J J J J J J J J J J J J J | 1X1XN.",
"N.1X,.L P P P P P P P P P P P P P P B Q.1X1X1X1X1X1X1X1X1X1X1X1X1X1X1X1X1X1X1X1X1X1X1X<X} P P P P P P P P P P P P P P P } ,X1XN.",
"N.1XO.~ ~ ~ ~ ~ ~ ~ ~ ~ ~ ~ ~ ~ ~ ~ U z.1X1X1X1X1X1X1X1X1X1X1X1X1X1X1X1X1X1X1X1X1X1X1X;X .~ ~ ~ ~ ~ ~ ~ ~ ~ ~ ~ ~ ~ ~ ~  .=X1XN.",
"N.1Xa.Q / / / / / / / / / / / / / / E {.1X1X1X1X1X1X1X1X1X1X1X1X1X1X1X1X1X1X1X1X1X1X1X1X| / / / / / / / / / / / / / / / | 1X1XN.",
"N.,X!.W [ [ [ [ [ [ [ [ [ [ [ [ [ [ X.>X,X,X,X,X,X,X,X,X,X,X,X,X,X,X,X,X,X,X,X,X,X,X,X,X:.] [ [ [ [ [ [ [ [ [ [ [ [ [ ] +.,X,XN.",
"N.,X=XX.x.x.x.x.x.x.x.x.x.x.x.x.x.9.O.,X,X,X,X,X,X,X,X,X,X,X,X,X,X,X,X,X,X,X,X,X,X,X,X,Xz.=.x.x.x.x.x.x.x.x.x.x.x.x.x.=.l.,X,XN.",
"N.,X,Xf.7.v.v.v.v.v.v.v.v.v.v.v.v.%.{.,X,X,X,X,X,X,X,X,X,X,X,X,X,X,X,X,X,X,X,X,X,X,X,X,X>XO.c.v.v.v.v.v.v.v.v.v.v.v.c.O.>X,X,XN.",
"N.,X,X>XO.b.M.M.M.M.M.M.M.M.M.M.w.d.,X,X,X,X,X,X,X,X,X,X,X,X,X,X,X,X,X,X,X,X,X,X,X,X,X,X,X}.o.M.M.M.M.M.M.M.M.M.M.M.%.{.,X,X,XN.",
"M.,X,X,X+XO.t.N.N.N.N.N.N.N.N.2.<.>X,X,X,X,X,X,X,X,X,X,X,X,X,X,X,X,X,X,X,X,X,X,X,X,X,X,X,X,XF.+.m.N.N.N.N.N.N.N.m.+.D.,X,X,X,XM.",
"M.,X,X,X,X:Xd.>.u.V.L.L.m.r.+.W.,X,X,X,X,X,X,X,X,X,X,X,X,X,X,X,X,X,X,X,X,X,X,X,X,X,X,X,X,X,X,X+X@.e.n.L.L.L.n.e.@.+X,X,X,X,X,XM.",
"M.>X>X>X>X>X>X}.A.<.O.O.p.F.$X>X>X>X>X>X>X>X>X>X>X>X>X>X>X>X>X>X>X>X>X>X>X>X>X>X>X>X>X>X>X>X>X>X>X/.f.,.O.@.f.~.:X>X>X>X>X>X>XM.",
"M.>X>X>X>X>X>X>X>X>X>X>X>X>X>X>X>X>X>X>X>X>X>X>X>X>X>X>X>X>X>X>X>X>X>X>X>X>X>X>X>X>X>X>X>X>X>X>X>X>X>X>X>X>X>X>X>X>X>X>X>X>X>XM.",
"M.:X:X:X:X:X:X:X:X:X:X:X:X:X:X:X:X:X:X:X:X:X:X:X:X:X:X:X:X:X:X:X:X:X:X:X:X:X:X:X:X:X:X:X:X:X:X:X:X:X:X:X:X:X:X:X:X:X:X:X:X:X:XM.",
"M.:X:X:X:X:X:X:X:X:X:X:X:X:X:X:X:X:X:X:X:X:X:X:X:X:X:X:X:X:X:X:X:X:X:X:X:X:X:X:X:X:X:X:X:X:X:X:X:X:X:X:X:X:X:X:X:X:X:X:X:X:X:XM.",
"M.:X:X:X:X:X:X%X(.s.X.:.A.`.-X:X:X:X:X:X:X:X:X:X:X:X:X:X:X:X:X:X:X:X:X:X:X:X:X:X:X:X:X:X:X:X:X:X:XOXQ.4.X.3.W.oX:X:X:X:X:X:X:XM.",
"M.:X:X:X:X:XA.c 9 @   . * e Z `.:X:X:X:X:X:X:X:X:X:X:X:X:X:X:X:X:X:X:X:X:X:X:X:X:X:X:X:X:X:X:X$X>.k = +   + = k :.$X:X:X:X:X:XM.",
"M.:X:X:X@XX.w X X X X X X X o x p.-X:X:X:X:X:X:X:X:X:X:X:X:X:X:X:X:X:X:X:X:X:X:X:X:X:X:X:X:X~.Z - X X X X X X X % v ~.:X:X:X:XM.",
"M.%X%X%XX.; , , , , , , , , , , w j.%X%X%X%X%X%X%X%X%X%X%X%X%X%X%X%X%X%X%X%X%X%X%X%X%X%X%XoXv , , , , , , , , , , , c oX%X%X%XM.",
"M.%X%Xz.s 1 1 1 1 1 1 1 1 1 1 1 1 V }.%X%X%X%X%X%X%X%X%X%X%X%X%X%X%X%X%X%X%X%X%X%X%X%X%X%XX.2 1 1 1 1 1 1 1 1 1 1 1 2 X.%X%X%XM.",
"M.%X@XZ 4 4 4 4 4 4 4 4 4 4 4 4 4 5 X.%X%X%X%X%X%X%X%X%X%X%X%X%X%X%X%X%X%X%X%X%X%X%X%X%XA.d 4 4 4 4 4 4 4 4 4 4 4 4 4 d z.%X%XM.",
"M.%XK.n G G G G G G G G G G G G G G Z $X%X%X%X%X%X%X%X%X%X%X%X%X%X%X%X%X%X%X%X%X%X%X%X%X+.i G G G G G G G G G G G G G i o.%X%XM.",
"M.%Xa.g J J J J J J J J J J J J J J M ^.%X%X%X%X%X%X%X%X%X%X%X%X%X%X%X%X%X%X%X%X%X%X%X%X} J J J J J J J J J J J J J J J } %X%XM.",
"M.%XX.K K K K K K K K K K K K K K K N k.%X%X%X%X%X%X%X%X%X%X%X%X%X%X%X%X%X%X%X%X%X%X%XOXA K K K K K K K K K K K K K K K A OX%XM.",
"M.$X+.T P P P P P P P P P P P P P P B A.$X$X$X$X$X$X$X$X$X$X$X$X$X$X$X$X$X$X$X$X$X$X$X#X{ P P P P P P P P P P P P P P P { OX$XM.",
"M.#Xs.Y ~ ~ ~ ~ ~ ~ ~ ~ ~ ~ ~ ~ ~ ~ F ^.#X#X#X#X#X#X#X#X#X#X#X#X#X#X#X#X#X#X#X#X#X#X#X#X| ~ ~ ~ ~ ~ ~ ~ ~ ~ ~ ~ ~ ~ ~ ~ | #X#XM.",
"M.#XK.E ' ' ' ' ' ' ' ' ' ' ' ' ' ' } #X#X#X#X#X#X#X#X#X#X#X#X#X#X#X#X#X#X#X#X#X#X#X#X#X>.( ' ' ' ' ' ' ' ' ' ' ' ' ' ) :.#X#XM.",
"M.#XOX| ] [ [ [ [ [ [ [ [ [ [ [ [ _ :.#X#X#X#X#X#X#X#X#X#X#X#X#X#X#X#X#X#X#X#X#X#X#X#X#XJ.#.[ [ [ [ [ [ [ [ [ [ [ [ [ #.J.#X#XM.",
"M.#X#XJ.#.x.x.x.x.x.x.x.x.x.x.x.9.| .X#X#X#X#X#X#X#X#X#X#X#X#X#X#X#X#X#X#X#X#X#X#X#X#X#X#X<.5.x.x.x.x.x.x.x.x.x.x.x.6.:.#X#X#XM.",
"M.#X#X#X3.;.v.v.v.v.v.v.v.v.v.c...S.#X#X#X#X#X#X#X#X#X#X#X#X#X#X#X#X#X#X#X#X#X#X#X#X#X#X#X.X| 0.v.v.v.v.v.v.v.v.v.0.| .X#X#X#XM.",
"M.#X#X#XXXp.%.v.M.M.M.M.M.M.0.X.S.#X#X#X#X#X#X#X#X#X#X#X#X#X#X#X#X#X#X#X#X#X#X#X#X#X#X#X#X#X).+.;.M.M.M.M.M.M.M.7.O.).#X#X#X#XM.",
"M.#X#X#X#X#XU.O.o.2.t.w.-.X.:.'.#X#X#X#X#X#X#X#X#X#X#X#X#X#X#X#X#X#X#X#X#X#X#X#X#X#X#X#X#X#X#XXXj.X.&.q.y.q.&.X.s.XX#X#X#X#X#XM.",
"M.XXXXXXXXXXXXXX'.G.a.j.K..XXXXXXXXXXXXXXXXXXXXXXXXXXXXXXXXXXXXXXXXXXXXXXXXXXXXXXXXXXXXXXXXXXXXXXXXX^.A.p.k.^.XXXXXXXXXXXXXXXXM.",
"M.XXXXXXXXXXXXXXXXXXXXXXXXXXXXXXXXXXXXXXXXXXXXXXXXXXXXXXXXXXXXXXXXXXXXXXXXXXXXXXXXXXXXXXXXXXXXXXXXXXXXXXXXXXXXXXXXXXXXXXXXXXXXM.",
"M.XXXXXXXXXXXXXXXXXXXXXXXXXXXXXXXXXXXXXXXXXXXXXXXXXXXXXXXXXXXXXXXXXXXXXXXXXXXXXXXXXXXXXXXXXXXXXXXXXXXXXXXXXXXXXXXXXXXXXXXXXXXXM.",
"M.XXXXXXXXXXXXXXXX^.B.G._.XXXXXXXXXXXXXXXXXXXXXXXXXXXXXXXXXXXXXXXXXXXXXXXXXXXXXXXXXXXXXXXXXXXXXXXXXX.XU.k.K..XXXXXXXXXXXXXXXXXM.",
"M.XXXXXXXXXX). .c e & 7 k v >. XXXXXXXXXXXXXXXXXXXXXXXXXXXXXXXXXXXXXXXXXXXXXXXXXXXXXXXXXXXXXXXXXB.Z z q & 0 z Z B.XXXXXXXXXXXXM.",
"M.XXXXXXXXg.c . X X X X X X * v H.XXXXXXXXXXXXXXXXXXXXXXXXXXXXXXXXXXXXXXXXXXXXXXXXXXXXXXXXXX_.o.q X X X X X X X q o._.XXXXXXXXM.",
"M..X.X.X4.q O O O O O O O O O $ z G..X.X.X.X.X.X.X.X.X.X.X.X.X.X.X.X.X.X.X.X.X.X.X.X.X.X.X X{ - O O O O O O O O O - Z  X.X.X.XM.",
"v. X XH.x , , , , , , , , , , , < Z _. X X X X X X X X X X X X X X X X X X X X X X X X X X1.8 , , , , , , , , , , , 8 >. X X Xv.",
"v. X X{ 3 1 1 1 1 1 1 1 1 1 1 1 1 t >. X X X X X X X X X X X X X X X X X X X X X X X X XH.m 1 1 1 1 1 1 1 1 1 1 1 1 1 m G. X Xv.",
"v. XG.b 6 6 6 6 6 6 6 6 6 6 6 6 6 6 Z  X X X X X X X X X X X X X X X X X X X X X X X X X%.u 6 6 6 6 6 6 6 6 6 6 6 6 6 5 o. X Xv.",
"v. Xe.f G G G G G G G G G G G G G G M U. X X X X X X X X X X X X X X X X X X X X X X X X{ G G G G G G G G G G G G G G G {  X Xv.",
"v. Xo.H J J J J J J J J J J J J J J h h. X X X X X X X X X X X X X X X X X X X X X X X_.Z J J J J J J J J J J J J J J J Z E. Xv.",
"v. X} K K K K K K K K K K K K K K K j e. X X X X X X X X X X X X X X X X X X X X X X XR.A K K K K K K K K K K K K K K K A Y. Xv.",
"v. X1.I P P P P P P P P P P P P P P S G. X X X X X X X X X X X X X X X X X X X X X X X X{ P P P P P P P P P P P P P P P {  X Xv.",
"v.E.k.B ~ ~ ~ ~ ~ ~ ~ ~ ~ ~ ~ ~ ~ ~ A R.E.E.E.E.E.E.E.E.E.E.E.E.E.E.E.E.E.E.E.E.E.E.E.E.X.T ~ ~ ~ ~ ~ ~ ~ ~ ~ ~ ~ ~ ~ ~ X.E.E.v.",
"v.E.I.} / / / / / / / / / / / / / ^ } E.E.E.E.E.E.E.E.E.E.E.E.E.E.E.E.E.E.E.E.E.E.E.E.E.e.R / / / / / / / / / / / / / R e.E.E.v.",
"v.E.E.4.W ' ' ' ' ' ' ' ' ' ' ' '  .C.E.E.E.E.E.E.E.E.E.E.E.E.E.E.E.E.E.E.E.E.E.E.E.E.E.R.} ) ' ' ' ' ' ' ' ' ' ' ' ) } R.E.E.v.",
"v.E.E.R.| ` [ [ [ [ [ [ [ [ [ [ ! 1.E.E.E.E.E.E.E.E.E.E.E.E.E.E.E.E.E.E.E.E.E.E.E.E.E.E.E.H. .[ [ [ [ [ [ [ [ [ [ [  .C.E.E.E.v.",
"c.T.E.E.P.| =.x.x.x.x.x.x.x.9.#.:.R.E.E.E.E.E.E.E.E.E.E.E.E.E.E.E.E.E.E.E.E.E.E.E.E.E.E.E.E.g.} 8.x.x.x.x.x.x.x.8.} g.E.E.E.T.c.",
"3XL.E.E.E.R.1...=.8.c.x.6.*.| h.E.E.E.E.E.E.E.E.E.E.E.E.E.E.E.E.E.E.E.E.E.E.E.E.E.E.E.E.E.E.E.P.X.$.5.9.c.9.5.$.X.P.E.E.E.E.L.3X",
"3Xc.T.R.R.R.R.Z.s.:.| | >.g.I.R.R.R.R.R.R.R.R.R.R.R.R.R.R.R.R.R.R.R.R.R.R.R.R.R.R.R.R.R.R.R.R.R.T.B.4.X.| X.4.B.R.R.R.R.R.T.c.3X",
"3X3Xv.T.T.T.T.T.T.T.T.T.T.T.T.T.T.T.T.T.T.T.T.T.T.T.T.T.T.T.T.T.T.T.T.T.T.T.T.T.T.T.T.T.T.T.T.T.T.T.T.T.T.T.T.T.T.T.T.T.T.v.3X3X",
"3X3X3Xc.N.T.T.T.T.T.T.T.T.T.T.T.T.T.T.T.T.T.T.T.T.T.T.T.T.T.T.T.T.T.T.T.T.T.T.T.T.T.T.T.T.T.T.T.T.T.T.T.T.T.T.T.T.T.T.N.c.3X3X3X",
"3X3X3X3X3Xc.c.v.v.v.v.v.v.v.v.v.v.v.v.v.v.v.v.v.v.v.v.v.v.v.v.v.v.v.v.v.v.v.v.v.v.v.v.v.v.v.v.v.v.v.v.v.v.v.v.v.v.c.c.3X3X3X3X3X"
};
