/* XPM */
static char *theme2_three_xpm[] = {
/* columns rows colors chars-per-pixel */
"64 64 159 2",
"   c #0A0E0E",
".  c #0C1C1C",
"X  c #141414",
"o  c #1D1D1D",
"O  c #082323",
"+  c #132424",
"@  c #182020",
"#  c #1E2929",
"$  c #073737",
"%  c #0D3535",
"&  c #083939",
"*  c #153F3F",
"=  c #1A3939",
"-  c #232323",
";  c #232929",
":  c #2D2D2D",
">  c #2B3232",
",  c gray21",
"<  c gray22",
"1  c #0D4444",
"2  c #175353",
"3  c #165D5D",
"4  c #1A5D5D",
"5  c #254646",
"6  c #244C4C",
"7  c #2A4848",
"8  c #334F4F",
"9  c #3B4B4B",
"0  c #305353",
"q  c #325E5E",
"w  c #3C5D5D",
"e  c #156767",
"r  c #1B6161",
"t  c #176E6E",
"y  c #1B6A6A",
"u  c #1B7474",
"i  c #1D7C7C",
"p  c #256262",
"a  c #226E6E",
"s  c #296F6F",
"d  c #3E6F6F",
"f  c #287575",
"g  c #217D7D",
"h  c #2B7E7E",
"j  c #377171",
"k  c #397777",
"l  c #424242",
"z  c #454D4D",
"x  c #4C4C4C",
"c  c #535353",
"v  c #5B5B5B",
"b  c #4B6161",
"n  c #4F7979",
"m  c #547575",
"M  c #537D7D",
"N  c #646464",
"B  c #626A6A",
"V  c #6C6C6C",
"C  c #6E7B7B",
"Z  c #717171",
"A  c #747979",
"S  c #797979",
"D  c #268282",
"F  c #2C8585",
"G  c #2D8A8A",
"H  c #328383",
"J  c #398787",
"K  c #328B8B",
"L  c #3A8D8D",
"P  c #359191",
"I  c #3D9494",
"U  c #3F9898",
"Y  c #448383",
"T  c #438F8F",
"R  c #4E8C8C",
"E  c #548484",
"W  c #5C8383",
"Q  c #419292",
"!  c #4D9393",
"~  c #449999",
"^  c #4F9B9B",
"/  c #529696",
"(  c #549C9C",
")  c #5A9999",
"_  c #6F8686",
"`  c #6E8D8D",
"'  c #778383",
"]  c #7F8181",
"[  c #619090",
"{  c #6B9191",
"}  c #639B9B",
"|  c #7C9393",
" . c #57A0A0",
".. c #64A3A3",
"X. c #6BA4A4",
"o. c #65A9A9",
"O. c #6CAEAE",
"+. c #73A3A3",
"@. c #7AA6A6",
"#. c #71AAAA",
"$. c #7DABAB",
"%. c #77B3B3",
"&. c #7FB4B4",
"*. c #838383",
"=. c #818989",
"-. c #8B8B8B",
";. c #8F9090",
":. c #839E9E",
">. c #8F9A9A",
",. c #939393",
"<. c #9B9B9B",
"1. c #84AFAF",
"2. c #92AEAE",
"3. c #9BAFAF",
"4. c #89B3B3",
"5. c #87BABA",
"6. c #8EBDBD",
"7. c #93B4B4",
"8. c #9CB7B7",
"9. c #9FBDBD",
"0. c #A2A4A4",
"q. c #A0B1B1",
"w. c #A9B4B4",
"e. c #A5BCBC",
"r. c #B5B5B5",
"t. c #B5BABA",
"y. c #BBBBBB",
"u. c #9CC0C0",
"i. c #A2C6C6",
"p. c #ACC3C3",
"a. c #A3C9C9",
"s. c #AEC9C9",
"d. c #B2C4C4",
"f. c #BDC5C5",
"g. c #A6D1D1",
"h. c #AFD3D3",
"j. c #B5D3D3",
"k. c #BDD3D3",
"l. c #BFDADA",
"z. c #C3C3C3",
"x. c #C2CBCB",
"c. c #CCCCCC",
"v. c #C7D6D6",
"b. c #CFD2D2",
"n. c #C5DADA",
"m. c #D4D4D4",
"M. c #D2D9D9",
"N. c #DCDCDC",
"B. c #CEE5E5",
"V. c #D7E4E4",
"C. c #DEE0E0",
"Z. c #DFE8E8",
"A. c #E4E4E4",
"S. c #E5E9E9",
"D. c #EBEBEB",
"F. c #ECF1F1",
"G. c #F3F3F3",
"H. c #FAFAFA",
"J. c None",
/* pixels */
"J.J.J.J.J.,.,.<.<.<.<.<.<.<.<.<.<.<.<.<.<.<.<.<.<.<.<.<.<.<.<.<.<.<.<.<.<.<.<.<.<.<.<.<.<.<.<.<.<.<.<.<.<.<.<.<.<.,.,.J.J.J.J.J.",
"J.J.J.-.c.H.H.H.H.H.H.H.H.H.H.H.H.H.H.H.H.H.H.H.H.H.H.H.H.H.H.H.H.H.H.H.H.H.H.H.H.H.H.H.H.H.H.H.H.H.H.H.H.H.H.H.H.H.H.c.-.J.J.J.",
"J.J.<.D.H.H.H.H.H.H.H.H.H.H.H.H.H.H.H.H.H.H.H.H.H.H.H.H.H.H.H.H.H.H.H.H.H.H.H.H.H.H.H.H.H.H.H.H.H.H.H.B.g.B.H.H.H.H.H.H.D.<.J.J.",
"J.-.D.H.H.H.H.H.H.H.H.H.H.H.H.H.H.H.H.H.H.H.H.H.H.H.H.H.H.H.H.H.H.H.H.H.H.H.H.H.H.H.H.H.H.H.H.H.j.F u 3 & 3 u F h.H.H.H.H.D.-.J.",
"J.c.H.H.H.H.H.H.H.H.H.H.H.H.H.H.H.H.H.H.H.H.H.H.H.H.H.H.H.H.H.H.H.H.H.H.H.H.H.H.H.H.H.H.H.H.F.( r X X X X X X X 4 ( F.H.H.H.c.J.",
",.G.H.H.H.H.H.H.H.H.H.H.H.H.H.H.H.H.H.H.H.H.H.H.H.H.H.H.H.H.H.H.H.H.H.H.H.H.H.H.H.H.H.H.H.G.G = o o o o o o o o o = G G.H.H.G.,.",
",.H.H.H.H.H.H.H.H.H.H.H.H.H.H.H.H.H.H.H.H.H.H.H.H.H.H.H.H.H.H.H.H.H.H.H.H.H.H.H.H.H.H.H.H.O.6 : : : : : : : : : : : 6 o.H.H.H.,.",
"<.G.G.G.G.G.G.G.G.G.G.G.G.G.G.G.G.G.G.G.G.G.G.G.G.G.G.G.G.G.G.G.G.G.G.G.G.G.G.G.G.G.G.G.n.f < < < < < < < < < < < < < f l.G.G.<.",
"<.G.G.G.G.G.G.G.G.G.G.G.G.G.G.G.G.G.G.G.G.G.G.G.G.G.G.G.G.G.G.G.G.G.G.G.G.G.G.G.G.G.G.G. .9 l l l l l l l l l l l l l 9 ^ G.G.<.",
"<.G.G.G.G.G.G.G.G.G.G.G.G.G.G.G.G.G.G.G.G.G.G.G.G.G.G.G.G.G.G.G.G.G.G.G.G.G.G.G.G.G.G.G.K x x x x x x x x x x x x x x x G G.G.<.",
"<.G.G.G.G.G.G.G.G.G.G.G.G.G.G.G.G.G.G.G.G.G.G.G.G.G.G.G.G.G.G.G.G.G.G.G.G.G.G.G.G.G.G.F.F v v v v v v v v v v v v v v v F D.G.<.",
"<.G.G.G.G.G.G.G.G.G.G.G.G.G.G.G.G.G.G.G.G.G.G.G.G.G.G.G.G.G.G.G.G.G.G.G.G.G.G.G.G.G.G.Z.H N N N N N N N N N N N N N N N H V.G.<.",
"<.G.G.G.G.G.G.G.G.G.G.G.G.G.G.G.G.G.G.G.G.G.G.G.G.G.G.G.G.G.G.G.G.G.G.G.G.G.G.G.G.G.G.G.G V V V V V V V V V V V V V V V G G.G.<.",
"<.D.D.D.D.D.D.D.D.D.D.D.D.D.D.D.D.D.D.D.D.D.D.D.D.D.D.D.D.D.D.D.D.D.D.D.D.D.D.D.D.D.D.D.~ A S S S S S S S S S S S S S A I D.D.<.",
"<.D.D.D.D.D.D.D.D.D.D.D.D.D.D.D.D.D.D.D.D.D.D.D.D.D.D.D.D.D.D.D.D.D.D.D.D.D.D.D.D.D.D.D.&.W *.*.*.*.*.*.*.*.*.*.*.*.*.W %.D.D.<.",
"<.D.D.D.D.D.D.D.D.D.D.D.D.D.D.D.D.D.D.D.D.D.D.D.D.D.D.D.D.D.D.D.D.D.D.D.D.D.D.D.D.D.D.D.S.P =.-.-.-.-.-.-.-.-.-.-.-.=.P S.D.D.<.",
"<.D.D.D.D.D.D.D.D.D.D.D.D.D.D.D.D.D.D.D.D.D.D.D.D.D.D.D.D.D.D.D.D.D.D.D.D.D.D.D.D.D.D.D.D.k.L ,.,.,.,.,.,.,.,.,.,.,.T j.D.D.D.<.",
",.D.D.D.D.D.D.D.D.D.D.D.D.D.D.D.D.D.D.D.D.D.D.D.D.D.D.D.D.D.D.D.D.D.D.D.D.D.D.D.D.D.D.D.D.D.6.I >.<.<.<.<.<.<.<.>.I 5.D.D.D.D.,.",
",.D.D.D.D.D.D.D.D.D.D.D.D.D.D.D.D.D.D.D.D.D.D.D.D.D.D.D.D.D.D.D.D.D.D.D.D.D.D.D.D.D.D.D.D.D.D.n.U } :.0.0.0.:.} I n.D.D.D.D.D.,.",
",.S.S.S.S.S.S.S.S.S.S.S.S.S.S.S.S.S.S.S.S.S.S.S.S.S.S.S.S.S.S.S.S.S.S.S.S.S.S.S.S.S.S.S.S.S.S.S.S.a.O.~ P U O.i.A.S.S.S.S.S.S.,.",
",.S.S.S.S.S.S.S.S.S.S.S.S.S.S.S.S.S.S.S.S.S.S.S.S.S.S.S.S.S.S.S.S.S.S.S.S.S.S.S.S.S.S.S.S.S.S.S.S.S.S.S.S.S.S.S.S.S.S.S.S.S.S.,.",
",.A.A.A.A.A.A.A.A.A.A.A.A.A.A.A.A.A.A.A.A.A.A.A.A.A.A.A.A.A.A.A.A.A.A.A.A.A.A.A.A.A.A.A.A.A.A.A.A.A.A.A.A.A.A.A.A.A.A.A.A.A.A.,.",
",.A.A.A.A.A.A.A.A.A.A.A.A.A.A.A.A.A.A.A.A.A.A.A.A.A.A.A.A.A.A.A.A.A.A.A.A.A.A.A.A.A.A.A.A.A.A.A.A.A.A.A.A.A.A.A.A.A.A.A.A.A.A.,.",
",.A.A.A.A.A.A.A.A.A.A.A.A.A.A.A.A.A.A.A.A.A.A.A.A.A.A.A.M.i...K ! 6.k.A.A.A.A.A.A.A.A.A.A.A.A.A.A.A.A.A.A.A.A.A.A.A.A.A.A.A.A.,.",
",.A.A.A.A.A.A.A.A.A.A.A.A.A.A.A.A.A.A.A.A.A.A.A.A.A.C...u 1 O   . % 3 K v.A.A.A.A.A.A.A.A.A.A.A.A.A.A.A.A.A.A.A.A.A.A.A.A.A.A.,.",
",.A.A.A.A.A.A.A.A.A.A.A.A.A.A.A.A.A.A.A.A.A.A.A.A.k.D * X X X X X X X + u &.A.A.A.A.A.A.A.A.A.A.A.A.A.A.A.A.A.A.A.A.A.A.A.A.A.,.",
",.N.N.N.N.N.N.N.N.N.N.N.N.N.N.N.N.N.N.N.N.N.N.N.M.g # - - - - - - - - - - y u.N.N.N.N.N.N.N.N.N.N.N.N.N.N.N.N.N.N.N.N.N.N.N.N.,.",
",.N.N.N.N.N.N.N.N.N.N.N.N.N.N.N.N.N.N.N.N.N.N.N.^ 5 : : : : : : : : : : : > i M.N.N.N.N.N.N.N.N.N.N.N.N.N.N.N.N.N.N.N.N.N.N.N.,.",
",.N.N.N.N.N.N.N.N.N.N.N.N.N.N.N.N.N.N.N.N.N.N.s.a , , , , , , , , , , , , , 7 ( N.N.N.N.N.N.N.N.N.N.N.N.N.N.N.N.N.N.N.N.N.N.N.,.",
",.N.N.N.N.N.N.N.N.N.N.N.N.N.N.N.N.N.N.N.N.N.N.X.8 l l l l l l l l l l l l l l F N.N.N.N.N.N.N.N.N.N.N.N.N.N.N.N.N.N.N.N.N.N.N.,.",
",.N.N.N.N.N.N.N.N.N.N.N.N.N.N.N.N.N.N.N.N.N.N.L x x x x x x x x x x x x x x x h M.N.N.N.N.N.N.N.N.N.N.N.N.N.N.N.N.N.N.N.N.N.N.,.",
",.N.N.N.N.N.N.N.N.N.N.N.N.N.N.N.N.N.N.N.N.N.N.F c c c c c c c c c c c c c c c j i.N.N.N.N.N.N.N.N.N.N.N.N.N.N.N.N.N.N.N.N.N.N.,.",
",.M.M.M.M.M.M.M.M.M.M.M.M.M.M.M.M.M.M.M.M.M.M.F v v v v v v v v v v v v v v v k p.M.M.M.M.M.M.M.M.M.M.M.M.M.M.M.M.M.M.M.M.M.M.,.",
",.m.m.m.m.m.m.m.m.m.m.m.m.m.m.m.m.m.m.m.m.m.m.Q B N N N N N N N N N N N N N N H m.m.m.m.m.m.m.m.m.m.m.m.m.m.m.m.m.m.m.m.m.m.m.,.",
",.m.m.m.m.m.m.m.m.m.m.m.m.m.m.m.m.m.m.m.m.m.m.#.m Z Z Z Z Z Z Z Z Z Z Z Z Z Z K m.m.m.m.m.m.m.m.m.m.m.m.m.m.m.m.m.m.m.m.m.m.m.,.",
",.m.m.m.m.m.m.m.m.m.m.m.m.m.m.m.m.m.m.m.m.m.m.d.F S S S S S S S S S S S S S M ..m.m.m.m.m.m.m.m.m.m.m.m.m.m.m.m.m.m.m.m.m.m.m.,.",
",.m.m.m.m.m.m.m.m.m.m.m.m.m.m.m.m.m.m.m.m.m.m.m.X.E *.*.*.*.*.*.*.*.*.*.*.' G b.m.m.m.m.m.m.m.m.m.m.m.m.m.m.m.m.m.m.m.m.m.m.m.,.",
",.m.m.m.m.m.m.m.m.m.m.m.m.m.m.m.m.m.m.m.m.m.m.m.m.K _ -.-.-.-.-.-.-.-.-.=.G p.m.m.m.m.m.m.m.m.m.m.m.m.m.m.m.m.m.m.m.m.m.m.m.m.,.",
",.m.m.m.m.m.m.m.m.m.m.m.m.m.m.m.m.m.m.m.m.m.m.m.m.x.~ R ;.,.,.,.,.,.,.` K 9.m.m.m.m.m.m.m.m.m.m.m.m.m.m.m.m.m.m.m.m.m.m.m.m.m.,.",
",.m.m.m.m.m.m.m.m.m.m.m.m.m.m.m.m.m.m.m.m.m.m.m.m.m.m.4.G T [ | { ! K ( c.m.m.m.m.m.m.m.m.m.m.m.m.m.m.m.m.m.m.m.m.m.m.m.m.m.m.,.",
",.c.c.c.c.c.c.c.c.c.c.c.c.c.c.c.c.c.c.c.c.c.c.c.c.c.c.c.c.d.4...$.e.c.c.c.c.c.c.c.c.c.c.c.c.c.c.c.c.c.c.c.c.c.c.c.c.c.c.c.c.c.,.",
",.c.c.c.c.c.c.c.c.c.c.c.c.c.c.c.c.c.c.c.c.c.c.c.c.c.c.c.c.c.c.c.c.c.c.c.c.c.c.c.c.c.c.c.c.c.c.c.c.c.c.c.c.c.c.c.c.c.c.c.c.c.c.,.",
",.c.c.c.c.c.c.c.c.c.c.c.c.c.c.c.c.c.c.c.c.c.c.c.c.c.c.c.c.c.c.c.c.c.c.c.c.c.c.c.c.c.c.c.c.c.c.c.c.c.c.c.c.c.c.c.c.c.c.c.c.c.c.,.",
",.c.c.c.c.c.c.c.c.p.1.7.f.c.c.c.c.c.c.c.c.c.c.c.c.c.c.c.c.c.c.c.c.c.c.c.c.c.c.c.c.c.c.c.c.c.c.c.c.c.c.c.c.c.c.c.c.c.c.c.c.c.c.,.",
",.c.c.c.c.c.d.H u 3 $ 1 e i ! z.c.c.c.c.c.c.c.c.c.c.c.c.c.c.c.c.c.c.c.c.c.c.c.c.c.c.c.c.c.c.c.c.c.c.c.c.c.c.c.c.c.c.c.c.c.c.c.,.",
",.c.c.c.c.+.u . X X X X X X % i 8.c.c.c.c.c.c.c.c.c.c.c.c.c.c.c.c.c.c.c.c.c.c.c.c.c.c.c.c.c.c.c.c.c.c.c.c.c.c.c.c.c.c.c.c.c.c.,.",
",.c.c.c.) 2 o o o o o o o o o @ t 7.c.c.c.c.c.c.c.c.c.c.c.c.c.c.c.c.c.c.c.c.c.c.c.c.c.c.c.c.c.c.c.c.c.c.c.c.c.c.c.c.c.c.c.c.c.,.",
"-.z.z.8.y - - - - - - - - - - - ; g f.z.z.z.z.z.z.z.z.z.z.z.z.z.z.z.z.z.z.z.z.z.z.z.z.z.z.z.z.z.z.z.z.z.z.z.z.z.z.z.z.z.z.z.z.-.",
"-.z.z.D > : : : : : : : : : : : : 5 ! z.z.z.z.z.z.z.z.z.z.z.z.z.z.z.z.z.z.z.z.z.z.z.z.z.z.z.z.z.z.z.z.z.z.z.z.z.z.z.z.z.z.z.z.-.",
"-.z.7.p < < < < < < < < < < < < < < g z.z.z.z.z.z.z.z.z.z.z.z.z.z.z.z.z.z.z.z.z.z.z.z.z.z.z.z.z.z.z.z.z.z.z.z.z.z.z.z.z.z.z.z.-.",
"-.z.} 0 l l l l l l l l l l l l l l s e.z.z.z.z.z.z.z.z.z.z.z.z.z.z.z.z.z.z.z.z.z.z.z.z.z.z.z.z.z.z.z.z.z.z.z.z.z.z.z.z.z.z.z.-.",
"-.z.L z x x x x x x x x x x x x x x q @.z.z.z.z.z.z.z.z.z.z.z.z.z.z.z.z.z.z.z.z.z.z.z.z.z.z.z.z.z.z.z.z.z.z.z.z.z.z.z.z.z.z.z.-.",
"-.z.F c c c c c c c c c c c c c c c w } z.z.z.z.z.z.z.z.z.z.z.z.z.z.z.z.z.z.z.z.z.z.z.z.z.z.z.z.z.z.z.z.z.z.z.z.z.z.z.z.z.z.z.-.",
"-.z./ b v v v v v v v v v v v v v v j 7.z.z.z.z.z.z.z.z.z.z.z.z.z.z.z.z.z.z.z.z.z.z.z.z.z.z.z.z.z.z.z.z.z.z.z.z.z.z.z.z.z.z.z.-.",
"-.y.$.d N N N N N N N N N N N N N N h t.y.y.y.y.y.y.y.y.y.y.y.y.y.y.y.y.y.y.y.y.y.y.y.y.y.y.y.y.y.y.y.y.y.y.y.y.y.y.y.y.y.y.y.-.",
"-.y.w.D V V V V V V V V V V V V V B F y.y.y.y.y.y.y.y.y.y.y.y.y.y.y.y.y.y.y.y.y.y.y.y.y.y.y.y.y.y.y.y.y.y.y.y.y.y.y.y.y.y.y.y.-.",
"-.y.y.) n Z Z Z Z Z Z Z Z Z Z Z Z H 2.y.y.y.y.y.y.y.y.y.y.y.y.y.y.y.y.y.y.y.y.y.y.y.y.y.y.y.y.y.y.y.y.y.y.y.y.y.y.y.y.y.y.y.y.-.",
"-.y.y.t.G C S S S S S S S S S S M / y.y.y.y.y.y.y.y.y.y.y.y.y.y.y.y.y.y.y.y.y.y.y.y.y.y.y.y.y.y.y.y.y.y.y.y.y.y.y.y.y.y.y.y.y.-.",
"=.r.y.y.q.G W *.*.*.*.*.*.*.] Y Q t.y.y.y.y.y.y.y.y.y.y.y.y.y.y.y.y.y.y.y.y.y.y.y.y.y.y.y.y.y.y.y.y.y.y.y.y.y.y.y.y.y.y.y.y.r.=.",
"J.0.y.y.y.t.) J W ' *.*._ E F @.y.y.y.y.y.y.y.y.y.y.y.y.y.y.y.y.y.y.y.y.y.y.y.y.y.y.y.y.y.y.y.y.y.y.y.y.y.y.y.y.y.y.y.y.y.y.0.J.",
"J.*.r.t.t.t.t.3.X.Q G G ! +.w.t.t.t.t.t.t.t.t.t.t.t.t.t.t.t.t.t.t.t.t.t.t.t.t.t.t.t.t.t.t.t.t.t.t.t.t.t.t.t.t.t.t.t.t.t.t.r.*.J.",
"J.J.-.r.r.r.r.r.r.r.r.r.r.r.r.r.r.r.r.r.r.r.r.r.r.r.r.r.r.r.r.r.r.r.r.r.r.r.r.r.r.r.r.r.r.r.r.r.r.r.r.r.r.r.r.r.r.r.r.r.r.-.J.J.",
"J.J.J.*.<.r.r.r.r.r.r.r.r.r.r.r.r.r.r.r.r.r.r.r.r.r.r.r.r.r.r.r.r.r.r.r.r.r.r.r.r.r.r.r.r.r.r.r.r.r.r.r.r.r.r.r.r.r.r.<.*.J.J.J.",
"J.J.J.J.J.*.-.-.-.-.-.-.-.-.-.-.-.-.-.-.-.-.-.-.-.-.-.-.-.-.-.-.-.-.-.-.-.-.-.-.-.-.-.-.-.-.-.-.-.-.-.-.-.-.-.-.-.-.*.J.J.J.J.J."
};
