/* XPM */
static char *five_xpm[] = {
/* columns rows colors chars-per-pixel */
"64 64 190 2",
"   c #0A0E0E",
".  c #0C1C1C",
"X  c #131313",
"o  c #1C1C1C",
"O  c #082323",
"+  c #122424",
"@  c #1C2222",
"#  c #1E2929",
"$  c #063434",
"%  c #0D3535",
"&  c #083939",
"*  c #163232",
"=  c #143D3D",
"-  c #1A3939",
";  c #232323",
":  c #232929",
">  c #2D2D2D",
",  c #2B3131",
"<  c gray21",
"1  c #333E3E",
"2  c gray22",
"3  c #0C4242",
"4  c #1E4343",
"5  c #114D4D",
"6  c #0F5050",
"7  c #145454",
"8  c #165D5D",
"9  c #1C5D5D",
"0  c #254646",
"q  c #244C4C",
"w  c #2A4848",
"e  c #314242",
"r  c #334F4F",
"t  c #3B4B4B",
"y  c #2F5050",
"u  c #305353",
"i  c #325E5E",
"p  c #3A5D5D",
"a  c #156767",
"s  c #1A6464",
"d  c #166E6E",
"f  c #1B6C6C",
"g  c #1B7474",
"h  c #1D7C7C",
"j  c #256262",
"k  c #216C6C",
"l  c #2B6D6D",
"z  c #3C6C6C",
"x  c #227474",
"c  c #287575",
"v  c #217C7C",
"b  c #2B7C7C",
"n  c #377171",
"m  c #397777",
"M  c #307979",
"N  c #424242",
"B  c #454D4D",
"V  c #4C4C4C",
"C  c #525252",
"Z  c #515C5C",
"A  c #5A5A5A",
"S  c #4B6161",
"D  c #476A6A",
"F  c #5E6565",
"G  c #4A7373",
"H  c #407C7C",
"J  c #4D7B7B",
"K  c #547575",
"L  c #597171",
"P  c #537D7D",
"I  c #646464",
"U  c #626A6A",
"Y  c #6C6C6C",
"T  c #697272",
"R  c #6E7B7B",
"E  c #717171",
"W  c #747979",
"Q  c #797979",
"!  c #258181",
"~  c #2B8585",
"^  c #2D8A8A",
"/  c #328383",
"(  c #398787",
")  c #338B8B",
"_  c #3B8D8D",
"`  c #369292",
"'  c #3C9494",
"]  c #3F9898",
"[  c #448383",
"{  c #4A8686",
"}  c #438E8E",
"|  c #4E8C8C",
" . c #548484",
".. c #5C8383",
"X. c #429393",
"o. c #4D9393",
"O. c #459999",
"+. c #4D9C9C",
"@. c #529696",
"#. c #5A9595",
"$. c #549C9C",
"%. c #5B9999",
"&. c #668585",
"*. c #6F8686",
"=. c #638B8B",
"-. c #6E8D8D",
";. c #758282",
":. c #7E8383",
">. c #619090",
",. c #6C9191",
"<. c #649C9C",
"1. c #6D9999",
"2. c #769797",
"3. c #7C9393",
"4. c #779B9B",
"5. c #57A0A0",
"6. c #5AA5A5",
"7. c #63A4A4",
"8. c #6BA4A4",
"9. c #65AAAA",
"0. c #6DADAD",
"q. c #73A2A2",
"w. c #7AA6A6",
"e. c #71AAAA",
"r. c #7DACAC",
"t. c #76B2B2",
"y. c #7EB5B5",
"u. c #838383",
"i. c #818989",
"p. c #8B8B8B",
"a. c #879292",
"s. c #8F9090",
"d. c #839E9E",
"f. c #8E9C9C",
"g. c #939393",
"h. c #9B9B9B",
"j. c #85ACAC",
"k. c #98A3A3",
"l. c #93AEAE",
"z. c #9BAFAF",
"x. c #80B7B7",
"c. c #89B3B3",
"v. c #85BABA",
"b. c #8EBDBD",
"n. c #94B4B4",
"m. c #9BB4B4",
"M. c #9FBCBC",
"N. c #A3A4A4",
"B. c #A1B1B1",
"V. c #A9B4B4",
"C. c #A3BBBB",
"Z. c #ADBABA",
"A. c #B5B5B5",
"S. c #B6BABA",
"D. c #BBBBBB",
"F. c #94C2C2",
"G. c #9AC3C3",
"H. c #9DC8C8",
"J. c #A2C6C6",
"K. c #ACC3C3",
"L. c #A3C9C9",
"P. c #AEC9C9",
"I. c #B2C4C4",
"U. c #BCC3C3",
"Y. c #A6D1D1",
"T. c #AED3D3",
"R. c #B3D2D2",
"E. c #BDD3D3",
"W. c #BDDADA",
"Q. c #C4C4C4",
"!. c #C5CACA",
"~. c #CCCCCC",
"^. c #C7D6D6",
"/. c #CFD2D2",
"(. c #C4DADA",
"). c #D4D4D4",
"_. c #D2DBDB",
"`. c #DCDCDC",
"'. c #C7E0E0",
"]. c #CDE3E3",
"[. c #D5E3E3",
"{. c #DEE0E0",
"}. c #DFEBEB",
"|. c #E4E4E4",
" X c #E3E9E9",
".X c #EBEBEB",
"XX c #EDF2F2",
"oX c #F4F4F4",
"OX c #FBFBFB",
"+X c None",
/* pixels */
"+X+X+X+X+Xg.g.h.h.h.h.h.h.h.h.h.h.h.h.h.h.h.h.h.h.h.h.h.h.h.h.h.h.h.h.h.h.h.h.h.h.h.h.h.h.h.h.h.h.h.h.h.h.h.h.h.h.g.g.+X+X+X+X+X",
"+X+X+Xp.~.oXOXOXOXOXOXOXOXOXOXOXOXOXOXOXOXOXOXOXOXOXOXOXOXOXOXOXOXOXOXOXOXOXOXOXOXOXOXOXOXOXOXOXOXOXOXOXOXOXOXOXOXOXoX~.p.+X+X+X",
"+X+Xh..XOXOXOXOXOX}.T.W.XXOXOXOXOXOXOXOXOXOXOXOXOXOXOXOXOXOXOXOXOXOXOXOXOXOXOXOXOXOXOXOXOXOXOXOXOXOXOX].Y.].OXOXOXOXOXOX.Xh.+X+X",
"+Xp..XOXOXOX XO.v a 3 5 d ! 0.oXOXOXOXOXOXOXOXOXOXOXOXOXOXOXOXOXOXOXOXOXOXOXOXOXOXOXOXOXOXOXOXOXR.~ g 8 & 8 g ~ T.OXOXOXOX.Xp.+X",
"+X!.OXOXOXF.v + X X X X X X = ~ '.OXOXOXOXOXOXOXOXOXOXOXOXOXOXOXOXOXOXOXOXOXOXOXOXOXOXOXOXOXXX$.s X X X X X X X 9 $.XXOXOXOX!.+X",
"g.oXOXOXt.9 @ o o o o o o o o # g (.OXOXOXOXOXOXOXOXOXOXOXOXOXOXOXOXOXOXOXOXOXOXOXOXOXOXOXoX^ - o o o o o o o o o - ^ oXOXOXoXg.",
"g.oXoX'.x > > > > > > > > > > > , ~ XXoXoXoXoXoXoXoXoXoXoXoXoXoXoXoXoXoXoXoXoXoXoXoXoXoXoX0.q > > > > > > > > > > > q 9.oXoXoXg.",
"h.oXoX) 1 2 2 2 2 2 2 2 2 2 2 2 2 y 7.oXoXoXoXoXoXoXoXoXoXoXoXoXoXoXoXoXoXoXoXoXoXoXoXoX(.c 2 2 2 2 2 2 2 2 2 2 2 2 2 c W.oXoXh.",
"h.oXW.l N N N N N N N N N N N N N N ! oXoXoXoXoXoXoXoXoXoXoXoXoXoXoXoXoXoXoXoXoXoXoXoXoX5.t N N N N N N N N N N N N N t +.oXoXh.",
"h.oXv.p V V V V V V V V V V V V V V M ].oXoXoXoXoXoXoXoXoXoXoXoXoXoXoXoXoXoXoXoXoXoXoXoX) V V V V V V V V V V V V V V V ^ oXoXh.",
"h.oXO.Z A A A A A A A A A A A A A A z G.oXoXoXoXoXoXoXoXoXoXoXoXoXoXoXoXoXoXoXoXoXoXoXXX~ A A A A A A A A A A A A A A A ~ .XoXh.",
"h.oX` I I I I I I I I I I I I I I I D y.oXoXoXoXoXoXoXoXoXoXoXoXoXoXoXoXoXoXoXoXoXoXoX}./ I I I I I I I I I I I I I I I / [.oXh.",
"h.oX7.L Y Y Y Y Y Y Y Y Y Y Y Y Y Y H R.oXoXoXoXoXoXoXoXoXoXoXoXoXoXoXoXoXoXoXoXoXoXoXoX^ Y Y Y Y Y Y Y Y Y Y Y Y Y Y Y ^ oXoXh.",
"h..XH.J Q Q Q Q Q Q Q Q Q Q Q Q Q Q )  X.X.X.X.X.X.X.X.X.X.X.X.X.X.X.X.X.X.X.X.X.X.X.X.XX.W Q Q Q Q Q Q Q Q Q Q Q Q Q W ' .X.Xh.",
"h..X[.) u.u.u.u.u.u.u.u.u.u.u.u.u.:.` .X.X.X.X.X.X.X.X.X.X.X.X.X.X.X.X.X.X.X.X.X.X.X.X.Xy...u.u.u.u.u.u.u.u.u.u.u.u.u...t..X.Xh.",
"h..X.X0.=.p.p.p.p.p.p.p.p.p.p.p.p.} R..X.X.X.X.X.X.X.X.X.X.X.X.X.X.X.X.X.X.X.X.X.X.X.X.X X` i.p.p.p.p.p.p.p.p.p.p.p.i.`  X.X.Xh.",
"h..X.X X` a.g.g.g.g.g.g.g.g.g.g.,.9..X.X.X.X.X.X.X.X.X.X.X.X.X.X.X.X.X.X.X.X.X.X.X.X.X.X.XE._ g.g.g.g.g.g.g.g.g.g.g.} R..X.X.Xh.",
"g..X.X.X(.` 2.h.h.h.h.h.h.h.h.#.+. X.X.X.X.X.X.X.X.X.X.X.X.X.X.X.X.X.X.X.X.X.X.X.X.X.X.X.X.Xb.' f.h.h.h.h.h.h.h.f.' v..X.X.X.Xg.",
"g..X.X.X.X|.9.o.4.k.N.N.f.1.` F..X.X.X.X.X.X.X.X.X.X.X.X.X.X.X.X.X.X.X.X.X.X.X.X.X.X.X.X.X.X.X(.] <.d.N.N.N.d.<.' (..X.X.X.X.Xg.",
"g. X X X X X XE.x.+.` ` 6.b._. X X X X X X X X X X X X X X X X X X X X X X X X X X X X X X X X X XL.0.O.` ] 0.J.|. X X X X X Xg.",
"g. X X X X X X X X X X X X X X X X X X X X X X X X X X X X X X X X X X X X X X X X X X X X X X X X X X X X X X X X X X X X X Xg.",
"g.|.|.|.|.|.|.|.|.|.|.|.|.|.|.|.|.|.|.|.|.|.|.|.|.|.|.|.|.|.|.|.|.|.|.|.|.|.|.|.|.|.|.|.|.|.|.|.|.|.|.|.|.|.|.|.|.|.|.|.|.|.|.g.",
"g.|.|.|.|.|.|.|.|.|.|.|.|.|.|.|.|.|.|.|.|.|.|.|.|.|.|.|.|.|.|.|.|.|.|.|.|.|.|.|.|.|.|.|.|.|.|.|.|.|.|.|.|.|.|.|.|.|.|.|.|.|.|.g.",
"g.|.|.|.|.|.|.|.|.|.|.|.|.|.|.|.|.|.|.|.|.|.|.|.|.|.|.|._.J.7.) o.b.E.|.|.|.|.|.|.|.|.|.|.|.|.|.|.|.|.|.|.|.|.|.|.|.|.|.|.|.|.g.",
"g.|.|.|.|.|.|.|.|.|.|.|.|.|.|.|.|.|.|.|.|.|.|.|.|.|.{.7.g 3 O   . % 8 ) ^.|.|.|.|.|.|.|.|.|.|.|.|.|.|.|.|.|.|.|.|.|.|.|.|.|.|.g.",
"g.|.|.|.|.|.|.|.|.|.|.|.|.|.|.|.|.|.|.|.|.|.|.|.|.E.! = X X X X X X X + g y.|.|.|.|.|.|.|.|.|.|.|.|.|.|.|.|.|.|.|.|.|.|.|.|.|.g.",
"g.`.`.`.`.`.`.`.`.`.`.`.`.`.`.`.`.`.`.`.`.`.`.`._.v # ; ; ; ; ; ; ; ; ; ; a G.`.`.`.`.`.`.`.`.`.`.`.`.`.`.`.`.`.`.`.`.`.`.`.`.g.",
"g.`.`.`.`.`.`.`.`.`.`.`.`.`.`.`.`.`.`.`.`.`.`.`.+.0 > > > > > > > > > > > , h _.`.`.`.`.`.`.`.`.`.`.`.`.`.`.`.`.`.`.`.`.`.`.`.g.",
"g.`.`.`.`.`.`.`.`.`.`.`.`.`.`.`.`.`.`.`.`.`.`.P.k < < < < < < < < < < < < < w $.`.`.`.`.`.`.`.`.`.`.`.`.`.`.`.`.`.`.`.`.`.`.`.g.",
"g.`.`.`.`.`.`.`.`.`.`.`.`.`.`.`.`.`.`.`.`.`.`.8.r N N N N N N N N N N N N N N ~ `.`.`.`.`.`.`.`.`.`.`.`.`.`.`.`.`.`.`.`.`.`.`.g.",
"g.`.`.`.`.`.`.`.`.`.`.`.`.`.`.`.`.`.`.`.`.`.`._ V V V V V V V V V V V V V V V b _.`.`.`.`.`.`.`.`.`.`.`.`.`.`.`.`.`.`.`.`.`.`.g.",
"g.`.`.`.`.`.`.`.`.`.`.`.`.`.`.`.`.`.`.`.`.`.`.~ C C C C C C C C C C C C C C C n J.`.`.`.`.`.`.`.`.`.`.`.`.`.`.`.`.`.`.`.`.`.`.g.",
"g.`.`.`.`.`.`.`.`.`.`.`.`.`.`.`.`.`.`.`.`.`.`.~ A A A A A A A A A A A A A A A m K.`.`.`.`.`.`.`.`.`.`.`.`.`.`.`.`.`.`.`.`.`.`.g.",
"g.).).).).).).).).).).).).).).).).).).).).).).X.U I I I I I I I I I I I I I I / ).).).).).).).).).).).).).).).).).).).).).).).g.",
"g.).).).).).).).).).).).).).).).).).).).).).).e.K E E E E E E E E E E E E E E ) ).).).).).).).).).).).).).).).).).).).).).).).g.",
"g.).).).).).).).).).).).).).).).).).).).).).).I.~ Q Q Q Q Q Q Q Q Q Q Q Q Q P 7.).).).).).).).).).).).).).).).).).).).).).).).g.",
"g.).).).).).).).).).).).).).).).).).).).).).).).8. .u.u.u.u.u.u.u.u.u.u.u.;.^ /.).).).).).).).).).).).).).).).).).).).).).).).g.",
"g.).).).).).).).).).).).).).).).).).).).).).).).).) *.p.p.p.p.p.p.p.p.p.i.^ K.).).).).).).).).).).).).).).).).).).).).).).).).g.",
"g.).).).).).).).).).).).).).).).).).).).).).).).).!.O.| s.g.g.g.g.g.g.-.) M.).).).).).).).).).).).).).).).).).).).).).).).).).g.",
"g.).).).).).).).).).).).).).).).).).).).).).).).).).).c.^ } >.3.,.o.) $.~.).).).).).).).).).).).).).).).).).).).).).).).).).).g.",
"g.~.~.~.~.~.~.~.~.~.~.~.~.~.~.~.~.~.~.~.~.~.~.~.~.~.~.~.~.I.c.7.r.C.~.~.~.~.~.~.~.~.~.~.~.~.~.~.~.~.~.~.~.~.~.~.~.~.~.~.~.~.~.g.",
"g.~.~.~.~.~.~.~.~.~.~.~.~.~.~.~.~.~.~.~.~.~.~.~.~.~.~.~.~.~.~.~.~.~.~.~.~.~.~.~.~.~.~.~.~.~.~.~.~.~.~.~.~.~.~.~.~.~.~.~.~.~.~.g.",
"g.~.~.~.~.~.~.~.~.~.~.~.~.~.~.~.~.~.~.~.~.~.~.~.~.~.~.~.~.~.~.~.~.~.~.~.~.~.~.~.~.~.~.~.~.~.~.~.~.~.~.~.~.~.~.~.~.~.~.~.~.~.~.g.",
"g.~.~.~.~.~.~.~.~.K.j.n.U.~.~.~.~.~.~.~.~.~.~.~.~.~.~.~.~.~.~.~.~.~.~.~.~.~.~.~.~.~.~.~.~.~.~.~.~.~.!.C.r.M.!.~.~.~.~.~.~.~.~.g.",
"g.~.~.~.~.~.I./ g 8 & 3 a g o.Q.~.~.~.~.~.~.~.~.~.~.~.~.~.~.~.~.~.~.~.~.~.~.~.~.~.~.~.~.~.~.~.~.j.v d 7 $ 6 d v j.~.~.~.~.~.~.g.",
"g.!.!.!.!.q.g . X X X X X X % h m.!.!.!.!.!.!.!.!.!.!.!.!.!.!.!.!.!.!.!.!.!.!.!.!.!.!.!.!.!.U._ 7 X X X X X X X 7 _ U.!.!.!.!.g.",
"g.!.!.!.%.7 o o o o o o o o o @ d n.!.!.!.!.!.!.!.!.!.!.!.!.!.!.!.!.!.!.!.!.!.!.!.!.!.!.!.Q.! * o o o o o o o o o * v Q.!.!.!.g.",
"p.!.!.m.f ; ; ; ; ; ; ; ; ; ; ; : v U.!.!.!.!.!.!.!.!.!.!.!.!.!.!.!.!.!.!.!.!.!.!.!.!.!.!.@.4 ; ; ; ; ; ; ; ; ; ; ; 4 o.!.!.!.p.",
"p.Q.Q.! , > > > > > > > > > > > > 0 o.Q.Q.Q.Q.Q.Q.Q.Q.Q.Q.Q.Q.Q.Q.Q.Q.Q.Q.Q.Q.Q.Q.Q.Q.Q.m.k > > > > > > > > > > > > > k n.Q.Q.p.",
"p.Q.n.j 2 2 2 2 2 2 2 2 2 2 2 2 2 2 v Q.Q.Q.Q.Q.Q.Q.Q.Q.Q.Q.Q.Q.Q.Q.Q.Q.Q.Q.Q.Q.Q.Q.Q.Q.} e 2 2 2 2 2 2 2 2 2 2 2 2 2 1 _ Q.Q.p.",
"p.Q.<.u N N N N N N N N N N N N N N l C.Q.Q.Q.Q.Q.Q.Q.Q.Q.Q.Q.Q.Q.Q.Q.Q.Q.Q.Q.Q.Q.Q.Q.Q.! N N N N N N N N N N N N N N N ! Q.Q.p.",
"p.Q._ B V V V V V V V V V V V V V V i w.Q.Q.Q.Q.Q.Q.Q.Q.Q.Q.Q.Q.Q.Q.Q.Q.Q.Q.Q.Q.Q.Q.Q.U.v V V V V V V V V V V V V V V V v D.Q.p.",
"p.Q.~ C C C C C C C C C C C C C C C p <.Q.Q.Q.Q.Q.Q.Q.Q.Q.Q.Q.Q.Q.Q.Q.Q.Q.Q.Q.Q.Q.Q.Q.S.b C C C C C C C C C C C C C C C b Z.Q.p.",
"p.Q.@.S A A A A A A A A A A A A A A n n.Q.Q.Q.Q.Q.Q.Q.Q.Q.Q.Q.Q.Q.Q.Q.Q.Q.Q.Q.Q.Q.Q.Q.Q.! A A A A A A A A A A A A A A A ! Q.Q.p.",
"p.D.r.z I I I I I I I I I I I I I I b S.D.D.D.D.D.D.D.D.D.D.D.D.D.D.D.D.D.D.D.D.D.D.D.D.) F I I I I I I I I I I I I I I ) D.D.p.",
"p.D.V.~ Y Y Y Y Y Y Y Y Y Y Y Y Y U ~ D.D.D.D.D.D.D.D.D.D.D.D.D.D.D.D.D.D.D.D.D.D.D.D.D.<.G Y Y Y Y Y Y Y Y Y Y Y Y Y G <.D.D.p.",
"p.D.D.%.J E E E E E E E E E E E E / l.D.D.D.D.D.D.D.D.D.D.D.D.D.D.D.D.D.D.D.D.D.D.D.D.D.S.~ T E E E E E E E E E E E T ~ S.D.D.p.",
"p.D.D.S.^ R Q Q Q Q Q Q Q Q Q Q P @.D.D.D.D.D.D.D.D.D.D.D.D.D.D.D.D.D.D.D.D.D.D.D.D.D.D.D.m./ Q Q Q Q Q Q Q Q Q Q Q / l.D.D.D.p.",
"i.A.D.D.B.^ ..u.u.u.u.u.u.u.:.[ X.S.D.D.D.D.D.D.D.D.D.D.D.D.D.D.D.D.D.D.D.D.D.D.D.D.D.D.D.D.q.~ ;.u.u.u.u.u.u.u.;.~ q.D.D.D.A.i.",
"+XN.D.D.D.S.@.( ..;.u.u.*. .~ w.D.D.D.D.D.D.D.D.D.D.D.D.D.D.D.D.D.D.D.D.D.D.D.D.D.D.D.D.D.D.D.B.) { &.:.u.:.&.{ ) B.D.D.D.D.N.+X",
"+Xu.A.S.S.S.S.z.8.X.^ ^ o.q.V.S.S.S.S.S.S.S.S.S.S.S.S.S.S.S.S.S.S.S.S.S.S.S.S.S.S.S.S.S.S.S.S.S.A.j.%.) ^ ) %.j.S.S.S.S.S.A.u.+X",
"+X+Xp.A.A.A.A.A.A.A.A.A.A.A.A.A.A.A.A.A.A.A.A.A.A.A.A.A.A.A.A.A.A.A.A.A.A.A.A.A.A.A.A.A.A.A.A.A.A.A.A.A.A.A.A.A.A.A.A.A.A.p.+X+X",
"+X+X+Xu.h.A.A.A.A.A.A.A.A.A.A.A.A.A.A.A.A.A.A.A.A.A.A.A.A.A.A.A.A.A.A.A.A.A.A.A.A.A.A.A.A.A.A.A.A.A.A.A.A.A.A.A.A.A.A.h.u.+X+X+X",
"+X+X+X+X+Xu.p.p.p.p.p.p.p.p.p.p.p.p.p.p.p.p.p.p.p.p.p.p.p.p.p.p.p.p.p.p.p.p.p.p.p.p.p.p.p.p.p.p.p.p.p.p.p.p.p.p.p.p.u.+X+X+X+X+X"
};
