/* XPM */
static char *four_xpm[] = {
/* columns rows colors chars-per-pixel */
"64 64 171 2",
"   c #0F1E1E",
".  c #121212",
"X  c #1C1C1C",
"o  c #122424",
"O  c #1C2222",
"+  c #063434",
"@  c #0F3333",
"#  c #083939",
"$  c #163232",
"%  c #143B3B",
"&  c #1A3939",
"*  c gray14",
"=  c #232929",
"-  c #2E2E2E",
";  c #2B3232",
":  c #333E3E",
">  c gray22",
",  c #0C4242",
"<  c #1E4343",
"1  c #114D4D",
"2  c #0F5050",
"3  c #145454",
"4  c #165D5D",
"5  c #1C5D5D",
"6  c #274646",
"7  c #244C4C",
"8  c #314242",
"9  c #3B4B4B",
"0  c #2F5050",
"q  c #305353",
"w  c #325E5E",
"e  c #3A5D5D",
"r  c #156767",
"t  c #1A6464",
"y  c #166E6E",
"u  c #1B6E6E",
"i  c #1B7575",
"p  c #1C7A7A",
"a  c #256262",
"s  c #216A6A",
"d  c #2B6D6D",
"f  c #3C6C6C",
"g  c #227474",
"h  c #287575",
"j  c #217C7C",
"k  c #2B7B7B",
"l  c #377171",
"z  c #307979",
"x  c #424242",
"c  c #454D4D",
"v  c #4C4C4C",
"b  c #515151",
"n  c #515C5C",
"m  c #595959",
"M  c #4B6161",
"N  c #476A6A",
"B  c #5E6565",
"V  c #4A7373",
"C  c #407C7C",
"Z  c #4D7B7B",
"A  c #597171",
"S  c #557C7C",
"D  c #636363",
"F  c #656C6C",
"G  c #6C6C6C",
"H  c #697272",
"J  c #6E7B7B",
"K  c #717171",
"L  c #747979",
"P  c #797979",
"I  c #258181",
"U  c #2B8585",
"Y  c #2D8A8A",
"T  c #328383",
"R  c #398787",
"E  c #348B8B",
"W  c #3C8C8C",
"Q  c #369292",
"!  c #3C9494",
"~  c #3F9898",
"^  c #448383",
"/  c #4A8686",
"(  c #438E8E",
")  c #558484",
"_  c #5C8383",
"`  c #439393",
"'  c #4C9393",
"]  c #449999",
"[  c #4D9D9D",
"{  c #529696",
"}  c #5A9595",
"|  c #539C9C",
" . c #5B9999",
".. c #668585",
"X. c #6F8585",
"o. c #638B8B",
"O. c #748282",
"+. c #7E8383",
"@. c #6D9090",
"#. c #649C9C",
"$. c #6D9999",
"%. c #769797",
"&. c #779B9B",
"*. c #57A0A0",
"=. c #5AA5A5",
"-. c #62A7A7",
";. c #6DA0A0",
":. c #65AAAA",
">. c #6DADAD",
",. c #73A2A2",
"<. c #7AA6A6",
"1. c #7FABAB",
"2. c #76B2B2",
"3. c #7FB7B7",
"4. c #838383",
"5. c #828A8A",
"6. c #8C8C8C",
"7. c #879292",
"8. c #839E9E",
"9. c #8E9C9C",
"0. c #949494",
"q. c #9B9B9B",
"w. c #85ACAC",
"e. c #98A3A3",
"r. c #93AEAE",
"t. c #9BAFAF",
"y. c #80B7B7",
"u. c #85BABA",
"i. c #8EBEBE",
"p. c #94B4B4",
"a. c #9BB4B4",
"s. c #9FBBBB",
"d. c #A3A4A4",
"f. c #A1B1B1",
"g. c #A9B4B4",
"h. c #A2BABA",
"j. c #ADBABA",
"k. c #B5B5B5",
"l. c #B6BABA",
"z. c #BBBBBB",
"x. c #94C2C2",
"c. c #98C6C6",
"v. c #9DC8C8",
"b. c #A0C7C7",
"n. c #AEC0C0",
"m. c #A3C9C9",
"M. c #B0C0C0",
"N. c #BCC3C3",
"B. c #A6D1D1",
"V. c #AED3D3",
"C. c #B3D2D2",
"Z. c #BDD5D5",
"A. c #BDDADA",
"S. c #C4C4C4",
"D. c #C6CACA",
"F. c #CCCCCC",
"G. c #C4DADA",
"H. c #D4D4D4",
"J. c #D2DEDE",
"K. c #DCDCDC",
"L. c #C7E0E0",
"P. c #CDE3E3",
"I. c #D5E3E3",
"U. c #DFEBEB",
"Y. c #E4E4E4",
"T. c #E3E9E9",
"R. c #EBEBEB",
"E. c #EDF2F2",
"W. c #F4F4F4",
"Q. c #FBFBFB",
"!. c None",
/* pixels */
"!.!.!.!.!.0.0.q.q.q.q.q.q.q.q.q.q.q.q.q.q.q.q.q.q.q.q.q.q.q.q.q.q.q.q.q.q.q.q.q.q.q.q.q.q.q.q.q.q.q.q.q.q.q.q.q.q.0.0.!.!.!.!.!.",
"!.!.!.6.F.W.Q.Q.Q.Q.Q.Q.Q.Q.Q.Q.Q.Q.Q.Q.Q.Q.Q.Q.Q.Q.Q.Q.Q.Q.Q.Q.Q.Q.Q.Q.Q.Q.Q.Q.Q.Q.Q.Q.Q.Q.Q.Q.Q.Q.Q.Q.Q.Q.Q.Q.Q.Q.W.F.6.!.!.!.",
"!.!.q.R.Q.Q.Q.Q.Q.U.V.A.E.Q.Q.Q.Q.Q.Q.Q.Q.Q.Q.Q.Q.Q.Q.Q.Q.Q.Q.Q.Q.Q.Q.Q.Q.Q.Q.Q.Q.Q.Q.Q.Q.Q.Q.Q.Q.Q.Q.P.B.P.Q.Q.Q.Q.Q.Q.R.q.!.!.",
"!.6.R.Q.Q.Q.T.] j r , 1 u I >.W.Q.Q.Q.Q.Q.Q.Q.Q.Q.Q.Q.Q.Q.Q.Q.Q.Q.Q.Q.Q.Q.Q.Q.Q.Q.Q.Q.Q.Q.Q.Q.Q.C.U i 4 # 4 i U V.Q.Q.Q.Q.R.6.!.",
"!.D.Q.Q.Q.x.j o . . . . . . % U L.Q.Q.Q.Q.Q.Q.Q.Q.Q.Q.Q.Q.Q.Q.Q.Q.Q.Q.Q.Q.Q.Q.Q.Q.Q.Q.Q.Q.Q.E.| t . . . . . . . 5 | E.Q.Q.Q.D.!.",
"0.W.Q.Q.2.5 O X X X X X X X X O i G.Q.Q.Q.Q.Q.Q.Q.Q.Q.Q.Q.Q.Q.Q.Q.Q.Q.Q.Q.Q.Q.Q.Q.Q.Q.Q.Q.W.Y & X X X X X X X X X & Y W.Q.Q.W.0.",
"0.W.W.L.g - - - - - - - - - - - ; U E.W.W.W.W.W.W.W.W.W.W.W.W.W.W.W.W.W.W.W.W.W.W.W.W.W.W.>.7 - - - - - - - - - - - 7 :.W.W.W.0.",
"q.W.W.E : > > > > > > > > > > > > 0 -.W.W.W.W.W.W.W.W.W.W.W.W.W.W.W.W.W.W.W.W.W.W.W.W.W.G.h > > > > > > > > > > > > > h A.W.W.q.",
"q.W.A.d x x x x x x x x x x x x x x I W.W.W.W.W.W.W.W.W.W.W.W.W.W.W.W.W.W.W.W.W.W.W.W.W.*.9 x x x x x x x x x x x x x 9 [ W.W.q.",
"q.W.u.e v v v v v v v v v v v v v v z P.W.W.W.W.W.W.W.W.W.W.W.W.W.W.W.W.W.W.W.W.W.W.W.W.E v v v v v v v v v v v v v v v Y W.W.q.",
"q.W.] n m m m m m m m m m m m m m m f c.W.W.W.W.W.W.W.W.W.W.W.W.W.W.W.W.W.W.W.W.W.W.W.E.U m m m m m m m m m m m m m m m U R.W.q.",
"q.W.Q D D D D D D D D D D D D D D D N 3.W.W.W.W.W.W.W.W.W.W.W.W.W.W.W.W.W.W.W.W.W.W.W.U.T D D D D D D D D D D D D D D D T I.W.q.",
"q.W.-.A G G G G G G G G G G G G G G C C.W.W.W.W.W.W.W.W.W.W.W.W.W.W.W.W.W.W.W.W.W.W.W.W.Y G G G G G G G G G G G G G G G Y W.W.q.",
"q.R.v.Z P P P P P P P P P P P P P P E T.R.R.R.R.R.R.R.R.R.R.R.R.R.R.R.R.R.R.R.R.R.R.R.R.` L P P P P P P P P P P P P P L ! R.R.q.",
"q.R.I.E 4.4.4.4.4.4.4.4.4.4.4.4.4.+.Q R.R.R.R.R.R.R.R.R.R.R.R.R.R.R.R.R.R.R.R.R.R.R.R.R.3._ 4.4.4.4.4.4.4.4.4.4.4.4.4._ 2.R.R.q.",
"q.R.R.>.o.6.6.6.6.6.6.6.6.6.6.6.6.( C.R.R.R.R.R.R.R.R.R.R.R.R.R.R.R.R.R.R.R.R.R.R.R.R.R.T.Q 5.6.6.6.6.6.6.6.6.6.6.6.5.Q T.R.R.q.",
"q.R.R.T.Q 7.0.0.0.0.0.0.0.0.0.0.@.:.R.R.R.R.R.R.R.R.R.R.R.R.R.R.R.R.R.R.R.R.R.R.R.R.R.R.R.Z.W 0.0.0.0.0.0.0.0.0.0.0.( C.R.R.R.q.",
"0.R.R.R.G.Q %.q.q.q.q.q.q.q.q.} [ T.R.R.R.R.R.R.R.R.R.R.R.R.R.R.R.R.R.R.R.R.R.R.R.R.R.R.R.R.i.! 9.q.q.q.q.q.q.q.9.! u.R.R.R.R.0.",
"0.R.R.R.R.Y.:.' &.e.d.d.9.$.Q x.R.R.R.R.R.R.R.R.R.R.R.R.R.R.R.R.R.R.R.R.R.R.R.R.R.R.R.R.R.R.R.G.~ #.8.d.d.d.8.#.! G.R.R.R.R.R.0.",
"0.T.T.T.T.T.T.Z.y.[ Q Q =.i.J.T.T.T.T.T.T.T.T.T.T.T.T.T.T.T.T.T.T.T.T.T.T.T.T.T.T.T.T.T.T.T.T.T.T.m.>.] Q ~ >.b.Y.T.T.T.T.T.T.0.",
"0.T.T.T.T.T.T.T.T.T.T.T.T.T.T.T.T.T.T.T.T.T.T.T.T.T.T.T.T.T.T.T.T.T.T.T.T.T.T.T.T.T.T.T.T.T.T.T.T.T.T.T.T.T.T.T.T.T.T.T.T.T.T.0.",
"0.Y.Y.Y.Y.Y.Y.Y.Y.Y.Y.Y.Y.Y.Y.Y.Y.Y.Y.Y.Y.Y.Y.Y.Y.Y.Y.Y.Y.Y.Y.Y.Y.Y.Y.Y.Y.Y.Y.Y.Y.Y.Y.Y.Y.Y.Y.Y.Y.Y.Y.Y.Y.Y.Y.Y.Y.Y.Y.Y.Y.Y.Y.0.",
"0.Y.Y.Y.Y.Y.Y.Y.Y.Y.Y.Y.Y.Y.Y.Y.Y.Y.Y.Y.Y.Y.Y.Y.Y.Y.Y.Y.Y.Y.Y.Y.Y.Y.Y.Y.Y.Y.Y.Y.Y.Y.Y.Y.Y.Y.Y.Y.Y.Y.Y.Y.Y.Y.Y.Y.Y.Y.Y.Y.Y.Y.Y.0.",
"0.Y.Y.Y.Y.Y.Y.Y.Y.Y.Y.Y.Y.Y.Y.Y.Y.Y.Y.Y.Y.Y.Y.Y.Y.Y.Y.Y.Y.Y.Y.Y.Y.Y.Y.Y.Y.Y.Y.Y.Y.Y.Y.Y.Y.Y.Y.Y.Y.Y.Y.Y.Y.Y.Y.Y.Y.Y.Y.Y.Y.Y.Y.0.",
"0.Y.Y.Y.Y.Y.Y.Y.Y.Y.Y.Y.Y.Y.Y.Y.Y.Y.Y.Y.Y.Y.Y.Y.Y.Y.Y.Y.Y.Y.Y.Y.Y.Y.Y.Y.Y.Y.Y.Y.Y.Y.Y.Y.Y.Y.Y.Y.Y.Y.Y.Y.Y.Y.Y.Y.Y.Y.Y.Y.Y.Y.Y.0.",
"0.Y.Y.Y.Y.Y.Y.Y.Y.Y.Y.Y.Y.Y.Y.Y.Y.Y.Y.Y.Y.Y.Y.Y.Y.Y.Y.Y.Y.Y.Y.Y.Y.Y.Y.Y.Y.Y.Y.Y.Y.Y.Y.Y.Y.Y.Y.Y.Y.Y.Y.Y.Y.Y.Y.Y.Y.Y.Y.Y.Y.Y.Y.0.",
"0.K.K.K.K.K.K.K.K.K.K.K.K.K.K.K.K.K.K.K.K.K.K.K.K.K.K.K.K.K.K.K.K.K.K.K.K.K.K.K.K.K.K.K.K.K.K.K.K.K.K.K.K.K.K.K.K.K.K.K.K.K.K.0.",
"0.K.K.K.K.K.K.K.K.K.K.K.K.K.K.K.K.K.K.K.K.K.K.K.K.K.K.K.K.K.K.K.K.K.K.K.K.K.K.K.K.K.K.K.K.K.K.K.K.K.K.K.K.K.K.K.K.K.K.K.K.K.K.0.",
"0.K.K.K.K.K.K.K.K.K.K.K.K.K.K.K.K.K.K.K.K.K.K.K.K.K.K.K.K.K.K.K.K.K.K.K.K.K.K.K.K.K.K.K.K.K.K.K.K.K.K.K.K.K.K.K.K.K.K.K.K.K.K.0.",
"0.K.K.K.K.K.K.K.K.K.K.K.K.K.K.K.K.K.K.K.K.K.K.K.K.K.K.K.K.K.K.K.K.K.K.K.K.K.K.K.K.K.K.K.K.K.K.K.K.K.K.K.K.K.K.K.K.K.K.K.K.K.K.0.",
"0.K.K.K.K.K.K.K.K.K.K.K.K.K.K.K.K.K.K.K.K.K.K.K.K.K.K.K.K.K.K.K.K.K.K.K.K.K.K.K.K.K.K.K.K.K.K.K.K.K.K.K.K.K.K.K.K.K.K.K.K.K.K.0.",
"0.K.K.K.K.K.K.K.K.K.K.K.K.K.K.K.K.K.K.K.K.K.K.K.K.K.K.K.K.K.K.K.K.K.K.K.K.K.K.K.K.K.K.K.K.K.K.K.K.K.K.K.K.K.K.K.K.K.K.K.K.K.K.0.",
"0.K.K.K.K.K.K.K.K.K.K.K.K.K.K.K.K.K.K.K.K.K.K.K.K.K.K.K.K.K.K.K.K.K.K.K.K.K.K.K.K.K.K.K.K.K.K.K.K.K.K.K.K.K.K.K.K.K.K.K.K.K.K.0.",
"0.H.H.H.H.H.H.H.H.H.H.H.H.H.H.H.H.H.H.H.H.H.H.H.H.H.H.H.H.H.H.H.H.H.H.H.H.H.H.H.H.H.H.H.H.H.H.H.H.H.H.H.H.H.H.H.H.H.H.H.H.H.H.0.",
"0.H.H.H.H.H.H.H.H.H.H.H.H.H.H.H.H.H.H.H.H.H.H.H.H.H.H.H.H.H.H.H.H.H.H.H.H.H.H.H.H.H.H.H.H.H.H.H.H.H.H.H.H.H.H.H.H.H.H.H.H.H.H.0.",
"0.H.H.H.H.H.H.H.H.H.H.H.H.H.H.H.H.H.H.H.H.H.H.H.H.H.H.H.H.H.H.H.H.H.H.H.H.H.H.H.H.H.H.H.H.H.H.H.H.H.H.H.H.H.H.H.H.H.H.H.H.H.H.0.",
"0.H.H.H.H.H.H.H.H.H.H.H.H.H.H.H.H.H.H.H.H.H.H.H.H.H.H.H.H.H.H.H.H.H.H.H.H.H.H.H.H.H.H.H.H.H.H.H.H.H.H.H.H.H.H.H.H.H.H.H.H.H.H.0.",
"0.H.H.H.H.H.H.H.H.H.H.H.H.H.H.H.H.H.H.H.H.H.H.H.H.H.H.H.H.H.H.H.H.H.H.H.H.H.H.H.H.H.H.H.H.H.H.H.H.H.H.H.H.H.H.H.H.H.H.H.H.H.H.0.",
"0.H.H.H.H.H.H.H.H.H.H.H.H.H.H.H.H.H.H.H.H.H.H.H.H.H.H.H.H.H.H.H.H.H.H.H.H.H.H.H.H.H.H.H.H.H.H.H.H.H.H.H.H.H.H.H.H.H.H.H.H.H.H.0.",
"0.H.H.H.H.H.H.H.H.H.H.H.H.H.H.H.H.H.H.H.H.H.H.H.H.H.H.H.H.H.H.H.H.H.H.H.H.H.H.H.H.H.H.H.H.H.H.H.H.H.H.H.H.H.H.H.H.H.H.H.H.H.H.0.",
"0.F.F.F.F.F.F.F.F.F.F.F.F.F.F.F.F.F.F.F.F.F.F.F.F.F.F.F.F.F.F.F.F.F.F.F.F.F.F.F.F.F.F.F.F.F.F.F.F.F.F.F.F.F.F.F.F.F.F.F.F.F.F.0.",
"0.F.F.F.F.F.F.F.F.F.F.F.F.F.F.F.F.F.F.F.F.F.F.F.F.F.F.F.F.F.F.F.F.F.F.F.F.F.F.F.F.F.F.F.F.F.F.F.F.F.F.F.F.F.F.F.F.F.F.F.F.F.F.0.",
"0.F.F.F.F.F.F.F.F.F.F.F.F.F.F.F.F.F.F.F.F.F.F.F.F.F.F.F.F.F.F.F.F.F.F.F.F.F.F.F.F.F.F.F.F.F.F.F.F.F.F.F.F.F.F.F.F.F.F.F.F.F.F.0.",
"0.F.F.F.F.F.F.F.F.n.w.p.N.F.F.F.F.F.F.F.F.F.F.F.F.F.F.F.F.F.F.F.F.F.F.F.F.F.F.F.F.F.F.F.F.F.F.F.F.F.D.h.1.s.D.F.F.F.F.F.F.F.F.0.",
"0.F.F.F.F.F.M.T i 4 # , r p ' S.F.F.F.F.F.F.F.F.F.F.F.F.F.F.F.F.F.F.F.F.F.F.F.F.F.F.F.F.F.F.F.F.w.j y 3 + 2 y j w.F.F.F.F.F.F.0.",
"0.D.D.D.D.,.i   . . . . . . @ p a.D.D.D.D.D.D.D.D.D.D.D.D.D.D.D.D.D.D.D.D.D.D.D.D.D.D.D.D.D.N.W 3 . . . . . . . 3 W N.D.D.D.D.0.",
"0.D.D.D. .3 X X X X X X X X X O y p.D.D.D.D.D.D.D.D.D.D.D.D.D.D.D.D.D.D.D.D.D.D.D.D.D.D.D.S.I $ X X X X X X X X X $ j S.D.D.D.0.",
"6.D.D.a.u * * * * * * * * * * * = j N.D.D.D.D.D.D.D.D.D.D.D.D.D.D.D.D.D.D.D.D.D.D.D.D.D.D.{ < * * * * * * * * * * * < ' D.D.D.6.",
"6.S.S.I ; - - - - - - - - - - - - 6 ' S.S.S.S.S.S.S.S.S.S.S.S.S.S.S.S.S.S.S.S.S.S.S.S.S.a.s - - - - - - - - - - - - - s p.S.S.6.",
"6.S.p.a > > > > > > > > > > > > > > j S.S.S.S.S.S.S.S.S.S.S.S.S.S.S.S.S.S.S.S.S.S.S.S.S.( 8 > > > > > > > > > > > > > : W S.S.6.",
"6.S.#.q x x x x x x x x x x x x x x d h.S.S.S.S.S.S.S.S.S.S.S.S.S.S.S.S.S.S.S.S.S.S.S.S.I x x x x x x x x x x x x x x x I S.S.6.",
"6.S.W c v v v v v v v v v v v v v v w <.S.S.S.S.S.S.S.S.S.S.S.S.S.S.S.S.S.S.S.S.S.S.S.N.j v v v v v v v v v v v v v v v j z.S.6.",
"6.S.U b b b b b b b b b b b b b b b e #.S.S.S.S.S.S.S.S.S.S.S.S.S.S.S.S.S.S.S.S.S.S.S.l.k b b b b b b b b b b b b b b b k j.S.6.",
"6.S.{ M m m m m m m m m m m m m m m l p.S.S.S.S.S.S.S.S.S.S.S.S.S.S.S.S.S.S.S.S.S.S.S.S.I m m m m m m m m m m m m m m m I S.S.6.",
"6.z.1.f D D D D D D D D D D D D D D k l.z.z.z.z.z.z.z.z.z.z.z.z.z.z.z.z.z.z.z.z.z.z.z.z.E B D D D D D D D D D D D D D D E z.z.6.",
"6.z.g.U G G G G G G G G G G G G G F U z.z.z.z.z.z.z.z.z.z.z.z.z.z.z.z.z.z.z.z.z.z.z.z.z.#.V G G G G G G G G G G G G G V #.z.z.6.",
"6.z.z. .Z K K K K K K K K K K K K T r.z.z.z.z.z.z.z.z.z.z.z.z.z.z.z.z.z.z.z.z.z.z.z.z.z.l.U H K K K K K K K K K K K H U l.z.z.6.",
"6.z.z.l.Y J P P P P P P P P P P S { z.z.z.z.z.z.z.z.z.z.z.z.z.z.z.z.z.z.z.z.z.z.z.z.z.z.z.a.T P P P P P P P P P P P T r.z.z.z.6.",
"5.k.z.z.f.Y _ 4.4.4.4.4.4.4.+.^ ` l.z.z.z.z.z.z.z.z.z.z.z.z.z.z.z.z.z.z.z.z.z.z.z.z.z.z.z.z.,.U O.4.4.4.4.4.4.4.O.U ,.z.z.z.k.5.",
"!.d.z.z.z.l.{ R _ O.4.4.X.) U <.z.z.z.z.z.z.z.z.z.z.z.z.z.z.z.z.z.z.z.z.z.z.z.z.z.z.z.z.z.z.z.f.E / ..+.4.+.../ E f.z.z.z.z.d.!.",
"!.4.k.l.l.l.l.t.;.` Y Y ' ,.g.l.l.l.l.l.l.l.l.l.l.l.l.l.l.l.l.l.l.l.l.l.l.l.l.l.l.l.l.l.l.l.l.l.k.w. .E Y E  .w.l.l.l.l.l.k.4.!.",
"!.!.6.k.k.k.k.k.k.k.k.k.k.k.k.k.k.k.k.k.k.k.k.k.k.k.k.k.k.k.k.k.k.k.k.k.k.k.k.k.k.k.k.k.k.k.k.k.k.k.k.k.k.k.k.k.k.k.k.k.k.6.!.!.",
"!.!.!.4.q.k.k.k.k.k.k.k.k.k.k.k.k.k.k.k.k.k.k.k.k.k.k.k.k.k.k.k.k.k.k.k.k.k.k.k.k.k.k.k.k.k.k.k.k.k.k.k.k.k.k.k.k.k.k.q.4.!.!.!.",
"!.!.!.!.!.4.6.6.6.6.6.6.6.6.6.6.6.6.6.6.6.6.6.6.6.6.6.6.6.6.6.6.6.6.6.6.6.6.6.6.6.6.6.6.6.6.6.6.6.6.6.6.6.6.6.6.6.6.4.!.!.!.!.!."
};
