/* XPM */
static char *theme2_two_xpm[] = {
/* columns rows colors chars-per-pixel */
"64 64 131 2",
"   c #0F1E1E",
".  c #121313",
"X  c #1C1D1D",
"o  c #182020",
"O  c #073737",
"+  c #0F3333",
"@  c #083939",
"#  c #1A3939",
"$  c gray14",
"%  c #232929",
"&  c #2E2E2E",
"*  c #2B3333",
"=  c gray22",
"-  c #0B4343",
";  c #175353",
":  c #165D5D",
">  c #1A5D5D",
",  c #274646",
"<  c #244C4C",
"1  c #3B4B4B",
"2  c #305353",
"3  c #325E5E",
"4  c #3C5D5D",
"5  c #156767",
"6  c #1B6161",
"7  c #176E6E",
"8  c #1C6C6C",
"9  c #1A7575",
"0  c #1C7A7A",
"q  c #256262",
"w  c #296F6F",
"e  c #3E6F6F",
"r  c #287575",
"t  c #217C7C",
"y  c #2B7F7F",
"u  c #377171",
"i  c #424242",
"p  c #454D4D",
"a  c #4C4C4C",
"s  c #515151",
"d  c #595959",
"f  c #4B6161",
"g  c #4F7979",
"h  c #557C7C",
"j  c gray39",
"k  c #656C6C",
"l  c #6C6C6C",
"z  c #6E7B7B",
"x  c #717171",
"c  c #747979",
"v  c #797979",
"b  c #258080",
"n  c #2C8585",
"m  c #2D8A8A",
"M  c #328383",
"N  c #398787",
"B  c #308C8C",
"V  c #3B8D8D",
"C  c #359191",
"Z  c #3D9494",
"A  c #3F9898",
"S  c #448383",
"D  c #418F8F",
"F  c #558484",
"G  c #5C8383",
"H  c #419292",
"J  c #4C9393",
"K  c #409999",
"L  c #4F9C9C",
"P  c #529696",
"I  c #539C9C",
"U  c #5A9999",
"Y  c #6F8585",
"T  c #778585",
"R  c #7F8181",
"E  c #649B9B",
"W  c #57A0A0",
"Q  c #6DA0A0",
"!  c #65A9A9",
"~  c #6CAEAE",
"^  c #73A3A3",
"/  c #7AA6A6",
"(  c #7FA9A9",
")  c #77B3B3",
"_  c #7FB7B7",
"`  c #838383",
"'  c #828A8A",
"]  c #8C8C8C",
"[  c #839E9E",
"{  c #8F9A9A",
"}  c #949494",
"|  c #9B9B9B",
" . c #84AFAF",
".. c #92AEAE",
"X. c #9BAFAF",
"o. c #87BABA",
"O. c #8EBDBD",
"+. c #93B4B4",
"@. c #9CB7B7",
"#. c #A2A4A4",
"$. c #A0B1B1",
"%. c #A9B4B4",
"&. c #A4B8B8",
"*. c #B5B5B5",
"=. c #B5BABA",
"-. c #BBBBBB",
";. c #A0C7C7",
":. c #AEC0C0",
">. c #A3C9C9",
",. c #B0C0C0",
"<. c #BDC5C5",
"1. c #A6D1D1",
"2. c #AFD3D3",
"3. c #B5D3D3",
"4. c #BCD5D5",
"5. c #BFDADA",
"6. c #C3C3C3",
"7. c #CCCCCC",
"8. c #C5DADA",
"9. c #D4D4D4",
"0. c #DCDCDC",
"q. c #CEE5E5",
"w. c #D7E4E4",
"e. c #DFE8E8",
"r. c #E4E4E4",
"t. c #E5E9E9",
"y. c #EBEBEB",
"u. c #ECF1F1",
"i. c #F3F3F3",
"p. c #FAFAFA",
"a. c None",
/* pixels */
"a.a.a.a.a.} } | | | | | | | | | | | | | | | | | | | | | | | | | | | | | | | | | | | | | | | | | | | | | | | | | | } } a.a.a.a.a.",
"a.a.a.] 7.p.p.p.p.p.p.p.p.p.p.p.p.p.p.p.p.p.p.p.p.p.p.p.p.p.p.p.p.p.p.p.p.p.p.p.p.p.p.p.p.p.p.p.p.p.p.p.p.p.p.p.p.p.p.7.] a.a.a.",
"a.a.| y.p.p.p.p.p.p.p.p.p.p.p.p.p.p.p.p.p.p.p.p.p.p.p.p.p.p.p.p.p.p.p.p.p.p.p.p.p.p.p.p.p.p.p.p.p.p.p.q.1.q.p.p.p.p.p.p.y.| a.a.",
"a.] y.p.p.p.p.p.p.p.p.p.p.p.p.p.p.p.p.p.p.p.p.p.p.p.p.p.p.p.p.p.p.p.p.p.p.p.p.p.p.p.p.p.p.p.p.p.3.n 9 : @ : 9 n 2.p.p.p.p.y.] a.",
"a.7.p.p.p.p.p.p.p.p.p.p.p.p.p.p.p.p.p.p.p.p.p.p.p.p.p.p.p.p.p.p.p.p.p.p.p.p.p.p.p.p.p.p.p.p.u.I 6 . . . . . . . > I u.p.p.p.7.a.",
"} i.p.p.p.p.p.p.p.p.p.p.p.p.p.p.p.p.p.p.p.p.p.p.p.p.p.p.p.p.p.p.p.p.p.p.p.p.p.p.p.p.p.p.p.i.m # X X X X X X X X X # m i.p.p.i.} ",
"} p.p.p.p.p.p.p.p.p.p.p.p.p.p.p.p.p.p.p.p.p.p.p.p.p.p.p.p.p.p.p.p.p.p.p.p.p.p.p.p.p.p.p.p.~ < & & & & & & & & & & & < ! p.p.p.} ",
"| i.i.i.i.i.i.i.i.i.i.i.i.i.i.i.i.i.i.i.i.i.i.i.i.i.i.i.i.i.i.i.i.i.i.i.i.i.i.i.i.i.i.i.8.r = = = = = = = = = = = = = r 5.i.i.| ",
"| i.i.i.i.i.i.i.i.i.i.i.i.i.i.i.i.i.i.i.i.i.i.i.i.i.i.i.i.i.i.i.i.i.i.i.i.i.i.i.i.i.i.i.W 1 i i i i i i i i i i i i i 1 L i.i.| ",
"| i.i.i.i.i.i.i.i.i.i.i.i.i.i.i.i.i.i.i.i.i.i.i.i.i.i.i.i.i.i.i.i.i.i.i.i.i.i.i.i.i.i.i.B a a a a a a a a a a a a a a a m i.i.| ",
"| i.i.i.i.i.i.i.i.i.i.i.i.i.i.i.i.i.i.i.i.i.i.i.i.i.i.i.i.i.i.i.i.i.i.i.i.i.i.i.i.i.i.u.n d d d d d d d d d d d d d d d n y.i.| ",
"| i.i.i.i.i.i.i.i.i.i.i.i.i.i.i.i.i.i.i.i.i.i.i.i.i.i.i.i.i.i.i.i.i.i.i.i.i.i.i.i.i.i.e.M j j j j j j j j j j j j j j j M w.i.| ",
"| i.i.i.i.i.i.i.i.i.i.i.i.i.i.i.i.i.i.i.i.i.i.i.i.i.i.i.i.i.i.i.i.i.i.i.i.i.i.i.i.i.i.i.m l l l l l l l l l l l l l l l m i.i.| ",
"| y.y.y.y.y.y.y.y.y.y.y.y.y.y.y.y.y.y.y.y.y.y.y.y.y.y.y.y.y.y.y.y.y.y.y.y.y.y.y.y.y.y.y.K c v v v v v v v v v v v v v c Z y.y.| ",
"| y.y.y.y.y.y.y.y.y.y.y.y.y.y.y.y.y.y.y.y.y.y.y.y.y.y.y.y.y.y.y.y.y.y.y.y.y.y.y.y.y.y.y._ G ` ` ` ` ` ` ` ` ` ` ` ` ` G ) y.y.| ",
"| y.y.y.y.y.y.y.y.y.y.y.y.y.y.y.y.y.y.y.y.y.y.y.y.y.y.y.y.y.y.y.y.y.y.y.y.y.y.y.y.y.y.y.t.C ' ] ] ] ] ] ] ] ] ] ] ] ' C t.y.y.| ",
"| y.y.y.y.y.y.y.y.y.y.y.y.y.y.y.y.y.y.y.y.y.y.y.y.y.y.y.y.y.y.y.y.y.y.y.y.y.y.y.y.y.y.y.y.4.V } } } } } } } } } } } D 3.y.y.y.| ",
"} y.y.y.y.y.y.y.y.y.y.y.y.y.y.y.y.y.y.y.y.y.y.y.y.y.y.y.y.y.y.y.y.y.y.y.y.y.y.y.y.y.y.y.y.y.O.Z { | | | | | | | { Z o.y.y.y.y.} ",
"} y.y.y.y.y.y.y.y.y.y.y.y.y.y.y.y.y.y.y.y.y.y.y.y.y.y.y.y.y.y.y.y.y.y.y.y.y.y.y.y.y.y.y.y.y.y.8.A E [ #.#.#.[ E Z 8.y.y.y.y.y.} ",
"} t.t.t.t.t.t.t.t.t.t.t.t.t.t.t.t.t.t.t.t.t.t.t.t.t.t.t.t.t.t.t.t.t.t.t.t.t.t.t.t.t.t.t.t.t.t.t.t.>.~ K C A ~ ;.r.t.t.t.t.t.t.} ",
"} t.t.t.t.t.t.t.t.t.t.t.t.t.t.t.t.t.t.t.t.t.t.t.t.t.t.t.t.t.t.t.t.t.t.t.t.t.t.t.t.t.t.t.t.t.t.t.t.t.t.t.t.t.t.t.t.t.t.t.t.t.t.} ",
"} r.r.r.r.r.r.r.r.r.r.r.r.r.r.r.r.r.r.r.r.r.r.r.r.r.r.r.r.r.r.r.r.r.r.r.r.r.r.r.r.r.r.r.r.r.r.r.r.r.r.r.r.r.r.r.r.r.r.r.r.r.r.} ",
"} r.r.r.r.r.r.r.r.r.r.r.r.r.r.r.r.r.r.r.r.r.r.r.r.r.r.r.r.r.r.r.r.r.r.r.r.r.r.r.r.r.r.r.r.r.r.r.r.r.r.r.r.r.r.r.r.r.r.r.r.r.r.} ",
"} r.r.r.r.r.r.r.r.r.r.r.r.r.r.r.r.r.r.r.r.r.r.r.r.r.r.r.r.r.r.r.r.r.r.r.r.r.r.r.r.r.r.r.r.r.r.r.r.r.r.r.r.r.r.r.r.r.r.r.r.r.r.} ",
"} r.r.r.r.r.r.r.r.r.r.r.r.r.r.r.r.r.r.r.r.r.r.r.r.r.r.r.r.r.r.r.r.r.r.r.r.r.r.r.r.r.r.r.r.r.r.r.r.r.r.r.r.r.r.r.r.r.r.r.r.r.r.} ",
"} r.r.r.r.r.r.r.r.r.r.r.r.r.r.r.r.r.r.r.r.r.r.r.r.r.r.r.r.r.r.r.r.r.r.r.r.r.r.r.r.r.r.r.r.r.r.r.r.r.r.r.r.r.r.r.r.r.r.r.r.r.r.} ",
"} 0.0.0.0.0.0.0.0.0.0.0.0.0.0.0.0.0.0.0.0.0.0.0.0.0.0.0.0.0.0.0.0.0.0.0.0.0.0.0.0.0.0.0.0.0.0.0.0.0.0.0.0.0.0.0.0.0.0.0.0.0.0.} ",
"} 0.0.0.0.0.0.0.0.0.0.0.0.0.0.0.0.0.0.0.0.0.0.0.0.0.0.0.0.0.0.0.0.0.0.0.0.0.0.0.0.0.0.0.0.0.0.0.0.0.0.0.0.0.0.0.0.0.0.0.0.0.0.} ",
"} 0.0.0.0.0.0.0.0.0.0.0.0.0.0.0.0.0.0.0.0.0.0.0.0.0.0.0.0.0.0.0.0.0.0.0.0.0.0.0.0.0.0.0.0.0.0.0.0.0.0.0.0.0.0.0.0.0.0.0.0.0.0.} ",
"} 0.0.0.0.0.0.0.0.0.0.0.0.0.0.0.0.0.0.0.0.0.0.0.0.0.0.0.0.0.0.0.0.0.0.0.0.0.0.0.0.0.0.0.0.0.0.0.0.0.0.0.0.0.0.0.0.0.0.0.0.0.0.} ",
"} 0.0.0.0.0.0.0.0.0.0.0.0.0.0.0.0.0.0.0.0.0.0.0.0.0.0.0.0.0.0.0.0.0.0.0.0.0.0.0.0.0.0.0.0.0.0.0.0.0.0.0.0.0.0.0.0.0.0.0.0.0.0.} ",
"} 0.0.0.0.0.0.0.0.0.0.0.0.0.0.0.0.0.0.0.0.0.0.0.0.0.0.0.0.0.0.0.0.0.0.0.0.0.0.0.0.0.0.0.0.0.0.0.0.0.0.0.0.0.0.0.0.0.0.0.0.0.0.} ",
"} 0.0.0.0.0.0.0.0.0.0.0.0.0.0.0.0.0.0.0.0.0.0.0.0.0.0.0.0.0.0.0.0.0.0.0.0.0.0.0.0.0.0.0.0.0.0.0.0.0.0.0.0.0.0.0.0.0.0.0.0.0.0.} ",
"} 9.9.9.9.9.9.9.9.9.9.9.9.9.9.9.9.9.9.9.9.9.9.9.9.9.9.9.9.9.9.9.9.9.9.9.9.9.9.9.9.9.9.9.9.9.9.9.9.9.9.9.9.9.9.9.9.9.9.9.9.9.9.} ",
"} 9.9.9.9.9.9.9.9.9.9.9.9.9.9.9.9.9.9.9.9.9.9.9.9.9.9.9.9.9.9.9.9.9.9.9.9.9.9.9.9.9.9.9.9.9.9.9.9.9.9.9.9.9.9.9.9.9.9.9.9.9.9.} ",
"} 9.9.9.9.9.9.9.9.9.9.9.9.9.9.9.9.9.9.9.9.9.9.9.9.9.9.9.9.9.9.9.9.9.9.9.9.9.9.9.9.9.9.9.9.9.9.9.9.9.9.9.9.9.9.9.9.9.9.9.9.9.9.} ",
"} 9.9.9.9.9.9.9.9.9.9.9.9.9.9.9.9.9.9.9.9.9.9.9.9.9.9.9.9.9.9.9.9.9.9.9.9.9.9.9.9.9.9.9.9.9.9.9.9.9.9.9.9.9.9.9.9.9.9.9.9.9.9.} ",
"} 9.9.9.9.9.9.9.9.9.9.9.9.9.9.9.9.9.9.9.9.9.9.9.9.9.9.9.9.9.9.9.9.9.9.9.9.9.9.9.9.9.9.9.9.9.9.9.9.9.9.9.9.9.9.9.9.9.9.9.9.9.9.} ",
"} 9.9.9.9.9.9.9.9.9.9.9.9.9.9.9.9.9.9.9.9.9.9.9.9.9.9.9.9.9.9.9.9.9.9.9.9.9.9.9.9.9.9.9.9.9.9.9.9.9.9.9.9.9.9.9.9.9.9.9.9.9.9.} ",
"} 9.9.9.9.9.9.9.9.9.9.9.9.9.9.9.9.9.9.9.9.9.9.9.9.9.9.9.9.9.9.9.9.9.9.9.9.9.9.9.9.9.9.9.9.9.9.9.9.9.9.9.9.9.9.9.9.9.9.9.9.9.9.} ",
"} 7.7.7.7.7.7.7.7.7.7.7.7.7.7.7.7.7.7.7.7.7.7.7.7.7.7.7.7.7.7.7.7.7.7.7.7.7.7.7.7.7.7.7.7.7.7.7.7.7.7.7.7.7.7.7.7.7.7.7.7.7.7.} ",
"} 7.7.7.7.7.7.7.7.7.7.7.7.7.7.7.7.7.7.7.7.7.7.7.7.7.7.7.7.7.7.7.7.7.7.7.7.7.7.7.7.7.7.7.7.7.7.7.7.7.7.7.7.7.7.7.7.7.7.7.7.7.7.} ",
"} 7.7.7.7.7.7.7.7.7.7.7.7.7.7.7.7.7.7.7.7.7.7.7.7.7.7.7.7.7.7.7.7.7.7.7.7.7.7.7.7.7.7.7.7.7.7.7.7.7.7.7.7.7.7.7.7.7.7.7.7.7.7.} ",
"} 7.7.7.7.7.7.7.7.:. .+.<.7.7.7.7.7.7.7.7.7.7.7.7.7.7.7.7.7.7.7.7.7.7.7.7.7.7.7.7.7.7.7.7.7.7.7.7.7.7.7.7.7.7.7.7.7.7.7.7.7.7.} ",
"} 7.7.7.7.7.,.M 9 : O - 5 0 J 6.7.7.7.7.7.7.7.7.7.7.7.7.7.7.7.7.7.7.7.7.7.7.7.7.7.7.7.7.7.7.7.7.7.7.7.7.7.7.7.7.7.7.7.7.7.7.7.} ",
"} 7.7.7.7.^ 9   . . . . . . + 0 @.7.7.7.7.7.7.7.7.7.7.7.7.7.7.7.7.7.7.7.7.7.7.7.7.7.7.7.7.7.7.7.7.7.7.7.7.7.7.7.7.7.7.7.7.7.7.} ",
"} 7.7.7.U ; X X X X X X X X X o 7 +.7.7.7.7.7.7.7.7.7.7.7.7.7.7.7.7.7.7.7.7.7.7.7.7.7.7.7.7.7.7.7.7.7.7.7.7.7.7.7.7.7.7.7.7.7.} ",
"] 6.6.@.8 $ $ $ $ $ $ $ $ $ $ $ % t <.6.6.6.6.6.6.6.6.6.6.6.6.6.6.6.6.6.6.6.6.6.6.6.6.6.6.6.6.6.6.6.6.6.6.6.6.6.6.6.6.6.6.6.6.] ",
"] 6.6.b * & & & & & & & & & & & & , J 6.6.6.6.6.6.6.6.6.6.6.6.6.6.6.6.6.6.6.6.6.6.6.6.6.6.6.6.6.6.6.6.6.6.6.6.6.6.6.6.6.6.6.6.] ",
"] 6.+.q = = = = = = = = = = = = = = t 6.6.6.6.6.6.6.6.6.6.6.6.6.6.6.6.6.6.6.6.6.6.6.6.6.6.6.6.6.6.6.6.6.6.6.6.6.6.6.6.6.6.6.6.] ",
"] 6.E 2 i i i i i i i i i i i i i i w &.6.6.6.6.6.6.6.6.6.6.6.6.6.6.6.6.6.6.6.6.6.6.6.6.6.6.6.6.6.6.6.6.6.6.6.6.6.6.6.6.6.6.6.] ",
"] 6.V p a a a a a a a a a a a a a a 3 / 6.6.6.6.6.6.6.6.6.6.6.6.6.6.6.6.6.6.6.6.6.6.6.6.6.6.6.6.6.6.6.6.6.6.6.6.6.6.6.6.6.6.6.] ",
"] 6.n s s s s s s s s s s s s s s s 4 E 6.6.6.6.6.6.6.6.6.6.6.6.6.6.6.6.6.6.6.6.6.6.6.6.6.6.6.6.6.6.6.6.6.6.6.6.6.6.6.6.6.6.6.] ",
"] 6.P f d d d d d d d d d d d d d d u +.6.6.6.6.6.6.6.6.6.6.6.6.6.6.6.6.6.6.6.6.6.6.6.6.6.6.6.6.6.6.6.6.6.6.6.6.6.6.6.6.6.6.6.] ",
"] -.( e j j j j j j j j j j j j j j y =.-.-.-.-.-.-.-.-.-.-.-.-.-.-.-.-.-.-.-.-.-.-.-.-.-.-.-.-.-.-.-.-.-.-.-.-.-.-.-.-.-.-.-.] ",
"] -.%.n l l l l l l l l l l l l l k n -.-.-.-.-.-.-.-.-.-.-.-.-.-.-.-.-.-.-.-.-.-.-.-.-.-.-.-.-.-.-.-.-.-.-.-.-.-.-.-.-.-.-.-.] ",
"] -.-.U g x x x x x x x x x x x x M ..-.-.-.-.-.-.-.-.-.-.-.-.-.-.-.-.-.-.-.-.-.-.-.-.-.-.-.-.-.-.-.-.-.-.-.-.-.-.-.-.-.-.-.-.] ",
"] -.-.=.m z v v v v v v v v v v h P -.-.-.-.-.-.-.-.-.-.-.-.-.-.-.-.-.-.-.-.-.-.-.-.-.-.-.-.-.-.-.-.-.-.-.-.-.-.-.-.-.-.-.-.-.] ",
"` *.-.-.$.m G ` ` ` ` ` ` ` R S H =.-.-.-.-.-.-.-.-.-.-.-.-.-.-.-.-.-.-.-.-.-.-.-.-.-.-.-.-.-.-.-.-.-.-.-.-.-.-.-.-.-.-.-.-.*.` ",
"a.#.-.-.-.=.U N G T ` ` Y F n / -.-.-.-.-.-.-.-.-.-.-.-.-.-.-.-.-.-.-.-.-.-.-.-.-.-.-.-.-.-.-.-.-.-.-.-.-.-.-.-.-.-.-.-.-.-.#.a.",
"a.` *.=.=.=.=.X.Q H m m J ^ %.=.=.=.=.=.=.=.=.=.=.=.=.=.=.=.=.=.=.=.=.=.=.=.=.=.=.=.=.=.=.=.=.=.=.=.=.=.=.=.=.=.=.=.=.=.=.*.` a.",
"a.a.] *.*.*.*.*.*.*.*.*.*.*.*.*.*.*.*.*.*.*.*.*.*.*.*.*.*.*.*.*.*.*.*.*.*.*.*.*.*.*.*.*.*.*.*.*.*.*.*.*.*.*.*.*.*.*.*.*.*.] a.a.",
"a.a.a.` | *.*.*.*.*.*.*.*.*.*.*.*.*.*.*.*.*.*.*.*.*.*.*.*.*.*.*.*.*.*.*.*.*.*.*.*.*.*.*.*.*.*.*.*.*.*.*.*.*.*.*.*.*.*.| ` a.a.a.",
"a.a.a.a.a.` ] ] ] ] ] ] ] ] ] ] ] ] ] ] ] ] ] ] ] ] ] ] ] ] ] ] ] ] ] ] ] ] ] ] ] ] ] ] ] ] ] ] ] ] ] ] ] ] ] ] ] ] ` a.a.a.a.a."
};
