/* XPM */
static char *two_xpm[] = {
/* columns rows colors chars-per-pixel */
"64 64 218 2",
"   c black",
".  c #010101",
"X  c #020202",
"o  c #13120E",
"O  c #13130E",
"+  c #14130F",
"@  c gray16",
"#  c #423E31",
"$  c #434031",
"%  c #434033",
"&  c #494536",
"*  c #494636",
"=  c #494637",
"-  c #414141",
";  c gray28",
":  c #4C4C4C",
">  c #4E4E4E",
",  c #565656",
"<  c #625E49",
"1  c #635E49",
"2  c #645F4A",
"3  c #65604B",
"4  c #66614B",
"5  c #67624C",
"6  c #68634D",
"7  c #69644E",
"8  c #6A654E",
"9  c #6B6650",
"0  c #6F6A52",
"q  c #726D54",
"w  c #736D55",
"e  c #746E56",
"r  c #756F56",
"t  c #726F5F",
"y  c #767057",
"u  c #777259",
"i  c #787359",
"p  c #79745A",
"a  c #7A745B",
"s  c #7B755B",
"d  c #7C765C",
"f  c #7D775D",
"g  c #7E785D",
"h  c #7F795E",
"j  c #736F60",
"k  c #767676",
"l  c gray50",
"z  c #817B5F",
"x  c #827C60",
"c  c #847E62",
"v  c #857F63",
"b  c #857F65",
"n  c #888265",
"m  c #898366",
"M  c #898367",
"N  c #8A8366",
"B  c #8B8569",
"V  c #8C8568",
"C  c #8D8668",
"Z  c #8E8769",
"A  c #8F886A",
"S  c #8F896A",
"D  c #918B6C",
"F  c #928B6C",
"G  c #938C6D",
"H  c #958E6E",
"J  c #979070",
"K  c #989171",
"L  c #999271",
"P  c #9A9272",
"I  c #9B9373",
"U  c #9B9473",
"Y  c #9D9675",
"T  c #9E9775",
"R  c #A09977",
"E  c #A19A77",
"W  c #A39B79",
"Q  c #A49C79",
"!  c #A69E7B",
"~  c #A79F7C",
"^  c #A8A07C",
"/  c #A8A17D",
"(  c #A9A17E",
")  c #ABA37F",
"_  c gray52",
"`  c #ADA580",
"'  c #AEA681",
"]  c #AFA782",
"[  c #B0A882",
"{  c #B1A983",
"}  c #B2A984",
"|  c #B3AA84",
" . c #B4AB85",
".. c #B6AE87",
"X. c #B7AF88",
"o. c #B7AF89",
"O. c #B8B089",
"+. c #B9B089",
"@. c #BAB18A",
"#. c #BCB38B",
"$. c #BDB48C",
"%. c #BEB58D",
"&. c #BFB68D",
"*. c #A7A7A7",
"=. c #C0B78E",
"-. c #C1B88F",
";. c #C2B990",
":. c #C3BA91",
">. c #C4BB91",
",. c #C5BC92",
"<. c #C6BD93",
"1. c #C7BE94",
"2. c #C5BD96",
"3. c #C8BF94",
"4. c #C9BF95",
"5. c #CAC096",
"6. c #CBC196",
"7. c #CCC297",
"8. c #CDC398",
"9. c #CDC498",
"0. c #CEC498",
"q. c #CEC599",
"w. c #CFC69A",
"e. c #D0C79A",
"r. c #D1C79B",
"t. c #D2C89C",
"y. c #D3C99C",
"u. c #D2C99F",
"i. c #D3CA9E",
"p. c #D4CA9D",
"a. c #D5CB9E",
"s. c #D6CC9F",
"d. c #D7CD9F",
"f. c #D2C9A0",
"g. c #D7CDA1",
"h. c #D8CEA0",
"j. c #D9CEA1",
"k. c #DAD0A2",
"l. c #DBD1A3",
"z. c #DCD2A3",
"x. c #DDD3A4",
"c. c #DED4A5",
"v. c #DFD5A5",
"b. c #E0D6A6",
"n. c #E1D6A7",
"m. c #E2D7A7",
"M. c #E3D8A8",
"N. c #E4D9A9",
"B. c #E5DAAA",
"V. c #E6DBAA",
"C. c #E6DCAB",
"Z. c #E7DDAC",
"A. c #E8DDAC",
"S. c #E9DEAD",
"D. c #EADFAE",
"F. c #EBE0AE",
"G. c #ECE1AF",
"H. c #ECE1B0",
"J. c #ECE2B1",
"K. c #EDE2B1",
"L. c #EDE2B2",
"P. c #EDE3B3",
"I. c #EDE3B4",
"U. c #EDE3B5",
"Y. c #EEE3B6",
"T. c #EEE4B6",
"R. c #EEE4B7",
"E. c #EEE4B8",
"W. c #EEE5B8",
"Q. c #EEE5B9",
"!. c #EFE5BA",
"~. c #EFE5BB",
"^. c #EFE6BB",
"/. c #EFE6BC",
"(. c #EFE6BD",
"). c #F0E7BE",
"_. c #F0E7BF",
"`. c #F0E7C0",
"'. c #F0E8C1",
"]. c #F0E8C2",
"[. c #F1E8C2",
"{. c #F1E8C3",
"}. c #F1E9C3",
"|. c #F1E9C4",
" X c #F1E9C5",
".X c #F1E9C6",
"XX c #F1EAC6",
"oX c #F2EAC6",
"OX c #F2EAC7",
"+X c #F2EAC8",
"@X c #F2EBC9",
"#X c #F2EBCA",
"$X c #F3EBCB",
"%X c #F3ECCB",
"&X c #F3ECCC",
"*X c #F3ECCD",
"=X c #F3EDCE",
"-X c #F4EDCF",
";X c #F4EDD0",
":X c #F4EED1",
">X c #F4EED2",
",X c #F5EFD4",
"<X c #F5EFD5",
"1X c #F5F0D6",
"2X c #F5F0D7",
"3X c #F6F1DA",
"4X c #F6F1DB",
"5X c #F7F2DC",
"6X c #F7F2DD",
"7X c #F7F3DF",
"8X c #F8F4E2",
"9X c #F9F5E4",
"0X c #F9F6E6",
"qX c #F9F6E7",
"wX c #F9F6E8",
"eX c #FAF7E9",
"rX c #FAF7EB",
"tX c None",
/* pixels */
"tXtXtXtXtX5.3.<.:.-.-.=.%.%.#.@.@.@.@.@.@.@.@.@.@.@.@.@.@.@.@.@.@.@.@.@.@.@.@.@.@.@.@.@.@.@.@.o.o...| { ] / ~ W T I J tXtXtXtXtX",
"tXtXtXq.8.8.5.7.5.7.7.5.3.3.3.<.<.>.<.<.<.<.<.<.<.<.<.<.1.>.<.<.<.<.1.1.<.<.<.<.<.1.<.<.<.:.1.:.:.-.$.@.| ] / W T K G Z n tXtXtX",
"tXtXq.e.q.e.e.y.d.d.j.j.j.g.d.d.d.d.d.g.d.d.y.g.d.d.y.g.d.d.d.g.d.g.d.y.y.g.d.y.d.y.d.d.d.y.d.y.y.y.7.1.=.@.| ~ W K D n c z tXtX",
"tXq.q.e.y.d.k.v.m.V.C.A.C.Z.Z.V.V.V.C.C.V.V.Z.V.V.V.V.V.V.V.V.C.M.C.V.V.C.V.V.Z.V.V.V.C.V.V.V.M.m.n.k.d.q.<.$.| Q K Z b h a r tX",
"tXq.e.y.j.v.V.F.Q.}. X X X}.`.).).).Q.Q.Q.).Q.).(.Q.(.Q.(.(.(.Q.Q.(.).Q.(.(.Q.(.(.(.Q.(.Q.(.Q.Q.U.H.A.V.k.y.3.%.] R F c a w 0 tX",
"5.8.q.d.v.A.Q.#X2X5X7X3X2X;X-X*X*X*X*X*X*X*X*X*X*X*X%X*X%X*X%X*X-X%X*X*X*X%X*X*X*X*X-X%X*X*X$X#X#X X(.F.Z.v.y.3.@./ H b i q 8 4 ",
"3.7.e.j.V.Q.;X7X0X0X8X8X3X2X;X;X*X*X*X*X*X*X*X*X*X*X*X*X*X*X*X*X*X*X-X*X*X*X*X*X*X*X*X*X*X*X*X*X%X%X}.Q.F.V.z.e.=.] K n u 9 2 < ",
"<.5.y.b.F.#X8XwXrX0X8X7X;X-X*X*X%X%X*X%X%X*X%X*X$X$X*X*X*X%X*X%X%X*X#X%X*X%X%X*X#X%X*X%X%X*X#X*X%X X}.Q.L.A.b.j.3...R Z i 8 < < ",
":.7.y.M.Q.,X0XwX0X8X5X,X;X$X#X XXXXXXXXXXXXX XXXXXXXXXXXXXXXXXXX X X X X XXXXXXXXXXXXXXX X X X X X}.).Q.L.A.Z.j.q.%./ D i 6 < < ",
"-.5.j.V.}.7XwX0X8X7X,X-X#X X}.}.'.'.'.'.'.'.'.'.'.'.'.'.'.'.'.).}.}.'.'.'.'.'.'.'.'.'.'.'.}.'.'.`.).(.Y.H.A.V.x.y.=./ G a 6 < < ",
"-.7.j.Z. X7X0X8X3X,X-X#X{.).).).).Q.).).).(.(.(.(.(.(.(.).(.).).(.(.).(.(.(.(.).(.(.).(.(.(.(.(.(.Q.E.L.A.A.V.x.y.<.] H d 5 < < ",
"=.5.j.A. X3X7X7X2X-X#X X`.Q.).Q.Q.Q.Q.Q.Q.Q.Q.Q.Q.Q.Q.Q.Q.Q.Q.Q.Q.Q.Q.Q.Q.Q.Q.Q.Q.Q.Q.Q.Q.Q.Q.Q.Q.Q.Y.L.D.A.V.x.y.5.{ J d 5 < < ",
"%.3.j.A. X3X3X,X;X#X}.}.).E.Y.Y.U.P.U.U.P.P.U.P.J.U.U.U.P.U.P.U.P.P.P.P.U.P.P.P.J.U.f.n # + + % b y.L.A.Z.Z.n.x.y.3.| K h 6 < < ",
"$.3.j.Z.}.;X;X;X$X X(.(.Y.L.L.H.G.P.J.F.H.L.G.G.H.H.H.F.F.P.L.F.H.H.L.G.H.H.L.G.H.o.*             * o.H.Z.V.n.x.y.1.| K d 4 < < ",
"#.1.d.C.).-X;X-X#X}.).Q.L.L.F.G.G.G.G.G.F.L.G.G.G.G.H.F.G.G.G.G.F.L.F.G.F.G.G.G.y.*                 * 8.Z.V.b.x.d.3.| K d 4 < < ",
"@.<.d.C.).*X-X#X#X`.(.Q.U.L.G.G.G.G.G.G.G.F.G.G.G.G.F.P.G.G.G.G.H.F.G.G.L.F.G.G.c                     x Z.V.n.x.y.1.| K d 4 < < ",
"@.<.g.V.(.%X-X%X X'.).Q.U.H.G.G.G.G.G.G.G.G.G.G.G.G.G.G.G.G.G.G.G.G.G.G.G.G.G.G.$                     # Z.n.n.z.y.1.| K d 4 < < ",
"@.<.y.V.(.*X*X#XXX'.(.Q.U.J.G.F.G.G.G.G.G.G.G.G.G.G.G.G.G.G.G.G.G.G.G.G.G.G.G.G.+                     o Z.Z.n.z.y.1.| K d 5 < < ",
"@.<.d.V.(.%X*X*XXX'.(.Q.U.J.H.J.G.G.G.G.G.G.G.G.G.G.G.G.G.G.G.G.G.G.G.G.G.G.G.G.+           ; k >     o V.M.n.z.f.3.| K s 5 < < ",
"@.<.d.V.Q.*X*X*XXX'.(.Q.J.H.H.F.G.G.G.G.G.G.G.G.G.G.G.G.G.G.G.G.G.G.G.G.G.G.G.G.$           k *._ -   # Z.Z.n.z.y.5.| K s 2 < < ",
"@.<.y.V.).*X*X%XXX'.).Q.P.L.G.G.G.G.G.G.G.G.G.G.G.G.G.G.G.G.G.G.G.G.G.G.G.G.G.G.c           > _ _ , @ M C.V.n.z.y.1.| K d 2 < < ",
"@.<.g.V.(.%X*X%XXX'.(.Q.P.G.G.G.G.G.G.G.G.G.G.G.G.G.G.G.G.G.G.G.G.G.G.G.G.G.G.G.y.*           - , : j f.V.V.n.z.f.1.| K d 5 < < ",
"@.<.d.V.Q.*X*X*XXX'.).Q.U.F.G.G.G.G.G.G.G.G.G.G.G.G.G.G.G.G.G.G.G.G.G.G.G.G.G.G.G...*           @ j 1.A.Z.Z.v.z.y.5.| K s 5 < < ",
"@.<.d.C.).*X*X%X X'.(.Q.P.L.G.G.G.G.G.G.G.G.G.G.G.G.G.G.G.G.G.G.G.G.G.G.G.G.G.G.G.L.e.c $ + + $ n g.D.Z.V.M.n.z.y.3.| K s 2 < < ",
"@.<.d.V.Q.-X*X%X X}.Q.Q.P.L.F.G.G.G.G.G.G.G.G.G.G.G.G.G.G.G.G.G.G.G.G.G.G.G.G.G.G.G.G.G.G.G.G.G.G.G.D.A.Z.M.n.z.y.3.| K d 2 < < ",
"@.<.d.V.(.%X*X*X X}.(.Q.U.F.G.G.G.G.G.G.G.G.G.G.G.G.G.G.G.G.G.G.G.G.G.G.G.G.G.G.G.G.G.G.G.G.G.G.G.L.G.A.Z.Z.n.z.y.3.| K d 4 < < ",
"@.<.y.Z.).*X-X$X X'.(.Q.P.L.G.G.G.G.G.G.G.G.G.G.G.G.G.G.G.G.G.G.G.G.G.G.G.G.G.G.G.G.G.G.G.G.G.G.G.G.D.A.Z.n.n.z.y.3.| K s 2 < < ",
"@.<.g.V.Q.*X*X#X X}.(.Q.U.G.G.G.G.G.G.G.G.G.G.G.G.G.G.G.G.G.G.G.G.G.G.G.G.G.G.G.G.G.G.G.G.G.G.G.G.G.A.Z.Z.Z.n.z.f.5.| K d 5 < < ",
"@.<.d.V.(.#X*X*XXX'.(.Q.U.F.G.G.G.G.G.G.G.G.G.G.G.G.G.G.G.G.G.G.G.G.G.G.G.G.G.G.G.G.G.G.G.G.G.G.G.G.D.A.Z.M.n.z.y.1.| K d 2 < < ",
"@.<.d.V.(.*X-X$XXX'.(.Q.U.H.G.G.G.G.G.G.G.G.G.G.G.G.G.G.G.G.G.G.G.G.G.G.G.G.G.G.G.G.G.G.G.G.G.G.G.G.D.A.Z.M.n.z.f.1.| K d 5 < < ",
"@.<.y.V.Q.%X*X#XXX'.).Q.U.H.F.G.G.G.G.G.G.G.G.G.G.G.G.G.G.G.G.G.G.G.G.G.G.G.G.G.G.G.G.G.G.G.G.G.G.G.G.A.V.V.b.x.y.5.| K s 5 < < ",
"@.<.g.V.).*X*X*XXX'.(.Q.P.H.L.F.G.G.G.G.G.G.G.G.G.G.G.G.G.G.G.G.G.G.G.G.G.G.G.G.G.G.G.G.G.G.G.G.G.G.D.A.Z.V.n.x.y.3.| K s 2 < < ",
"@.1.d.V.).*X*X%X X'.(.Q.P.L.G.G.G.G.G.G.G.G.G.G.G.G.G.G.G.G.G.G.G.G.G.G.G.G.G.G.G.G.G.G.G.G.G.G.G.G.G.A.V.M.n.z.y.1.| K d 2 < < ",
"@.1.y.V.Q.*X*X%X X'.(.Q.P.G.G.G.G.G.G.G.G.G.G.G.G.G.G.G.G.G.G.G.G.G.G.G.G.G.G.G.G.G.G.G.G.G.G.G.G.G.A.A.Z.Z.n.z.y.1.| K d 5 < < ",
"@.<.d.V.).%X*X*XXX'.(.Q.U.F.G.G.G.G.G.G.G.G.G.G.G.G.G.G.G.G.G.G.G.G.G.G.G.G.G.G.G.G.G.G.G.G.G.G.G.G.G.A.V.M.n.z.f.1.| K d < < < ",
"@.<.g.C.Q.*X*X%XXX'.(.Q.P.L.G.G.G.G.G.G.G.G.G.G.G.G.G.G.G.G.G.G.G.G.G.G.G.G.G.G.G.G.G.G.G.G.G.G.G.G.G.A.Z.V.n.z.y.5.| K d 5 < < ",
"@.<.d.M.Q.*X*X%XXX'.).Q.P.H.F.G.G.G.G.G.G.G.G.G.G.G.G.G.G.G.G.G.G.G.G.G.G.G.G.G.G.G.G.G.G.G.G.G.G.G.G.A.C.V.n.z.y.1.| K d 2 < < ",
"@.<.g.C.).*X*X*XXX'.(.Q.U.H.L.F.G.G.G.G.G.G.G.G.G.G.G.G.G.G.G.G.G.G.G.G.G.G.G.G.G.G.G.G.G.G.G.G.G.G.G.A.V.V.n.z.f.1.| K d 5 < < ",
"@.1.d.V.Q.*X*X%X X'.(.Q.L.H.G.F.G.G.G.G.G.G.G.G.G.G.G.G.G.G.G.G.G.G.G.G.G.G.G.G.G.G.G.G.G.G.G.G.G.G.G.A.V.V.v.z.y.5.| K s 5 < < ",
"@.1.y.V.).*X*X*XXX'.(.Q.Y.G.G.L.G.G.G.G.G.G.G.G.G.G.G.G.G.G.G.G.G.G.G.G.G.G.G.G.G.G.G.G.G.G.G.G.G.G.A.A.C.V.n.z.y.3.| K s 2 < < ",
"@.<.y.C.(.*X*X%X X'.).Q.U.F.r.c # + + $ c y.G.G.G.G.G.G.G.G.G.G.G.G.G.G.G.G.G.G.G.G.G.G.G.G.G.G.G.G.D.A.Z.n.n.z.y.3.| K d 2 < < ",
"@.<.g.V.(.%X*X%X X'.(.Q.U.o.*             * ..G.G.G.G.G.G.G.G.G.G.G.G.G.G.G.G.G.G.G.G.G.G.G.G.G.G.L.D.A.Z.Z.n.z.y.3.| K d 4 < < ",
"@.<.d.V.Q.*X*X*X#X'.(.Q.f.*                 * e.G.G.G.G.G.G.G.G.G.G.G.G.G.G.G.G.G.G.G.G.G.G.G.G.G.G.H.A.Z.n.n.z.y.3.| K s 2 < < ",
"@.<.y.Z.(.*X*X%X X'.(.Q.n                     c G.G.G.G.G.G.G.G.G.G.G.G.G.G.G.G.G.G.G.G.G.G.G.G.G.G.A.Z.Z.Z.n.z.f.5.| K d 5 < < ",
"+.<.f.V.(.%X*X*X X'.(.Q.$                     $ G.G.G.G.G.G.G.G.G.G.G.G.G.G.G.G.G.G.G.G.G.G.G.G.G.G.D.A.V.M.n.z.y.1.| K d 2 < < ",
"+.,.g.V.(.%X*X%X X'.(.Q.+                     + G.G.G.G.G.G.G.G.G.G.G.G.G.G.G.G.G.G.G.G.G.G.G.G.G.G.D.A.Z.V.n.z.f.1.| J d 5 < < ",
"+.,.y.Z.Q.#X*X%X X`.).Q.+           ; k >     + G.G.G.G.G.G.G.G.G.G.G.G.G.G.G.G.G.G.G.G.G.G.G.G.G.G.G.A.Z.V.n.z.y.3.| J s 5 < < ",
"+.,.y.V.Q.#X%X%X X}.(.Q.%           k *._ -   $ G.G.G.G.G.G.G.G.G.G.G.G.G.G.G.G.G.G.G.G.G.G.G.G.G.G.D.A.Z.n.n.x.y.1.| J a < < < ",
"..:.y.M.Y. X*X%X X`.).U.n           > _ l , @ B H.H.F.L.G.G.G.G.G.G.G.G.G.G.L.D.G.G.G.G.G.G.L.A.G.G.D.A.Z.M.v.z.y.,.{ H a < < < ",
"..=.e.b.L. X#X X X).Q.Q.f.=           - , > j g.H.F.G.F.G.L.G.G.G.G.G.G.G.G.D.H.G.G.G.G.G.G.G.L.G.G.D.A.V.V.v.k.r.:.) D y < < < ",
"} %.8.x.A.Q.{.}.).(.U.L.L.o.*           @ j 1.H.F.F.F.F.D.D.H.A.D.G.D.G.D.G.A.H.G.D.G.D.G.D.D.H.G.A.A.V.V.b.v.j.q.%./ V q < < < ",
"| @.3.y.V.L.Q.Q.Q.Y.L.L.F.A.7.c # o o # M y.Z.Z.A.A.A.A.A.A.A.Z.A.A.A.A.A.A.Z.Z.A.A.A.A.A.A.A.Z.A.A.V.V.M.v.j.y.3.@.W b 8 < < < ",
"] | =.q.x.V.F.L.L.L.D.D.A.C.C.A.Z.V.Z.Z.Z.Z.V.Z.C.C.Z.V.Z.V.Z.Z.V.V.V.A.Z.Z.V.Z.C.V.V.C.Z.Z.Z.Z.C.C.V.b.b.z.j.q.:.| K d 4 < < < ",
"/ ] +.<.y.v.C.A.A.A.A.Z.C.V.V.V.V.V.n.Z.N.N.V.V.V.V.V.V.Z.M.n.Z.V.V.V.V.N.V.N.V.V.V.V.V.n.Z.M.M.V.V.b.b.k.j.r.3.@.Q Z r < < < < ",
"~ / | #.3.y.x.n.V.V.V.M.M.n.b.n.b.n.n.n.n.n.b.n.b.b.n.b.v.n.n.n.n.b.b.b.b.n.n.b.n.b.b.b.v.n.n.n.v.b.x.k.d.e.3.%.] K z 8 < < < < ",
"W W ~ | %.1.r.j.z.z.v.x.v.x.z.z.x.k.x.x.x.j.x.x.k.x.x.z.z.z.z.z.x.z.z.z.z.z.x.z.x.z.z.z.z.z.z.z.j.k.j.y.e.3.=.| T n q < < < < < ",
"T T T ^ ] @.-.1.q.r.y.g.y.d.y.y.y.y.y.y.f.y.y.y.y.y.y.y.y.f.y.y.y.y.y.y.f.y.s.y.y.y.y.y.y.d.y.y.y.y.q.5.:.@.] T V u 4 < < < < < ",
"U K K K T / ] ..$.-.:.1.5.1.1.1.1.1.3.3.3.3.3.3.3.3.5.5.3.3.3.3.3.3.3.3.3.3.3.3.1.1.5.1.1.1.1.1.<.-.=.@.{ Q K n i 4 < < < < < < ",
"J G A A G G U W ~ ` ] | |  .| | | | | | } } } ..} } } } } } } } } } } } } } } } | | | | | | | | ] ) / R K A z w 4 < < < < < < < ",
"tXA n c c n n B A G G J J K J J K K K K K K K K K K K K K I K K J K K K I K K K K K K K J K K J H F M n d w 8 < < < < < < < < tX",
"tXn c z s a u i s s s s h h s s d d d d d d d d h d d d d d d d d d d d d d d d d d d d d a a a a y q 8 4 < < < < < < < < < < tX",
"tXtXh a w 0 9 6 6 5 5 5 5 5 5 5 2 5 2 5 5 2 2 5 4 2 2 4 2 2 5 2 5 2 2 2 4 2 2 6 2 4 4 2 4 4 4 4 < 1 < < < < < < < < < < < < tXtX",
"tXtXtXr 0 8 3 < < < < < < < < < < < < < < < < < < < < < < < < < < < < < < < 2 < < < < < < < < < < < < < < < < < < < < < < tXtXtX",
"tXtXtXtXtX5 < < < < < < < < < < < < < < < < < < < < < < < < < < < < < < < < < < < < < < < < < < < < < < < < < < < < < tXtXtXtXtX"
};
