/* XPM */
static char *five_xpm[] = {
/* columns rows colors chars-per-pixel */
"64 64 2 1",
"  c black",
". c None",
/* pixels */
".....                                                      .....",
"...  ......................................................  ...",
".. .......................................................... ..",
". ............................................................ .",
". ............................................................ .",
" .............................................................. ",
" .............................................................. ",
" ........... .................................... ............. ",
" ........       ..............................       .......... ",
" .......         ............................          ........ ",
" ......           ..........................           ........ ",
" .....             .........................            ....... ",
" .....             ........................             ....... ",
" .....             ........................             ....... ",
" .....             ........................              ...... ",
" .....             ........................             ....... ",
" .....             .........................            ....... ",
" ......           ..........................            ....... ",
" .......          ...........................          ........ ",
" ........        .............................        ......... ",
" ..........    .................................    ........... ",
" .............................................................. ",
" .............................................................. ",
" .............................................................. ",
" .............................................................. ",
" .............................................................. ",
" ............................     ............................. ",
" ..........................        ............................ ",
" .........................          ........................... ",
" ........................            .......................... ",
" ........................             ......................... ",
" ........................             ......................... ",
" ........................             ......................... ",
" ........................             ......................... ",
" ........................             ......................... ",
" ........................            .......................... ",
" .........................           .......................... ",
" ..........................         ........................... ",
" ...........................       ............................ ",
" .............................................................. ",
" .............................................................. ",
" .............................................................. ",
" .............................................................. ",
" .............................................................. ",
" .............................................................. ",
" ........       ...............................      .......... ",
" .......         ............................         ......... ",
" ......           ..........................           ........ ",
" ......            .........................            ....... ",
" .....             ........................             ....... ",
" .....             ........................             ....... ",
" .....             ........................              ...... ",
" .....             ........................             ....... ",
" .....             .........................            ....... ",
" ......            .........................            ....... ",
" ......           ...........................          ........ ",
" .......         .............................        ......... ",
" .........     ................................      .......... ",
" .............................................................. ",
". ............................................................ .",
". ............................................................ .",
".. .......................................................... ..",
"...  ......................................................  ...",
".....                                                      ....."
};
