/* XPM */
static char *icon64_xpm[] = {
/* columns rows colors chars-per-pixel */
"64 64 256 2",
"   c #0E3A0E450F00",
".  c #0F4C0F4B0FB6",
"X  c #13D613E3143E",
"o  c #17C2174316A4",
"O  c #185C17E4173D",
"+  c #1BD51B2D1A71",
"@  c #1749175417A8",
"#  c #20321F271DD7",
"$  c #221920BC1E87",
"%  c #1F1F1F421FB8",
"&  c #23CE23392287",
"*  c #2845268E2426",
"=  c #2C7929FF259A",
"-  c #2CE72C132B15",
";  c #318A2DF3275B",
":  c #353631AD2CD7",
">  c #3A9535162DA9",
",  c #3C8C380D2F65",
"<  c #3574348C3389",
"1  c #3A25371832B4",
"2  c #3BF7388F31FB",
"3  c #3B993B403B14",
"4  c #37BA37B537BA",
"5  c #419934F92629",
"6  c #4389377629C6",
"7  c #46B8398D2A52",
"8  c #4B3E3D2E2CBE",
"9  c #432E3C063260",
"0  c #49BD3E623221",
"q  c #41BE3E7F396D",
"w  c #4E6240482F06",
"e  c #50C840B62F29",
"r  c #4B8B424E35BD",
"t  c #451541B63B7B",
"y  c #4AB045063AF7",
"u  c #4ED348A93CA1",
"i  c #467640AD3581",
"p  c #5451456133E8",
"a  c #58AD47443422",
"s  c #561348BC3695",
"d  c #5B8A494735CD",
"f  c #532D472A3A8B",
"g  c #53654AA03DFE",
"h  c #5B804C813AAA",
"j  c #5E1350F43D89",
"k  c #61124DDD3919",
"l  c #641951993C91",
"z  c #692454A43E41",
"x  c #433D43214350",
"c  c #4A6746D6402F",
"v  c #4C67492842C6",
"b  c #4B6F4B0F4ACF",
"n  c #54334E25443D",
"m  c #51024E2249CA",
"M  c #5B7A536A4435",
"N  c #555451C24A3A",
"B  c #5AE655104BF8",
"V  c #564650BF45F0",
"C  c #547A543F542D",
"Z  c #5D4659E152D3",
"A  c #5C695C3F5C4B",
"S  c #57F4577F56F2",
"D  c #6351553C4212",
"F  c #6AE656D54112",
"G  c #63DB588B4525",
"H  c #6DE759B742F8",
"J  c #64015AE248B3",
"K  c #6A3B5E7F49F6",
"L  c #73355CE844B0",
"P  c #70FD5E5747DF",
"I  c #60525B5752BC",
"U  c #67F55F13556D",
"Y  c #6C2161BC4DA4",
"T  c #790161224758",
"R  c #741963B54C6C",
"E  c #7C9265144AC6",
"W  c #7FCE68934D2C",
"Q  c #655B60F0576D",
"!  c #6D5A62F65388",
"~  c #64A1603E5B42",
"^  c #6AF465975CAF",
"/  c #6C4E67E85E34",
"(  c #721B64AF51EF",
")  c #752469DE53C1",
"_  c #7AE66CAC5541",
"`  c #735E68F25DA3",
"'  c #7CAB6D64591B",
"]  c #757966BA56D8",
"[  c #7EA5709E5722",
"{  c #7E83724E59E1",
"}  c #649864786489",
"|  c #6C25675D6160",
" . c #6CC56A0865E3",
".. c #6B006ACC6A95",
"X. c #73546CC262BD",
"o. c #75D36F0867B2",
"O. c #76AC71346B53",
"+. c #79E1750E6CDD",
"@. c #785070A4657F",
"#. c #6FA86FD57010",
"$. c #7379735D7364",
"%. c #79FD761F71CA",
"&. c #7CA4792A7562",
"*. c #7D627C847BAD",
"=. c #83E16A6E4E99",
"-. c #80D5672F4BBD",
";. c #83C16D0553E7",
":. c #89C06ED451B5",
">. c #82846EA5594F",
",. c #857670C256F1",
"<. c #8D5C720853F7",
"1. c #83DF76335C7C",
"2. c #8D0A746C59CD",
"3. c #8601790B5EC5",
"4. c #89177ADB5F06",
"5. c #91F574C555CB",
"6. c #967E7A2F5AFD",
"7. c #9B3D7D065C65",
"8. c #915D77DD5C42",
"9. c #8409760E6273",
"0. c #8ABB7D7F6242",
"q. c #88317DC46CEB",
"w. c #9C577F566068",
"e. c #815D7E197A79",
"r. c #825C7D4B7212",
"t. c #A19C81515F0A",
"y. c #8ED9810164AD",
"u. c #92BD839D6604",
"i. c #95A6868B689C",
"p. c #97A588836A22",
"a. c #9C678C756CC7",
"s. c #842A81B07DC0",
"d. c #8F908A187CD6",
"f. c #88A382B4759D",
"g. c #93288B9F7CA6",
"h. c #975B8A9074EE",
"j. c #A47D848A61F7",
"k. c #A91E87476351",
"l. c #AB6989C16579",
"z. c #A5E28E5D6BF3",
"x. c #B27A8F126962",
"c. c #A12A90776F94",
"v. c #B64C926A6B9F",
"b. c #BAF895EB6E26",
"n. c #A571948A72FD",
"m. c #A8BB97A17495",
"M. c #AAA8995675FE",
"N. c #AEAC9CC078CF",
"B. c #A66298487CBC",
"V. c #BF429A18713F",
"C. c #B0D79E797A29",
"Z. c #B5BFA2E57D52",
"A. c #B9E5A6857FDE",
"S. c #C43C9D317376",
"D. c #C84AA00575B2",
"F. c #C7DAA1567657",
"G. c #C99DA19076C7",
"H. c #CE3AA5417953",
"J. c #D105A6F37AB0",
"K. c #D514AABA7D65",
"L. c #D967ADF17FCC",
"P. c #84A3840C836F",
"I. c #8D0C8CAC8C51",
"U. c #92FE8DB880FE",
"Y. c #910B8F828DCF",
"T. c #9B7C951B873B",
"R. c #9BD5962487FC",
"E. c #9415940A9405",
"W. c #9CE59CBE9C8E",
"Q. c #A4019B24893A",
"!. c #BB17A78880C2",
"~. c #BDB4A9E38271",
"^. c #AB07A4579472",
"/. c #AED3A8C898F1",
"(. c #AA1CA434957F",
"). c #B2DDABE89B6B",
"_. c #B74CAB4D925B",
"`. c #BDA4B06E939E",
"'. c #A4AFA4A8A4A5",
"]. c #AC6CAC7BAC8E",
"[. c #B732B12FA1AD",
"{. c #BCF7B65AA60C",
"}. c #B3F6B400B40F",
"|. c #BBA4BBAEBBB7",
" X c #C3AEAF1F8642",
".X c #DA74AF30807C",
"XX c #C7E1B2E38912",
"oX c #CAA4B5548AE2",
"OX c #CBEBB6838BE6",
"+X c #DDDFB21682BB",
"@X c #D116BB178F46",
"#X c #C607B7689883",
"$X c #D4F0BE979204",
"%X c #E2EAB5CA8589",
"&X c #E690B891879F",
"*X c #E7DBB9B6885A",
"=X c #EBC6BCF18AC9",
"-X c #C224BB7CAA84",
";X c #DD83C69798C7",
":X c #DF5BC8A49AF9",
">X c #D917C27F9566",
",X c #EFD8C1438DD1",
"<X c #F268C2528EC5",
"1X c #E3D5CC7B9DAE",
"2X c #F653C5A6913B",
"3X c #F943C79E92AF",
"4X c #FF7DCCBF9686",
"5X c #FFFFCF2D9851",
"6X c #CE5EC04BA332",
"7X c #CC9EC64BB546",
"8X c #D161CA2AB778",
"9X c #D43ACD87BC3A",
"0X c #D7CFD116BF61",
"qX c #D897D1D4BF04",
"wX c #DA01CD2DAF85",
"eX c #E518CEB2A159",
"rX c #EB57D434A582",
"tX c #EED7D7A6A8B5",
"yX c #F1E5DACDAC09",
"uX c #E79DD926B934",
"iX c #F592DF5AB20D",
"pX c #F6A2E0B4B3CB",
"aX c #FAC7E637BBD4",
"sX c #FAC8E5DCBAC7",
"dX c #C4D5C4DAC4DF",
"fX c #CC76CC7ACC7E",
"gX c #D538CFC2C08C",
"hX c #DB45D417C2C0",
"jX c #D3FCD40FD420",
"kX c #DBEDDBF8DC04",
"lX c #D857D858D858",
"zX c #E4C4DDFCCBFD",
"xX c #E347DA34C3BE",
"cX c #EA47E2DBCFF6",
"vX c #FD42EAA7C419",
"bX c #FF1FEE7ECB7F",
"nX c #F455E8DCCCB4",
"mX c #FFD5F088CFE5",
"MX c #E660E116D0A0",
"NX c #EC42E5DAD3D3",
"BX c #F01EE93DD5CD",
"VX c #EF83E949D93E",
"CX c #F19FEA24D727",
"ZX c #FC0EEF94D27C",
"AX c #F559EE1BDC10",
"SX c #FFADF228D4B9",
"DX c #FF6FF45ADD1A",
"FX c #FB5CF4B4DF84",
"GX c #E4C2E4C4E4C5",
"HX c #E971E971E971",
"JX c #FF7BF6A2E3CD",
"KX c #FFFCF969E6B2",
"LX c #FFE8FAABEA10",
"PX c #FFFFF871E8A0",
"IX c #FFFFFC08F286",
"UX c None",
/* pixels */
"UXUXUXUXUXUXUXUXUXUXUXUXUXUXUXUXUXUXUXUXUXUXUXUXUXUXUXUXUXUXUXUXUXUXUXUXUXUXUXUXUXUXUXUXUXUXUXUXUXUXUXUXUXUXUXUXUXUXUXUXUXUXUXUX",
"UXUXUXUXUXUXUXUXUXUXUXUXUXUXUXUXUXUXUXUXUXUXUXUXUXUXUXI.O.Z n g n g B ^ s.I.UXUXUXUXUXUXUXUXUXUXUXUXUXUXUXUXUXUXUXUXUXUXUXUXUXUX",
"UXUXUXUXUXUXUXUXUXUXUXUXUXUXUXUXUXUXUXUXUXUXUX%.X.' 2.7.x.V.D.D.D.G.S.b.j.8.>.@.O.*.UXUXUXUXUXUXUXUXUXUXUXUXUXUXUXUXUXUXUXUXUXUX",
"UXUXUXUXUXUXUXUXUXUXUXUXUXUXUXUXUXUXUXUX*.` >.k.H.*X2X4X5X5X5X5X4X4X5X5X4X3X<XL.b.2.] %.UXUXUXUXUXUXUXUXUXUXUXUXUXUXUXUXUXUXUXUX",
"UXUXUXUXUXUXUXUXUXUXUXUXUXUXUXUXUXUX%.] 6.H.2X5X5X5X5X4X4X4X4X4X4X4X4X4X4X4X4X4X5X3X%Xl._ | UXUXUXUXUXUXUXUXUXUXUXUXUXUXUXUXUXUX",
"UXUXUXUXUXUXUXUXUXUXUXUXUXUXUXUXUX! 6..X3X5X4X4X4X5X4X4X4X4X4X5X4X4X4X4X4X4X4X4X4X4X5X5X*Xv._ %.UXUXUXUXUXUXUXUXUXUXUXUXUXUXUXUX",
"UXUXUXUXUXUXUXUXUXUXUXUXUXUXUXO.;.H.3X5X5X4X4X4X4X4X4X4X4X4X5X5X5X5X4X4X4X4X4X4X4X4X4X4X4X5X*X7.^ P.UXUXUXUXUXUXUXUXUXUXUXUXUXUX",
"UXUXUXUXUXUXUXUXUXUXUXUXUXUXU j.=X5X5X4X4X4X4X4X4X4X4X4X4X5X,XV.j.F.3X5X4X4X4X4X4X4X4X4X4X4X5X3XD.R e.UXUXUXUXUXUXUXUXUXUXUXUXUX",
"UXUXUXUXUXUXUXUXUXUXUXUXs.( b.3X5X4X4X4X4X4X4X4X5X5X5X5X<Xb.,.h./.4.,.F.<X4X4X4X4X4X4X4X4X5X4X4X4X+X-.e.lXUXUXUXUXUXUXUXUXUXUXUX",
"UXUXUXUXUXUXUXUXUXUXUX*.( G.5X5X4X4X4X4X4X4X4X4X4X5X3XS.;.g.9XPXKXSX#X1.<.J.3X4X4X4X4X4X4X4X4X4X4X4X=X;.&.jXUXUXUXUXUXUXUXUXUXUX",
"UXUXUXUXUXUXUXUXUXUXUX( H.5X4X4X4X4X4X4X4X4X4X5X3X.X8.y.8XJXPXAXhXqXNXnX`._ 6.L.3X4X4X4X4X4X4X4X4X4X4X=X;.%.jXUXUXUXUXUXUXUXUXUX",
"UXUXUXUXUXUXUXUXUXUXU S.4X4X4X4X4X4X4X4X4X4X5X+X8.9.{.AXLXJX{.B 1 ; t q.xXuXB.T t.=X4X4X4X4X4X4X4X4X4X4X*XR s.lXUXUXUXUXUXUXUXUX",
"UXUXUXUXUXUXUXUXUXX.l.3X4X4X4X4X5X4X4X5X4X,Xk.' ).VXLXPXPX8X- X @ % + + @.JXDXuXa.E v.<X4X4X4X4X4X4X4X4X5X.XD E.kXUXUXUXUXUXUXUX",
"UXUXUXUXUXUXUXUX*.2.2X4X4X4X4X4X5X5X5X,Xv.;.R.MXPXPXAXVXFX9X1 X % - < & +.FXJXJXDX6X1.=.F.<X4X4X4X4X4X4X4X5Xb.N }.HXUXUXUXUXUXUX",
"UXUXUXUXUXUXUXUX( L.5X4X4X4X4X4X5X3XF.,.g.qXKXKXMXR.Z v B d.^./ y ..f.d.MXKXJXJXJXDXnX#X,.<.L.3X4X4X4X4X4X5X3X:.U dXUXUXUXUXUXUX",
"UXUXUXUXUXUXUXU l.4X4X4X4X4X5X4XH.2.y.7XKXKXKXBXZ X X + + # Z MXNXMXAXJXKXDXJXDXKXKXKXKXnXC.E t.%X4X4X4X4X4X5X+XV P.lXUXUXUXUXUX",
"UXUXUXUXUXUXUX' =X4X4X4X5X4X+X7.9.{.AXLXLXLXLX9X$ X + & = & 1 hXKXJXJXJXDXKXKXKXMX(.U.U./.hXuXc.E k.=X4X4X4X4X4Xt.m ].GXUXUXUXUX",
"UXUXUXUXUXUXO.x.4X4X4X5X,Xl.[ ).AXLXKXzX{.).{.hXX.$ + 4 } 3 T.FXJXJXJXJXJXDXKXqXu o o @ $ t {.DX8Xu.E S.<X3X4X5X%Xh $.fXUXUXUXUX",
"UXUXUXUXUXUX] *X4X4X4XS.' R.MXPXLXAXg.1 # + * c /.[.g.g.{.8XFXJXJXJXDXJXJXKXKXd.. + % % * % B BXKXZX#X_ <.%X3X4X4X6.v ].GXUXUXUX",
"UXUXUXUXUX&.w.4X4X5XV.1.0XLXLXKXLXR.@ X O % % % c NXKXJXKXKXJXJXJXDXKXKXAXBXKX{.- @ & x 3 & Z CXDXDXSXyX4.=.*X<X4XJ.r *.jXUXUXUX",
"UXUXUXUXUX` H.4X4X5X7.`.DXKXPXKXKX&.. @ % - < & I BXJXJXJXJXKXKXJXJXhXf.N v ~ R.(.Q q ../ / 8XKXDXSXvXeXc.l F.&X<X<XL C }.UXUXUX",
"UXUXUXUXUX' =X4X4X5Xj.c.pXbXJXKXKX0Xm & $ m ..^ qXJXJXJXDXJXDXDXKX7X1 X X @ % % Q hXMXhXMXAXDXDXSXpX$Xm.1.d t.G.*X2Xj.3 I.lXUXUX",
"UXUXUXUXI.w.4X5X4X5XF._ @XrXvXDXKXLXNX[.R./.7XBXKXJXJXJXJXJXKXKXKXg.  O % & * * = {.KXKXDXDXSXbXtXXXa.y.[ p =.x.L.<XH.9 ..dXUXUX",
"UXUXUXUXO.b.5X4X4X5X%XT N. X:XpXSXKXLXLXLXKXKXKXJXJXDXJXKXJXVXVXFX-X* O & 3 C * 2 qXKXDXFXSXaX:XZ.i.0.0.( w T t.H.=X*Xh C }.UXUX",
"UXUXUXUX@..X4X4X4X5X2XR z.C.~.>XyXbXDXKXKXKXKXJXJXJXJXJX6XX.v v Q /./.n : b  .Z ).KXDXDXbXyX@Xm.y.0.0.y.T 8 z 7.D.*X2XT x E.kXUX",
"UXUXUXUX] *X4X4X4X4X3X<.u.N.N.A.OXrXaXSXKXKXKXKXJXJXJXQ.& X @ @ + * r.cX9X7X9XNXDXFXSXvXeXA.p.4.0.0.0.0.D 8 z 7.G.=X3X7.1 *.jXUX",
"UXUXUXUX>.2X4X4X4X4X5X7.4.m.Y _ C. X:XpXmXKXPXKXPXPXNXq . + % & & & : 9XPXKXKXDXFXbXpX>XC.y.y.y._ u ( 0.h 8 L w.J.=X4Xx.1 ..dXUX",
"UXUXUXW.2.3X4X4X4X5X5Xv._ n.= o M N.~.>XyXbXDXKXPXPXVXc X % & 3 x & 3 qXKXDXDXDXbXrXXXc.y.4.y.( = . f 0.d e L k.K.<X4XS.1 A }.UX",
"UXUXUXP.6.4X4X4X4X4X5XH.R M.9 X + Y N.Z.OXeXaXDXPXPXPX[.1 + % S S q ^.JXDXDXmXsX:XZ.p.3.3.y.{ = X o M 1.0 a -.x..X2X5XH.6 C ].HX",
"UXUXUXO.j.5X4X4X4X4X5X%XP M.) + o $ y.N.Z. X:XpXZXKXPXPXgXT. .O.R.9XJXDXDXbXtX@Xm.y.y.0.y.y.u o X & { [ 7 d =.v..X2X4X.X9 b W.GX",
"UXUXUX~ k.5X4X4X4X4X4X2XE a.n.u - x Y M.M.N.~.@XtXvXDXPXLXLXPXJXKXJXFXSXaX1X~.a.y.3.3.y.4.{ & X o g y.( 7 k <.b.%X3X4X+X0 b E.kX",
"UXUXUXU k.5X4X4X4X4X4X3X;.u.N.u.N A V n.M.M.M.Z.XX1XsXSXPXLXPXPXDXDXbXiX>XZ.u.0.3.0.y.y.y.Y O X 9 4.4.Y 7 z 6.S.*X3X5X%X0 x E.lX",
"UXUXUX| l.4X4X4X4X4X4X5Xj.,.M.M.i.V Y n.m.m.M.M.A. X>XiXbXKXIXKXDXbXtXXXn.0.0.0.y.y.0.0.y.) : y { y.0.M 7 z t.G.=X3X4XL.8 x I.jX",
"UXUXUX*.7.4X4X4X4X4X4X5XV.) M.m.M.m.n.m.m.M.M.4._ n.~.$XtXvXDXPXvX1XA.i.0.0.4.Y M 3.0.0.0.y.3.0.y.0.y.s e L t.H.=X4X4XK.7 y I.jX",
"UXUXUXE.2.4X4X4X4X4X4X5XL.R m.m.m.m.m.m.m.m.M.i X , i.A.XX1XyXpX>XN.u.0.0.1.i @ O ) y.y.{ 3.y.0.0.4.{ w a T l.L.<X4X4XF.> b I.jX",
"UXUXUXW.,.3X4X4X4X4X4X5X,XH c.m.n.M.m.m.m.m.m.y X X ; a.Z.A. X Xc.0.4.0.0.9 X X O ) 3.y % M y.0.3.y.{ 8 d -.v.L.2X4X4Xv.: m E.kX",
"UXUXUXUX' ,X4X4X4X4X4X4X2XW a.1.i { M.m.m.m.m._ + o . g M.m.m.u.3.3.4.y.B o o X ; { y X X j y.j : ) ) 7 k :.b.L.2X5X5Xt.: b W.GX",
"UXUXUXUX` +X4X4X4X4X4X4X5X2.4.1.X % { M.m.m.M.c.i & 4 - 4.m.a.4.{ 4.y.3.: X o O Y M O X + ) u X + { Y 5 k y.V.&X3X5X5X;.< C '.HX",
"UXUXUXUX@.F.5X4X4X4X4X4X5Xl._ n.> X ; i.M.m.n.M.y.t ..x Y m.i.4.3.y.y.( # X o r { = X X t Y + X , y.G w z t.V.*X3X5X2Xz 4 A }.UX",
"UXUXUXUXf.t.5X4X4X4X4X4X5X+XF u._ = x ! m.m.m.M.M.y.V 1 ! n.a.4.3.3.y.) $ # u 4.Y O X ; { ; X + Y { w w L t.H.=X3X5XL.i 3  .dXUX",
"UXUXUXUXUX1.2X4X4X4X4X4X4X4Xv.l y.! Z V a.M.n.M.m.M.c.4.a.n.a.4.{ 4.y.3.Y ) y.y.Y % 2 { ) O O j 1.a 5 a E l.L.<X5X5Xb.: x &.fXUX",
"UXUXUXUXUX] .X5X4X4X4X4X4X4X3Xj.j 3._ M c.M.n.M.m.m.m.m.m.n.a.4.3.y.0.y.y.y.3.y.{ ) 3.y.) ; G [ p 5 8 z :.b.%X2X5X3X=.< b Y.kXUX",
"UXUXUXUXUXO.x.5X4X4X4X4X4X4X4X,Xl.j 1.c.M.n.M.n.m.m.m.n.m.n.a.4.{ y.0.0.3.y.y.y.3.y.y.y.y.y.W 8 5 8 k E k.H.*X3X5X&Xs 4 C '.UXUX",
"UXUXUXUXUXUX>.2X4X4X4X4X4X4X4X3X,Xl.j ) c.n.M.c.g V a.m.n.n.a.4.{ 3.0.0.y.3.Y > g y.3.y.y.R 7 5 e k -.7.S.%X2X4X5Xx.> t ..dXUXUX",
"UXUXUXUXUXUX` G.5X4X4X4X4X4X4X4X2X*Xv.z Y a.m.c.= . , i.M.n.a.0.3.y.y.0.y.V # . i y.y.y.j > 7 e z -.w.S.+X<X3X4X<XL 4 b P.jXUXUX",
"UXUXUXUXUXUX%.2.3X4X4X4X4X4X4X4X3X2X*XD.z G i.m.V + X r n.n.a.0.{ 0.y.y.( + X @ J y.1.k 5 5 e z =.k.S.%X<X3X4X5XV., 3 S ].GXUXUX",
"UXUXUXUXUXUXUX! F.4X4X4X4X4X4X4X4X4X<X=XH.E j y.i.2 - 4 ) n.a.0.{ y.0.{ > X X > 3.{ s > 8 a z :.l.D.%X<X3X4X4X2XL < x $.dXUXUXUX",
"UXUXUXUXUXUXUXe.;.<X4X4X4X4X4X4X4X4X4X3X=XK.<.j 0.[ b } y n.a.0.3.y.y.Y + X = _ _ i > w d L t.l.J.*X<X4X4X4X4Xl.> 3 C W.kXUXUXUX",
"UXUXUXUXUXUXUXUX^ l.4X4X4X4X4X4X4X4X4X4X3X=X%Xw.k ;.9.y y a.a.0.{ 4.y.Y $ > ) T 8 7 e k T 6.b.L.=X2X4X4X4X5X+Xf 1 x $.dXUXUXUXUX",
"UXUXUXUXUXUXUXUXUX! H.5X4X4X4X4X4X4X4X4X4X4X=X&Xl.k ) i.i.n.a.0.1.3.0.1._ 1.G 5 5 e l -.7.V.L.=X3X4X4X4X5X2XE : x S '.kXUXUXUXUX",
"UXUXUXUXUXUXUXUXUXY.( &X5X4X4X4X4X4X4X4X4X4X3X=X&Xb.F K a.n.a.0.3.y.y.y.4.j 5 7 a l =.t.D.+X<X3X4X4X4X3X3X7.> 3 b P.fXUXUXUXUXUX",
"UXUXUXUXUXUXUXUXUXUX .:.=X5X4X4X4X4X4X4X4X4X4X4X2X*XS.L l i.a.0.{ 0.4.,.a > 8 k z <.l.D.%X<X3X4X4X4X4X4Xv.> 3 x ..}.UXUXUXUXUXUX",
"UXUXUXUXUXUXUXUXUXUXUX&.:.=X4X4X4X4X4X4X4X4X4X4X4X2X=XJ.=.l 3.0.3.4._ w 5 8 k z 5.x.J.*X<X3X4X4X4X4X3Xb.0 4 x A '.kXUXUXUXUXUXUX",
"UXUXUXUXUXUXUXUXUXUXUXjX$.;.&X4X4X4X4X4X4X4X4X4X4X3X3X=XL.5.h R { Y w 6 8 k L 6.b.K.*X2X4X4X4X4X4X2Xl.7 4 x C E.jXUXUXUXUXUXUXUX",
"UXUXUXUXUXUXUXUXUXUXUXUXlX&.H K.4X5X4X4X4X4X4X4X4X4X4X3X=X+Xk.l a p p a l -.7.b.L.=X3X3X4X4X4X4X=X7.> 4 x C I.jXUXUXUXUXUXUXUXUX",
"UXUXUXUXUXUXUXUXUXUXUXUXUXlXP.M l.2X5X4X4X4X4X4X4X4X4X4X4X<X%XS.t.<.E E 5.t.D.%X<X3X3X4X4X4X4XJ.L > 3 x C I.fXUXUXUXUXUXUXUXUXUX",
"UXUXUXUXUXUXUXUXUXUXUXUXUXUXlXW.B T H.2X5X4X4X4X4X4X4X4X4X3X2X&XJ.b.k.k.v.H.%X<X3X4X5X4X4X%X7.r < x x A W.jXUXUXUXUXUXUXUXUXUXUX",
"UXUXUXUXUXUXUXUXUXUXUXUXUXUXUXGX}...u =.H.2X5X4X5X4X4X4X4X4X3X2X,XL.K.K.L.,X<X3X4X4X4X%Xj.h < 4 x b $.].lXUXUXUXUXUXUXUXUXUXUXUX",
"UXUXUXUXUXUXUXUXUXUXUXUXUXUXUXUXUXfXE.S 0 P l..X2X4X5X5X5X5X4X4X3X3X,X<X<X4X4X4X*XS.:.f : 4 3 b A I.|.GXUXUXUXUXUXUXUXUXUXUXUXUX",
"UXUXUXUXUXUXUXUXUXUXUXUXUXUXUXUXUXUXkX|.I.S q f L 6.b..X&X=X2X2X3X<X,X*XL.H.t.=.d > < 4 x b A *.].jXUXUXUXUXUXUXUXUXUXUXUXUXUXUX",
"UXUXUXUXUXUXUXUXUXUXUXUXUXUXUXUXUXUXUXUXlX|.Y...b 3 2 9 p h D H L G l g w , : 1 3 x x C } P.}.fXGXUXUXUXUXUXUXUXUXUXUXUXUXUXUXUX",
"UXUXUXUXUXUXUXUXUXUXUXUXUXUXUXUXUXUXUXUXUXUXlXdX'.I.#.A C x x 4 3 4 4 x x x b b S ..P.W.|.jXGXUXUXUXUXUXUXUXUXUXUXUXUXUXUXUXUXUX",
"UXUXUXUXUXUXUXUXUXUXUXUXUXUXUXUXUXUXUXUXUXUXUXUXUXlXdX}.'.E.P.*.$.$.#.$.*.P.Y.W.}.dXjXGXUXUXUXUXUXUXUXUXUXUXUXUXUXUXUXUXUXUXUXUX",
"UXUXUXUXUXUXUXUXUXUXUXUXUXUXUXUXUXUXUXUXUXUXUXUXUXUXUXUXGXlXkXjXfXdXdXfXfXlXlXGXHXUXUXUXUXUXUXUXUXUXUXUXUXUXUXUXUXUXUXUXUXUXUXUX"
};
