/* XPM */
static char * icon_xpm[] = {
"64 64 255 2",
"  	c None",
". 	c #BA0000",
"+ 	c #B80000",
"@ 	c #BB0000",
"# 	c #BC0000",
"$ 	c #BD0000",
"% 	c #BE0000",
"& 	c #BF0000",
"* 	c #C00000",
"= 	c #C10000",
"- 	c #C20000",
"; 	c #C30000",
"> 	c #C50000",
", 	c #C40000",
"' 	c #C70000",
") 	c #C60000",
"! 	c #A70000",
"~ 	c #CA0000",
"{ 	c #C90000",
"] 	c #CB0000",
"^ 	c #CC0000",
"/ 	c #CF0000",
"( 	c #D40000",
"_ 	c #820000",
": 	c #D60000",
"< 	c #E80000",
"[ 	c #550000",
"} 	c #1E0000",
"| 	c #1A1A1A",
"1 	c #341313",
"2 	c #5B0000",
"3 	c #C80000",
"4 	c #CD0000",
"5 	c #A20000",
"6 	c #E20000",
"7 	c #1D0000",
"8 	c #424242",
"9 	c #9A9A9A",
"0 	c #D0D0D0",
"a 	c #CECECE",
"b 	c #939393",
"c 	c #532626",
"d 	c #A10000",
"e 	c #151515",
"f 	c #919191",
"g 	c #E7E7E7",
"h 	c #ECECEC",
"i 	c #7F7878",
"j 	c #D80000",
"k 	c #D20000",
"l 	c #A30000",
"m 	c #4E0404",
"n 	c #7F7F7F",
"o 	c #E6E6E6",
"p 	c #EAEAEA",
"q 	c #E9E9E9",
"r 	c #913535",
"s 	c #B70000",
"t 	c #E50000",
"u 	c #8E0000",
"v 	c #520000",
"w 	c #3B0000",
"x 	c #760000",
"y 	c #E10000",
"z 	c #A00505",
"A 	c #912D2D",
"B 	c #965B5B",
"C 	c #A53E3E",
"D 	c #B01111",
"E 	c #D50000",
"F 	c #B60000",
"G 	c #A50000",
"H 	c #610000",
"I 	c #171717",
"J 	c #707070",
"K 	c #ABABAB",
"L 	c #B6B6B6",
"M 	c #8C8C8C",
"N 	c #4C3131",
"O 	c #D90000",
"P 	c #B40000",
"Q 	c #210000",
"R 	c #6C6C6C",
"S 	c #E3E3E3",
"T 	c #EBEBEB",
"U 	c #9C9C9C",
"V 	c #A70707",
"W 	c #DB0000",
"X 	c #B20000",
"Y 	c #640000",
"Z 	c #997A7A",
"` 	c #D50101",
" .	c #DE0000",
"..	c #620000",
"+.	c #290000",
"@.	c #150B0B",
"#.	c #410505",
"$.	c #920606",
"%.	c #8A3939",
"&.	c #9C7F7F",
"*.	c #AB7070",
"=.	c #A73333",
"-.	c #CA0505",
";.	c #E00000",
">.	c #AF0000",
",.	c #A80000",
"'.	c #1A0000",
").	c #434343",
"!.	c #969696",
"~.	c #C4C4C4",
"{.	c #BABABA",
"].	c #7E7E7E",
"^.	c #651212",
"/.	c #AE0000",
"(.	c #212121",
"_.	c #735757",
":.	c #E30000",
"<.	c #AC0000",
"[.	c #DF0000",
"}.	c #3D1212",
"|.	c #E1E1E1",
"1.	c #932C2C",
"2.	c #A90000",
"3.	c #D10000",
"4.	c #910E0E",
"5.	c #924444",
"6.	c #A37373",
"7.	c #AA4A4A",
"8.	c #AC1616",
"9.	c #E70000",
"0.	c #E60000",
"a.	c #AA0000",
"b.	c #AB0000",
"c.	c #EF0000",
"d.	c #FF0000",
"e.	c #F50000",
"f.	c #F90000",
"g.	c #AD0000",
"h.	c #9F0000",
"i.	c #FD0000",
"j.	c #6B0000",
"k.	c #040000",
"l.	c #222222",
"m.	c #2D2D2D",
"n.	c #271919",
"o.	c #880000",
"p.	c #B10000",
"q.	c #720000",
"r.	c #141414",
"s.	c #5A5A5A",
"t.	c #8A8A8A",
"u.	c #848484",
"v.	c #4E4E4E",
"w.	c #9F0202",
"x.	c #530000",
"y.	c #180000",
"z.	c #070000",
"A.	c #585858",
"B.	c #ADADAD",
"C.	c #9F9F9F",
"D.	c #5C3232",
"E.	c #790000",
"F.	c #717171",
"G.	c #800707",
"H.	c #D8D8D8",
"I.	c #6E6B6B",
"J.	c #E40000",
"K.	c #460000",
"L.	c #727272",
"M.	c #833C3C",
"N.	c #232323",
"O.	c #8F8F8F",
"P.	c #EFEFEF",
"Q.	c #776A6A",
"R.	c #B00000",
"S.	c #ACACAC",
"T.	c #9B8181",
"U.	c #FA0000",
"V.	c #2E0D0D",
"W.	c #777777",
"X.	c #E8E8E8",
"Y.	c #C7C7C7",
"Z.	c #843A3A",
"`.	c #350000",
" +	c #B5B5B5",
".+	c #A46F6F",
"++	c #423C3C",
"@+	c #CBCBCB",
"#+	c #DFDFDF",
"$+	c #C3C3C3",
"%+	c #847272",
"&+	c #D70505",
"*+	c #680000",
"=+	c #898989",
"-+	c #993232",
";+	c #6A2323",
">+	c #665353",
",+	c #765A5A",
"'+	c #8B3434",
")+	c #DC0404",
"!+	c #492A2A",
"~+	c #989898",
"{+	c #8F7070",
"]+	c #B50404",
"^+	c #FC0000",
"/+	c #FE0000",
"(+	c #990404",
"_+	c #F60000",
":+	c #850000",
"<+	c #510000",
"[+	c #490000",
"}+	c #740000",
"|+	c #EB0000",
"1+	c #370000",
"2+	c #181818",
"3+	c #464646",
"4+	c #595959",
"5+	c #4C4C4C",
"6+	c #3A1C1C",
"7+	c #B30000",
"8+	c #202020",
"9+	c #6F6F6F",
"0+	c #C5C5C5",
"a+	c #B4B4B4",
"b+	c #562222",
"c+	c #190000",
"d+	c #B8B8B8",
"e+	c #6D6D6D",
"f+	c #CA0101",
"g+	c #B90000",
"h+	c #0C0B0B",
"i+	c #E2E2E2",
"j+	c #EDEDED",
"k+	c #B20707",
"l+	c #270707",
"m+	c #747474",
"n+	c #DEDEDE",
"o+	c #D50202",
"p+	c #7C0000",
"q+	c #515151",
"r+	c #C0C0C0",
"s+	c #863A3A",
"t+	c #600B0B",
"u+	c #616161",
"v+	c #B3B3B3",
"w+	c #A3A3A3",
"x+	c #814A4A",
"y+	c #E00303",
"z+	c #AD0202",
"A+	c #8A1616",
"B+	c #8C1F1F",
"C+	c #A81010",
"D+	c #F80000",
"E+	c #A60000",
"F+	c #8F0000",
"                                                                                                                                ",
"                                                                                                                                ",
"                                                                                                                                ",
"                                                                                                                                ",
"                                                                                                                                ",
"                                                                                                                                ",
"                                                                                                                                ",
"                                                                                                                                ",
"                                                                                                                                ",
"                                        . + @ # @ $ $ % & & * = - ; ; ; > , > ' ) ' ' ' ' ! ~ { { ] ^ / ( . _                   ",
"                                      : < < < < < < < < < < < < < < < < < < < < < < $ [ } | 1 2 3 < < < 4 @ 5                   ",
"                                    : < < < < < < < < < < < < < < < < < < < < < < 6 7 8 9 0 a b c < < / . 4 d                   ",
"                                  : < < < < < < < < < < < < < < < < < < < < < < < = e f g h h g i j k . 4 4 l                   ",
"                                : < < < < < < < < < < < < < < < < < < < < < < < < < m n o p q o r : s 4 4 4 l                   ",
"                              : < < < < < < < < < < < t u v 7 w x ' < < < < < < < < y z A B C D E F 4 4 4 4 G                   ",
"                            : < < < < < < < < < < < < H I J K L M N k < < < < < < < < < < < < O P 4 4 4 4 4 G                   ",
"                          : < < < < < < < < < < < < < Q R S p T g U V < < < < < < < < < < < W X 4 4 4 4 4 4 G                   ",
"                        E < < < y < < < < < < < < < < Y R S p T g Z ` < < < < < < < < < <  .X 4 4 4 4 4 4 4 !                   ",
"                      E < $ ..+.@.#.x  .< < < < < < < t $.%.&.*.=.-.< < < < < < < < < < ;.>.4 4 4 4 4 4 4 4 ,.                  ",
"                    E < : '.).!.~.{.].^.< < < < < < < < < < < < < < < < < < < < < < < y /.4 4 4 4 4 4 4 4 4 ,.                  ",
"                  ( < < ,.(.U g h T o _.< < < < < < < < < < < < < < < < < < < < < < :.<.4 4 4 4 4 4 4 4 4 4 ,.                  ",
"                ( < < < [.}.b g p p |.1.< < < < < < < < < < < < < < < < < < < < < t 2.4 4 4 4 4 4 4 4 4 4 4 2.                  ",
"              ( < < < < < 3.4.5.6.7.8.9.< < < < < < < < < < < < < < < < < < < < 0.,.4 4 4 4 4 4 4 4 4 4 4 4 a.                  ",
"            * O O O O O O O O O O O O O O O O O O O O O O O O O O O O O O O O O l 4 4 4 4 4 4 4 4 4 4 4 4 4 b.                  ",
"          l c.c.c.c.c.c.c.c.c.c.c.c.c.c.c.c.c.c.c.c.c.c.c.c.c.c.c.c.c.c.c.c.c.6 & 4 4 4 4 4 4 4 4 4 4 4 4 4 b.                  ",
"          /.d.d.d.d.d.d.d.d.d.d.d.d.d.d.d.d.d.d.d.d.d.d.d.d.d.d.d.d.d.d.d.d.d.e.@ 4 4 4 4 4 4 4 4 4 4 4 4 4 <.                  ",
"          /.d.d.d.d.d.d.d.d.d.d.d.d.d.d.d.d.d.d.d.d.d.d.d.d.d.d.d.d.d.d.d.d.d.f.+ 4 4 4 4 4 4 4 4 4 4 4 4 4 g.                  ",
"          /.d.d.d.d.d.E h.! ;.d.d.d.d.d.d.d.d.d.d.d.d.d.E h.! ;.d.d.d.d.d.d.d.i.P 4 4 4 4 4 4 4 4 4 4 4 4 4 g.                  ",
"          /.d.d.d.e.j.k.l.m.n.o.d.d.d.d.d.d.d.d.d.d.e.j.k.l.m.n.o.d.d.d.d.d.d.d.p.4 4 4 4 4 4 4 4 4 4 4 4 4 /.                  ",
"          /.d.d.d.q.r.s.t.9 u.v.w.d.d.d.d.d.d.d.d.d.q.r.s.t.9 u.v.w.d.d.d.d.d.d.p.4 4 4 4 4 3 x.y.x.3 4 4 4 /.                  ",
"          /.d.d.< z.A.B.o g o C.D.d.d.d.d.d.d.d.d.< z.A.B.o g o C.D.d.d.d.d.d.d.p.4 4 4 4 4 E.| F.J G.4 4 4 /.                  ",
"          /.d.d.p.| u.o p h q H.I.J.d.d.d.d.d.d.d.p.| u.o p h q H.I.J.d.d.d.d.d.p.4 4 4 4 4 K.L.o o M.4 4 4 >.                  ",
"          /.d.d.= N.O.o T P.p o Q.e.d.d.d.d.d.d.d.= N.O.o T P.p o Q.e.d.d.d.d.d.R.4 4 4 4 4 y.S.p p T.4 4 4 >.                  ",
"          /.d.d.U.V.W.H.X.p X.Y.Z.d.d.d.d.d.d.d.d.U.V.W.H.X.p X.Y.Z.d.d.d.d.d.d.R.4 4 4 4 4 `. +T T .+4 4 4 >.                  ",
"          /.d.d.d.,.++f @+#+$+%+&+d.d.d.d.d.d.d.d.d.,.++f @+#+$+%+&+d.d.d.d.d.d.>.4 4 4 4 4 *+=+g g -+4 4 4 R.                  ",
"          /.d.d.d.d.* ;+>+,+'+)+d.d.d.d.d.d.d.d.d.d.d.* ;+>+,+'+)+d.d.d.d.d.d.d.>.4 4 4 4 4 p.!+~+{+]+4 4 4 R.                  ",
"          /.d.d.d.d.d.d.^+/+d.d.d.d.d.d.d.d.d.d.d.d.d.d.d.^+/+d.d.d.d.d.d.d.d.d.>.4 4 4 4 4 4 = (+= 4 4 4 4 X                   ",
"          /.d.d.d.d.d.d.d.d.d.d.d.d._+:+<+[+}+:.d.d.d.d.d.d.d.d.d.d.d.d.d.d.d.d.g.4 4 4 4 4 4 4 4 4 4 4 4 4 X                   ",
"          /.d.d.d.d.d.d.d.d.d.d.d.|+1+2+3+4+5+6+{ d.d.d.d.d.d.d.d.d.d.d.d.d.d.d./.4 4 4 4 4 4 4 4 4 4 4 4 4 7+                  ",
"          /.d.d.d.d.d.d.d.d.d.d.d.Y 8+9+K 0+a+n b+^+d.d.d.d.d.d.d.d.d.d.d.d.d.d.<.4 4 4 4 4 4 4 4 4 4 4 4 4 F                   ",
"          /.d.d.d.d.d.d.d.d.d.d./+c+4+d+g q X.@+e+f+d.d.d.d.d.d.d.d.d.d.d.d.d.d.g.4 4 4 4 4 4 4 4 4 4 4 4 4 g+                  ",
"          /.d.d.d.d.d.d.d.d.d.d.0.h+W.i+p j+T o O.k+d.d.d.d.d.d.d.d.d.d.d.d.d.d.<.4 4 4 4 4 4 4 4 4 4 4 4 4 @                   ",
"          /.d.d.d.d.d.d.d.d.d.d.d.l+m+n+p j+p o =+o+d.d.d.d.d.d.d.d.d.d.d.d.d.d.<.4 4 4 4 4 4 4 4 4 4 4 4 4 %                   ",
"          /.d.d.d.d.d.d.d.d.d.d.d.p+q+B.o X.g r+s+d.d.d.d.d.d.d.d.d.d.d.d.d.d.d.a.4 4 4 4 4 4 4 4 4 4 4 4 4 >.                  ",
"          /.d.d.d.d.d.d.d.d.d.d.d.f.t+u+9 v+w+x+y+d.d.d.d.d.d.d.d.d.d.d.d.d.d.d.b.4 4 4 4 4 4 4 4 4 4 4 4 F                     ",
"          /.d.d.d.d.E h.! ;.d.d.d.d.d.z+A+B+C+D+d.d.d.d.E h.! ;.d.d.d.d.d.d.d.d.a.4 4 4 4 4 4 4 4 4 4 4 .                       ",
"          /.d.d.e.j.k.l.m.n.o.d.d.d.d.d.d.d.d.d.d.d.e.j.k.l.m.n.o.d.d.d.d.d.d.d.b.4 4 4 4 4 4 4 4 4 4 %                         ",
"          /.d.d.q.r.s.t.9 u.v.w.d.d.d.d.d.d.d.d.d.d.q.r.s.t.9 u.v.w.d.d.d.d.d.d.2.4 4 4 4 4 4 4 4 4 =                           ",
"          /.d.< z.A.B.o g o C.D.d.d.d.d.d.d.d.d.d.< z.A.B.o g o C.D.d.d.d.d.d.d.,.4 4 4 4 4 4 4 4 ,                             ",
"          /.d.p.| u.o p h q H.I.J.d.d.d.d.d.d.d.d.p.| u.o p h q H.I.J.d.d.d.d.d.,.4 4 4 4 4 4 4 '                               ",
"          /.d.= N.O.o T P.p o Q.e.d.d.d.d.d.d.d.d.= N.O.o T P.p o Q.e.d.d.d.d.d.,.4 4 4 4 4 4 ~                                 ",
"          /.d.U.V.W.H.X.p X.Y.Z.d.d.d.d.d.d.d.d.d.U.V.W.H.X.p X.Y.Z.d.d.d.d.d.d.,.4 4 4 4 4 ]                                   ",
"          /.d.d.,.++f @+#+$+%+&+d.d.d.d.d.d.d.d.d.d.,.++f @+#+$+%+&+d.d.d.d.d.d.E+4 4 4 4 4 5                                   ",
"          /.d.d.d.* ;+>+,+'+)+d.d.d.d.d.d.d.d.d.d.d.d.* ;+>+,+'+)+d.d.d.d.d.d.d.E+4 4 4 4 !                                     ",
"          /.d.d.d.d.d.^+/+d.d.d.d.d.d.d.d.d.d.d.d.d.d.d.d.^+/+d.d.d.d.d.d.d.d.d.G 4 4 4 >.                                      ",
"          /.d.d.d.d.d.d.d.d.d.d.d.d.d.d.d.d.d.d.d.d.d.d.d.d.d.d.d.d.d.d.d.d.d.d.G 4 4 7+                                        ",
"          /.d.d.d.d.d.d.d.d.d.d.d.d.d.d.d.d.d.d.d.d.d.d.d.d.d.d.d.d.d.d.d.d.d.d.G 4 .                                           ",
"          /.d.d.d.d.d.d.d.d.d.d.d.d.d.d.d.d.d.d.d.d.d.d.d.d.d.d.d.d.d.d.d.d.d.d.G $                                             ",
"          F+] ] ] ] ] ] ] ] ] ] ] ] ] ] ] ] ] ] ] ] ] ] ] ] ] ] ] ] ] ] ] ] ] ] :+                                              ",
"                                                                                                                                ",
"                                                                                                                                ",
"                                                                                                                                ",
"                                                                                                                                ",
"                                                                                                                                "};
