/* XPM */
static char * icon32_xpm[] = {
"32 32 148 2",
"  	c None",
". 	c #B90000",
"+ 	c #BC0000",
"@ 	c #BE0000",
"# 	c #BF0000",
"$ 	c #C00000",
"% 	c #C20000",
"& 	c #C30000",
"* 	c #C40000",
"= 	c #C60000",
"- 	c #C70000",
"; 	c #B70000",
"> 	c #CA0000",
", 	c #CE0000",
"' 	c #DC0000",
") 	c #E80000",
"! 	c #E60000",
"~ 	c #5C1010",
"{ 	c #686161",
"] 	c #7C5D5D",
"^ 	c #BB0A0A",
"/ 	c #E20000",
"( 	c #A20000",
"_ 	c #DE0000",
": 	c #5D4A4A",
"< 	c #E9E9E9",
"[ 	c #E8E8E8",
"} 	c #B02B2B",
"| 	c #CD0000",
"1 	c #A30000",
"2 	c #5A2222",
"3 	c #6E5858",
"4 	c #852F2F",
"5 	c #D40101",
"6 	c #BE2222",
"7 	c #C61414",
"8 	c #A50000",
"9 	c #950000",
"0 	c #A8A8A8",
"a 	c #EAEAEA",
"b 	c #C1B9B9",
"c 	c #D30202",
"d 	c #A60000",
"e 	c #DB0000",
"f 	c #593636",
"g 	c #756464",
"h 	c #8E2424",
"i 	c #E70000",
"j 	c #BB1010",
"k 	c #C63C3C",
"l 	c #D00E0E",
"m 	c #A80000",
"n 	c #790D0D",
"o 	c #BFBFBF",
"p 	c #EBEBEB",
"q 	c #B39292",
"r 	c #C10000",
"s 	c #CF0000",
"t 	c #E00000",
"u 	c #B51414",
"v 	c #C02F2F",
"w 	c #D10606",
"x 	c #AA0000",
"y 	c #F70000",
"z 	c #F10000",
"A 	c #C50000",
"B 	c #AC0000",
"C 	c #AE0000",
"D 	c #FF0000",
"E 	c #F40000",
"F 	c #D10000",
"G 	c #E10000",
"H 	c #FD0000",
"I 	c #AD0000",
"J 	c #D90000",
"K 	c #371C1C",
"L 	c #5D5D5D",
"M 	c #603B3B",
"N 	c #7A0505",
"O 	c #424242",
"P 	c #5C5959",
"Q 	c #9D1414",
"R 	c #810000",
"S 	c #CC0000",
"T 	c #6E0606",
"U 	c #9C9C9C",
"V 	c #D2D2D2",
"W 	c #AB2727",
"X 	c #3F3E3E",
"Y 	c #D9D9D9",
"Z 	c #908585",
"` 	c #F80000",
" .	c #532323",
"..	c #ABABAB",
"+.	c #A71111",
"@.	c #830C0C",
"#.	c #B1B1B1",
"$.	c #E0E0E0",
"%.	c #BC2929",
"&.	c #EE0000",
"*.	c #564E4E",
"=.	c #E4E4E4",
"-.	c #AA9494",
";.	c #FC0000",
">.	c #6C5858",
",.	c #B63C3C",
"'.	c #AF0000",
").	c #E90000",
"!.	c #7F3C3C",
"~.	c #A29696",
"{.	c #AC5B5B",
"].	c #F50101",
"^.	c #AA0F0F",
"/.	c #8B7474",
"(.	c #A98C8C",
"_.	c #CE1F1F",
":.	c #7B2D2D",
"<.	c #BDB6B6",
"[.	c #BA0E0E",
"}.	c #B00000",
"|.	c #FE0000",
"1.	c #D50000",
"2.	c #BD0101",
"3.	c #B20000",
"4.	c #D30000",
"5.	c #382A2A",
"6.	c #848484",
"7.	c #6E6767",
"8.	c #C60808",
"9.	c #BD0000",
"0.	c #B40000",
"a.	c #820303",
"b.	c #9A9A9A",
"c.	c #E1E1E1",
"d.	c #9E4141",
"e.	c #BA0000",
"f.	c #A80202",
"g.	c #949494",
"h.	c #DEDEDE",
"i.	c #B93131",
"j.	c #B60000",
"k.	c #9B1C1C",
"l.	c #996060",
"m.	c #B13F3F",
"n.	c #F70101",
"o.	c #C80000",
"p.	c #CB0000",
"q.	c #B50000",
"                                                                ",
"                                                                ",
"                                                                ",
"                                                                ",
"                    . + + @ # $ % & * = = - ; > > , -           ",
"                  ' ) ) ) ) ) ) ) ) ) ) ! ~ { ] ^ / * (         ",
"                ' ) ) ) ) ) ) ) ) ) ) ) _ : < [ } * | 1         ",
"              ' ) ) ) ) ) = 2 3 4 / ) ) ) 5 6 7 & | | 8         ",
"            ' ) ! ) ) ) ) 9 0 a b c ) ) ) ) ! & | | | d         ",
"          e 8 f g h ) ) ) i j k l ) ) ) ) ! % | | | | m         ",
"        e ) n o p q ) ) ) ) ) ) ) ) ) ) i r | | | | | m         ",
"      s t t e u v w t t t t t t t t t t $ | | | | | | x         ",
"    m y y y y y y y y y y y y y y y y z A | | | | | | B         ",
"    C D D E F y D D D D D D ' G D D D H % | | | | | | I         ",
"    C D J K L M i D D D D N O P Q D D D # | | I R S | C         ",
"    C D T U < V W D D D ! X Y [ Z ` D D # | |  ...+.| C         ",
"    C D @.#.p $.%.D D D &.*.=.p -.;.D D @ | | >.a ,.| '.        ",
"    C D ).!.~.{.].D D D D ^./.(._.D D D @ | | :.<.[.| }.        ",
"    C D D D |.D D _ d 1.D D |.D D D D D @ | | > 2.| | 3.        ",
"    C D D D D D 4.5.6.7.8.D D D D D D D 9.| | | | | | 0.        ",
"    C D D D D D a.b.a c.d.D D D D D D D 9.| | | | | | e.        ",
"    C D D D D D f.g.< h.i.D D D D D D D + | | | | | | j.        ",
"    C D D ' G D |.k.l.m.n.D ' G D D D D + | | | | | #           ",
"    C D N O P Q D D D D D N O P Q D D D + | | | | *             ",
"    C ! X Y [ Z ` D D D ! X Y [ Z ` D D e.| | | o.              ",
"    C &.*.=.p -.;.D D D &.*.=.p -.;.D D e.| | p.                ",
"    C D ^./.(._.D D D D D ^./.(._.D D D e.| *                   ",
"    C D D |.D D D D D D D D |.D D D D D . =                     ",
"    C D D D D D D D D D D D D D D D D D q.                      ",
"      p.p.p.p.p.p.p.p.p.p.p.p.p.p.p.p.p.                        ",
"                                                                ",
"                                                                "};
