/* XPM */
static char *theme3_3_xpm[] = {
/* columns rows colors chars-per-pixel */
"64 64 61 1",
"  c gray8",
". c #1A1A1A",
"X c #232323",
"o c #282827",
"O c #2C2C2C",
"+ c #343434",
"@ c #3B3B3B",
"# c #434343",
"$ c #4A4A47",
"% c #4D4D4C",
"& c #504F4D",
"* c #51514E",
"= c #555554",
"- c #585857",
"; c #5B5B5B",
": c #60605F",
"> c #646464",
", c #6C6C6C",
"< c #747373",
"1 c #797974",
"2 c #7B7B7B",
"3 c #80807C",
"4 c #888786",
"5 c #8A8987",
"6 c #8C8C8B",
"7 c #949494",
"8 c #999999",
"9 c #A1A09B",
"0 c #A3A3A1",
"q c #ACACAC",
"w c #B1B0A8",
"e c #B6B5B2",
"r c #B8B6B0",
"t c #BEBCB3",
"y c #C1BFB6",
"u c #C1C0B7",
"i c #C5C3BB",
"p c #C8C6BE",
"a c #C5C5C4",
"s c #C9C7C0",
"d c #CCCBC4",
"f c #CCCBC8",
"g c #D0CFC9",
"h c #D4D2CC",
"j c #D7D6D1",
"k c #D8D7D2",
"l c #DBDAD5",
"z c #DEDDD9",
"x c #E0DFDB",
"c c #E2E1DD",
"v c #E5E5E2",
"b c #E8E7E4",
"n c #E9E9E6",
"m c #EDEDEB",
"M c #F0EFED",
"N c #F1F0EE",
"B c #F4F4F3",
"V c #F8F7F6",
"C c #F8F8F7",
"Z c #FBFBFB",
"A c None",
/* pixels */
"AAAAAAAAAAAAAAAAAAAAAAAAAAAAAAAAAAAAAAAAAAAAAAAAAAAAAAAAAAAAAAAA",
"AAAA......................................................AAAAAA",
"AA...@><<<<<<<<<<<<<<<<<<<<<<<<<<<<<<<<<<<<<<<<<<<<<<<<;O..AAAAA",
"AA.X8ZZZZZZZZZZZZZZZZZZZZZZZZZZZZZZZZZZZCCCCCCCCCCCVVVVVm<..AAAA",
"A..qZZZZZZZZZZZZZZZZZZZZZZZZZZZZZZCCCCCVVVVBBBBBBBBBBNNBVV,..AAA",
"A.;ZZZZZZZZZZZZZZZZZZZZZCCCCCVVBBBBBBBBNNmmmmmnnnnbvvvccnVmO.AAA",
"..qZZZZZZZZZZZZZZZZZZZZCCCCCVVBBBBBBBBNNMmmmmmnnnbbvvccccNB,.AAA",
"..aZZZZZZZZZZZZZZZZZZZCCCCCVVVBBBBBBBNNMmmnvxzzzxcvvvccccmB5..AA",
"..fZZZZZZZZZZZZZZZZZZCCCCCVVVBBBBBBBNNMmmczzzzzzzzzcccccxnB6. AA",
"..fZZZZZZZZZZZZZZZZZZCCCCVVVBBBBBBBBNNmmccd5=OO=5dcccccxznB6. AA",
"..fZZZZZZZZZZZZZZZZZCCCCCVVBBBBBBBBNNMmvce-......-eccvxzznB6. AA",
"..fZZZZZZZZZZZZZZZZCCCCCVVVBBBBBBBNNMmmvf-........-fvvczznB6. AA",
"..fZZZZZZZZZZZZZZZCCCCCVVVBBBBBBBBNNmmnb6...XXXXX..6bbczznB6. AA",
"..fZZZZZZZZZZZZZZCCCCCVVVVBBBBBBBNNmmmnn=..oOOOOOoX=nnbzlbB6. AA",
"..fZZZZZZZZZZZZZCCCCCVVVVBBBBBBBNNNmmmmmO.O+@@@@@+O+mmmllbB6. AA",
"..fZZZZZZZZZZZZCCCCCVVVVBBBBBBBNNNMmmmmmO.+#$%%%$#@@mmmllbB6. AA",
"..fZZZZZZZZZZZCCCCCVVVVBBBBBBBNNNMmmmmMN-.+%=;;;=%#>NNmllbB6. AA",
"..fZZZZZZZZZZCCCCCVVVVBBBBBBBNNNMmmmmmmB7.O;>,,,>;%8BBblkvB6. AA",
"..fZZZZZZZZZCCCCCVVVVBBBBBBBBNNMmmmmmnmVz;.#<222<><zVVckkvB6. AA",
"..fZZZZZZZZCCCCCVVVVBBBBBBBBNNNmmmmmnnnBCa;.@>22;<aCCNlkjvB6. AA",
"..fZZZZZZZCCCCCVVVVBBBBBBBBNNNmmmmmnnnnbVZv8-OO-8vZZBlkjjvB6. AA",
"..fZZZZZCCCCCCVVVVBBBBBBBBNNNmmmmmnnnnbbvBZZZZZZZZZBlkkjhcB6. AA",
"..fZZZZCCCCCCVVVVBBBBBBBBNNNMmmmmmnnnbbvvvnBZZZZCNclkkjhhcB6. AA",
"..fZZZCCCCCCVVVVBBBBBBBBNNmbczzcvbnnbbvvvccccxzzzlllkkjhhcB6. AA",
"..aZZCCCCCCVVVVBBBBBBBBNNvzzzzzzzzcnbbvvvcccxzzzlllkkjhhhcB6. AA",
"..aZZCCCCVVVVVBBBBBBBBNNccd5=OO=5dccbvvvcccczzzzllkkjhhhhcB6. AA",
"..aZCCCCVVVVBBBBBBBBBNNvce-......-eccvvcccczzzzllkkjhhhhhcB6. AA",
"..aZCCCVVVBBBBBBBBBBNNmvf-........-fvvccccxzzzllkkkhhhhhhcB6. AA",
"..aZCCVVVBBBBBBBBBBNNNmb6...XXXXX..6bvcccxzzzlllkkjhhhhhgcN6. AA",
"..aZCVVVBBBBBBBBBNNNNmnn=.XoOOOOOo.=nbccxzzzlllkkjhhhhhgfxN6. AA",
"..aZCVBBBBBBBBBBNNNNmmmmOXO+@@@@@+OOmncxzzzlllkkjjhhhhgffxN6. AA",
"..aZCBBBBBBBBBBNNNMmmmmmOO@#$%%%$#+OmmxzzzzllkkjjhhhhggfdzN6. AA",
"..aZVBBBBBBBBBNNNMmmmmNN-O#%=;;;=%+-NmzzzzlllkjjhhhhggfddzN6. AA",
"..aZVBBBBBBBBNNNMmmmmmMB7o%;>,,,>;O7BnzzzlllkjjhhhhhgfdddzN6. AA",
"..aZVBBBBBBNNNNMmmmmmnmVz;@><222<#;zVczzlllkjjhhhhhgfddddzN6. AA",
"..aZBBBBBBNNNmmmmmmmnnnBCa:@;22>@:aCNzzlllkkjhhhhhgfddddszN6. AA",
"..aZBBBBNNNMmmmmmmmnnnnbVZv8-OO-8vZBzzlllkkjhhhhhhffdddsslN6. AA",
"..aZBBBNNNMmmmmmmmnnnnbbbBZZZZZZZZBzzlllkkjhhhhhhffdddssplN6. AA",
"..aZBBNNMmmmmmmmmnnnnbbvvvnNVZZBmvzzlllkkjhhhhhhffdddsssplM6. AA",
"..aZBNNMmmvjduudhcnnbbvvvvccccxzzzzlllkkjhhhhhhffddddsspplM6. AA",
"..aCBNMmmdyyyyyyyydbbvvvvccccxzzzzlllkkjhhhhhhffddddssppilM6. AA",
"..aCBmmmdiw1$oo$1widvvvcccccxzzzzlllkkjhhhhhhgfddddssspiilm6. AA",
"..aCBmmhp9&......&9pgvcccccxzzzzlllkkjhhhhhhgfddddssspiiikm6. AA",
"..aCNmvdr*........*rdzcccczzzzllllkkjhhhhhhgfddddssspiiiikm6. AA",
"..aCNmzg3..XXXXX...3gkccxzzzzllllkjjhhhhhhgfddddssspiiiiukm5. AA",
"..aCNmlh%.oOOOOOoX.%hkxxzzzzlllkkjjhhhhhhgfddddsssppiiiuukm5. AA",
"..aCMnlloO+@@@@@+OXollxzzzzlllkkjjhhhhhhffddddsssppiiiuuujm5. AA",
"..aCmnxzO+#$%%%$#@OOzzzzzzlllkkjjhhhhhhffddddsssppiiiuuuyjm5. AA",
"..aCmnvc=+%=;;;=%#O=cczzlllkkkjjhhhhhhffddddsssppiiiuuuytjm5. AA",
"..aCmnbn6O;>,,,>;%o6nczlllkkkjjhhhhhhffddddsssppiiiuuuyttjm5. AA",
"..aCmbbmj;#<222<>@;jmxlllkkkjhhhhhhgffddddsssppiiiuuuyttthm5. AA",
"..aVnvvmBa;@>22;@;aBmlllkkjhhhhhhhgffddddsssppiiiuuuytttthm5. AA",
"..aVnvvvBVz7-OO-7zVNllkkkjhhhhhhggfdddddssspiiiiuuuyttttthm5. AA",
"..aVnvcccBCCCCCCCCNllkkkjhhhhhhggfddddsssspiiiiuuuytttttthm5. AA",
"..aVncccccvmBZZBmcllkkjjhhhhhhggfddddsssppiiiiuuuyttttttrhm4. AA",
"..qVnccccxzzzzllllkkjjhhhhhhhgffddddsssppiiiiuuuyttttttrrlm<. AA",
"A.<VNcccxzzzzllllkkjjhhhhhhhgffddddsspppiiiiuuuyttttttrrumm@.AAA",
"A..kVNnvccccccxxzzzzlllllkkjjjhhhhhhgggfdddddssssspppiihmm9..AAA",
"A..+aBBBBBBBBBBBBBBBBBBBBBBBNNNNNNNNNNMMMmmmmmmmmmmmmmmmm0X. AAA",
"AA...<qffffffffffaaaaaaaaaaaaaaaaaaaaaaaaaaaaaaaaaaaaaa8=.. AAAA",
"AAA....................................................... AAAAA",
"AAAAAA.................................................  AAAAAAA",
"AAAAAAAAAAAAAAAAAAAAAAAAAAAAAAAAAAAAAAAAAAAAAAAAAAAAAAAAAAAAAAAA",
"AAAAAAAAAAAAAAAAAAAAAAAAAAAAAAAAAAAAAAAAAAAAAAAAAAAAAAAAAAAAAAAA"
};
