/* XPM */
static char *one_xpm[] = {
/* columns rows colors chars-per-pixel */
"64 64 53 1",
"  c gray8",
". c #1A1A1A",
"X c #232323",
"o c #2C2C2C",
"O c #343434",
"+ c #3B3B3B",
"@ c #434343",
"# c #4C4C4C",
"$ c #555554",
"% c #585857",
"& c #5B5B5B",
"* c #60605F",
"= c #646464",
"- c #6C6C6C",
"; c #747474",
": c #7B7B7B",
"> c #888786",
", c #8A8987",
"< c #8C8C8B",
"1 c #949493",
"2 c #999999",
"3 c #A0A09F",
"4 c #A3A3A1",
"5 c #ACACAC",
"6 c #B6B5B2",
"7 c #BEBCB3",
"8 c #C1BFB6",
"9 c #C1C0B7",
"0 c #C5C3BB",
"q c #C8C6BE",
"w c #C5C5C4",
"e c #C9C7C0",
"r c #CCCBC4",
"t c #CCCBC8",
"y c #D0CFC9",
"u c #D4D2CC",
"i c #D7D6D0",
"p c #D8D7D2",
"a c #DBDAD5",
"s c #DEDDD9",
"d c #E0DFDB",
"f c #E2E1DD",
"g c #E6E5E2",
"h c #E8E7E4",
"j c #E9E9E6",
"k c #EDEDEA",
"l c #F0EFED",
"z c #F1F0EE",
"x c #F4F4F3",
"c c #F8F7F6",
"v c #F8F8F7",
"b c #FCFBFB",
"n c None",
/* pixels */
"nnnnnnnnnnnnnnnnnnnnnnnnnnnnnnnnnnnnnnnnnnnnnnnnnnnnnnnnnnnnnnnn",
"nnnn......................................................nnnnnn",
"nn...+=;;;;;;;;;;;;;;;;;;;;;;;;;;;;;;;;;;;;;;;;;;;;;;;;&o..nnnnn",
"nn.X2bbbbbbbbbbbbbbbbbbbbbbbbbbbbbbbbbbbvvvvvvvvvvvccccck;..nnnn",
"n..5bbbbbbbbbbbbbbbbbbbbbbbbbbbbbbvvvvvccccxxxxxxxxxxzzxcc-..nnn",
"n.&bbbbbbbbbbbbbbbbbbbbbvvvvvccxxxxxxxxzzkkkkkjjjjhgggffjcko.nnn",
"..5bbbbbbbbbbbbbbbbbbbbvvvvvccxxxxxxxxzzlkkkkkjjjhhggffffzx-.nnn",
"..wbbbbbbbbbbbbbbbbbbbvvvvvcccxxxxxxxzzlkkkkkjjjhhgggffffkx,..nn",
"..tbbbbbbbbbbbbbbbbbbvvvvvcccxxxxxxxzzlkkkkkjjjhhgggffffdjx<. nn",
"..tbbbbbbbbbbbbbbbbbbvvvvcccxxxxxxxxzzkkkkkjjjjhhgggfffdsjx<. nn",
"..tbbbbbbbbbbbbbbbbbvvvvvccxxxxxxxxzzlkkkkkjjjhhgggfffdssjx<. nn",
"..tbbbbbbbbbbbbbbbbvvvvvcccxxxxxxxzzlkkkkkjjjhhgggffffsssjx<. nn",
"..tbbbbbbbbbbbbbbbvvvvvcccxxxxxxxxzzkkkkkjjjjhhgggfffdsssjx<. nn",
"..tbbbbbbbbbbbbbbvvvvvccccxxxxxxxzzkkkkkjjjjhhgggfffdsssahx<. nn",
"..tbbbbbbbbbbbbbvvvvvccccxxxxxxxzzzkkkkkjjjhhgggffffsssaahx<. nn",
"..tbbbbbbbbbbbbvvvvvccccxxxxxxxzzzlkkkkjjjhhggggfffssssaahx<. nn",
"..tbbbbbbbbbbbvvvvvccccxxxxxxxzzzlkkkkkjjjhhgggfffdsssaaahx<. nn",
"..tbbbbbbbbbbvvvvvccccxxxxxxxzzzlkkkkkjjjhhgggfffddssaaapgx<. nn",
"..tbbbbbbbbbvvvvvccccxxxxxxxxzzlkkkkkjjjhhgggffffdssaaappgx<. nn",
"..tbbbbbbbbvvvvvccccxxxxxxxxzzzkkkkkjjjjhhgggfffdsssaaapigx<. nn",
"..tbbbbbbbvvvvvccccxxxxxxxxzzzkkkkkjjjjhhgggfffdsssaaapiigx<. nn",
"..tbbbbbvvvvvvccccxxxxxxxxzzzkkkkkjjjjhhgggfffdsssaaappiufx<. nn",
"..tbbbbvvvvvvccccxxxxxxxxzzkhfssfghjjhhgggfffddssaaappiuufx<. nn",
"..tbbbvvvvvvccccxxxxxxxxzzgssssssssfhhgggffffdsssaaappiuufx<. nn",
"..wbbvvvvvvccccxxxxxxxxzzffr,$oo$,rffhgggfffdsssaaappiuuufx<. nn",
"..wbbvvvvcccccxxxxxxxxzzgf6%......%6ffggffffsssaaappiuuuufx<. nn",
"..wbvvvvccccxxxxxxxxxzzkgt%........%tggffffssssaappiuuuuufx<. nn",
"..wbvvvcccxxxxxxxxxxzzzkh<...XXXXX..<hgfffdsssaapppuuuuuufx<. nn",
"..wbvvcccxxxxxxxxxxzzzljj$.XXoooooX.$jhffdsssaapppiuuuuuyfz<. nn",
"..wbvcccxxxxxxxxxzzzzkkkkoXoO+++++Oookjfdsssaaappiuuuuuytdz<. nn",
"..wbvcxxxxxxxxxxzzzzkkkkkoo+@@###@@Ookkdsssaaappiiuuuuyttdz<. nn",
"..wbvxxxxxxxxxxzzzlkkkkzz%o@#$&&&$#O%zksssaaappiiuuuuyytrsz<. nn",
"..wbcxxxxxxxxxzzzlkkkkklx1X#&=---=&o1xjssaaappiiuuuuyytrrsz<. nn",
"..wbcxxxxxxxxzzzlkkkkkkkcs&+=;:::;@&scfsaaappiiuuuuuytrrrsz<. nn",
"..wbcxxxxxxzzzzlkkkkkjjjxvw*+&::=+*wvzsaaappiiuuuuuytrrrrsz<. nn",
"..wbxxxxxxzzzkkkkkkkjjjjjcbg2%oo%2gbxsaaapppiuuuuuytrrrreaz<. nn",
"..wbxxxxzzzlkkkkkkkjjjjhhhxbbbbbbbbxsaaapppiuuuuuuttrrreeaz<. nn",
"..wbxxxzzzlkkkkkkkjjjjhhhggjzcbbxkgsaaaappiuuuuuuttrrreeqaz<. nn",
"..wbxxzzlkkkkkkkkjjjjhhggggffffdsssaaaappiuuuuuuttrrreeeqal<. nn",
"..wbxzzlkkkkkkkjjjjjhhggggffffdsssaaaappiuuuuuuttrrrreeqqal<. nn",
"..wvxzlkkkkkkjjjjjhhhggggffffdsssaaapppiuuuuuuttrrrreeqq0al<. nn",
"..wvxkkkkkkkjjjjjhhhgggfffffdsssaaapppiuuuuuuytrrrreeeq00ak<. nn",
"..wvxkkkkkkjjjjhhhggggfffffdsssaaapppiuuuuuuytrrrreeeq000pk<. nn",
"..wvzkkkkjjjjjhhhggggfffffssssaaapppiuuuuuuytrrrreeeq0000pk<. nn",
"..wvzkkkjjjjjhhgggggffffdssssaaappiiuuuuuuytrrrreeeq00009pk<. nn",
"..wvzkkjjjjhhhggggffffddssssaaappiiuuuuuuytrrrreeeqq00099pk<. nn",
"..wvljjjjjhhhggggffffddssssaaappiiuuuuuuttrrrreeeqq000999ik<. nn",
"..wvkjjjhhhgggggffffdssssaaapppiiuuuuuuttrrrreeeqq0009998ik,. nn",
"..wvkjjhhhggggfffffdssssaaapppiiuuuuuuttrrrreeeqq00099987ik,. nn",
"..wvkjhhgggggffffddsssaaaapppiiuuuuuuttrrrreeeqq000999877ik,. nn",
"..wvkhhggggfffffddsssaaaapppiuuuuuuyttrrrreeeqq0009998777uk,. nn",
"..wcjgggggfffffsssssaaaappiuuuuuuuyttrrrreeeqq00099987777uk,. nn",
"..wcjgggfffffdssssaaaapppiuuuuuuyytrrrrreeeq0000999877777uk,. nn",
"..wcjgffffffdssssaaaapppiuuuuuuyytrrrreeeeq00009998777777uk,. nn",
"..wcjfffffdsssssaaaappiiuuuuuuyytrrrreeeqq000099987777777uk>. nn",
"..5cjffffdssssaaaappiiuuuuuuuyttrrrreeeqq0000999877777777ak;. nn",
"n.;czfffdssssaaaappiiuuuuuuuyttrrrreeqqq00009998777777779kk+.nnn",
"n..pczjgffffffddssssaaaapppiiiuuuuuuyyytrrrrreeeeeqqq00ukk3..nnn",
"n..Owxxxxxxxxxxxxxxxxxxxxxxxzzzzzzzzzzlllkkkkkkkkkkkkkkkk4X. nnn",
"nn...;5ttttttttttwwwwwwwwwwwwwwwwwwwwwwwwwwwwwwwwwwwwww2$.. nnnn",
"nnn....................................................... nnnnn",
"nnnnnn.................................................  nnnnnnn",
"nnnnnnnnnnnnnnnnnnnnnnnnnnnnnnnnnnnnnnnnnnnnnnnnnnnnnnnnnnnnnnnn",
"nnnnnnnnnnnnnnnnnnnnnnnnnnnnnnnnnnnnnnnnnnnnnnnnnnnnnnnnnnnnnnnn"
};
