/* XPM */
static char *four_xpm[] = {
/* columns rows colors chars-per-pixel */
"64 64 61 1",
"  c gray8",
". c #1A1A1A",
"X c #232323",
"o c #282827",
"O c #2C2C2C",
"+ c #343434",
"@ c #3A3A3A",
"# c #434343",
"$ c #4A4A47",
"% c #4D4D4C",
"& c #504F4D",
"* c #51514E",
"= c #555554",
"- c #585857",
"; c #5B5B5B",
": c #60605F",
"> c #646464",
", c #6C6C6C",
"< c #737373",
"1 c #797974",
"2 c #7B7B7B",
"3 c #80807C",
"4 c #888786",
"5 c #8A8987",
"6 c #8C8C8B",
"7 c #949494",
"8 c #999998",
"9 c #A1A09B",
"0 c #A3A3A1",
"q c #ACACAC",
"w c #B1B0A8",
"e c #B6B5B3",
"r c #B8B6B0",
"t c #BDBBB3",
"y c #C1BFB6",
"u c #C1C0B7",
"i c #C5C4BC",
"p c #C8C6BF",
"a c #C5C5C4",
"s c #C9C7C1",
"d c #CCCAC4",
"f c #CBCBC8",
"g c #D0CFC9",
"h c #D4D2CD",
"j c #D7D6D1",
"k c #D8D7D2",
"l c #DBDAD5",
"z c #DEDDD9",
"x c #E0DFDB",
"c c #E2E1DD",
"v c #E5E5E2",
"b c #E8E7E4",
"n c #EAE9E6",
"m c #EDEDEB",
"M c #F0EFED",
"N c #F1F0EE",
"B c #F4F4F3",
"V c #F8F7F6",
"C c #F8F8F7",
"Z c #FCFCFB",
"A c None",
/* pixels */
"AAAAAAAAAAAAAAAAAAAAAAAAAAAAAAAAAAAAAAAAAAAAAAAAAAAAAAAAAAAAAAAA",
"AAAA......................................................AAAAAA",
"AA...@><<<<<<<<<<<<<<<<<<<<<<<<<<<<<<<<<<<<<<<<<<<<<<<<;O..AAAAA",
"AA.X8ZZZZZZZZZZZZZZZZZZZZZZZZZZZZZZZZZZZCCCCCCCCCCCVVVVVm<..AAAA",
"A..qZZZZZZZZZZZZZZZZZZZZZZZZZZZZZZCCCCCVVVVBBBBBBBBBBNNBVV,..AAA",
"A.;ZZZZZZZZZZZZZZZZZZZZZCCCCCVVBBBBBBBBNNmmmmmnnnnbvvvccnVmO.AAA",
"..qZZZZZZZZZZZZZZZZZZZZCCCCCVVBBBBBBBBNNMmmmmmnnnbbvvccccNB,.AAA",
"..aZZZZZZZVmbccbmBZZZZCCCCCVVVBBBBBBBNNMmmmnvczzccvvvccccmB5..AA",
"..fZZZZZZnccccccccnZZCCCCCVVVBBBBBBBNNMmmmczzzzzzzzcccccxnB6. AA",
"..fZZZZZbcf5=OO=5fcbZCCCCVVVBBBBBBBBNNmmmccd5=OO=5dccccxznB6. AA",
"..fZZZZmve-......-evnCCCCVVBBBBBBBBNNMmmvce-......-eccxzznB6. AA",
"..fZZZCvf-........-fvBCCVVVBBBBBBBNNMmmmvf-........-fvczznB6. AA",
"..fZZZBn6...XXXXX..6nNCVVVBBBBBBBBNNmmmnb6...XXXXX..6bczznB6. AA",
"..fZZZmn=.XoOOOOOo.=nmVVVVBBBBBBBNNmmmmnn=.XoOOOOOo.=nvzlbB6. AA",
"..fZZZmmOXO+@@@@@+OOmmVVVBBBBBBBNNNmmmmmmOXO+@@@@@+OOmnllbB6. AA",
"..fZZZNmOO@#$%%%$#+OmNVVBBBBBBBNNNMmmmmmmOO@#$%%%$#+OmmllbB6. AA",
"..fZZZBB-O#%=;;;=%+-BBVBBBBBBBNNNMmmmmmmN-O#%=;;;=%+-NnllbB6. AA",
"..fZZZCB7o%;>,,,>;O7BBBBBBBBBNNNMmmmmmnmB7o%;>,,,>;O7BblkvB6. AA",
"..fZZZZVz;@><222<#;zVBBBBBBBBNNMmmmmmnnmVz;@><222<#;zVckkvB6. AA",
"..fZZZZZCa>@;22>@>aCCBBBBBBBNNNmmmmmnnnnBCa:@;22>@:aCmlkjvB6. AA",
"..fZZZZZZZv8;OO;8vZZBBBBBBBNNNmmmmmnnnnbbVZv8-OO-8vZBlkjjvB6. AA",
"..fZZZZZCZZZZZZZZZZBBBBBBBNNNmmmmmnnnnbbvvBZZZZZZZZBlkkjhcB6. AA",
"..fZZZZCCCCZZZZZZVBBBBBBBNNNMmmmmmnnnbbvvvcnmVZZBmclkkjhhcB6. AA",
"..fZZZCCCCCCVVVVBBBBBBBBNNNMmmmmmnnnbbvvvccccxzzzlllkkjhhcB6. AA",
"..aZZCCCCCCVVVVBBBBBBBBNNNMmmmmmnnnnbbvvvcccxzzzlllkkjhhhcB6. AA",
"..aZZCCCCVVVVVBBBBBBBBNNNMmmmmmnnnnbbvvvcccczzzzllkkjhhhhcB6. AA",
"..aZCCCCVVVVBBBBBBBBBNNNMmmmmmnnnnbbvvvcccczzzzllkkjhhhhhcB6. AA",
"..aZCCCVVVBBBBBBBBBBNNNMmmmmmnnnnbbvvvccccxzzzllkkkhhhhhhcB6. AA",
"..aZCCVVVBBBBBBBBBBNNNMmmmmmnnnnbbvvvccccxzzzlllkkjhhhhhgcN6. AA",
"..aZCVVVBBBBBBBBBNNNNmmmmmmnnnnbbvvvccccxzzzlllkkjhhhhhgfxN6. AA",
"..aZCVBBBBBBBBBBNNNNmmmmmmnnnnbbvvvccccxzzzlllkkjjhhhhgffxN6. AA",
"..aZCBBBBBBBBBBNNNMmmmmmmnnnnbbvvvccccxzzzzllkkjjhhhhggfdzN6. AA",
"..aZVBBBBBBBBBNNNMmmmmmmnnnnbbvvvccccxzzzzlllkjjhhhhggfddzN6. AA",
"..aZVBBBBBBBBNNNMmmmmmmnnnnbbvvvccccxzzzzlllkjjhhhhhgfdddzN6. AA",
"..aZVBBBBBBNNNNMmmmmmnnnnnbbvvvccccczzzzlllkjjhhhhhgfddddzN6. AA",
"..aZVBBBBBNNNmmmmmmmnnnnnbbvvvccccczzzzlllkkjhhhhhgfddddszN6. AA",
"..aZBBBBNNNMmmmmmmmnnnnbbbvvvccccxzzzzlllkkjhhhhhhffdddsslN6. AA",
"..aZBBBNNNMmmmmmmmnnnnbbbvvvccccxzzzzlllkkjhhhhhhffdddssplN6. AA",
"..aZBBNNMmmmmmmmmnnnnbbvvvvccccxzzzzlllkkjhhhhhhffdddsssplM6. AA",
"..aZBNNMmmnvczzcvbnnbbvvvvccccxzzzzlllkkjhhgsiyyupsddsspplM6. AA",
"..aCBNMmmczzzzzzzzcbbvvvvccccxzzzzlllkkjhhpyyyyyyyyissppilM6. AA",
"..aCBmmmcxd5=OO=5dxcvvvcccccxzzzzlllkkjhhpiw1$oo$1wiispiilm6. AA",
"..aCBmmvce-......-eccvcccccxzzzzlllkkjhhdp9&......&9ppiiikm6. AA",
"..aCNmnvf-........-fvccccczzzzllllkkjhhhdr*........*rdiiukm6. AA",
"..aCNmnv6...XXXXX..6vvccxzzzzllllkjjhhhhg3...XXXXX..3gsiukm6. AA",
"..aCNmnn=.XoOOOOOo.=nbxxzzzzlllkkjjhhhhhh%.XoOOOOOo.%hguukm6. AA",
"..aCMnnnOXO+@@@@@+OOnnxzzzzlllkkjjhhhhhkloXO+@@@@@+Oolkuujm6. AA",
"..aCmnmmOO@#$%%%$#+OmmzzzzlllkkjjhhhhhhzzOO@#$%%%$#+Ozluyjm5. AA",
"..aCmnmN-O#%=;;;=%+-Nmzzlllkkkjjhhhhhhfzc=O#%=;;;=%+=clytjm5. AA",
"..aCmnmB7o%;>,,,>;O7Bbzlllkkkjjhhhhhhffln6o%;>,,,>;O6nhttjm5. AA",
"..aCmbnBz;@><222<#;zBclllkkkjhhhhhhgffdhmj;@><222<#;jmstthm5. AA",
"..aVnvvBCa:@;22>@:aCMlllkkjhhhhhhhgffdddvBa;@;22>@;aBcttthm5. AA",
"..aVnvvvVZv8-OO-8vZBllkkkjhhhhhhggfdddddsmVz7-OO-7zVmtttthm5. AA",
"..aVnvcccBZZZZZZZZBllkkkjhhhhhhggfddddssssnCCCCCCCCbttttthm5. AA",
"..aVncccccvmBZZBmcllkkjjhhhhhhggfddddsssppihxmCCmzdtttttrhm4. AA",
"..qVnccccxzzzzllllkkjjhhhhhhhgffddddsssppiiiiuuuyttttttrrlm<. AA",
"A.<VNcccxzzzzllllkkjjhhhhhhhgffddddsspppiiiuuuuyttttttrrumm@.AAA",
"A..kVNnvccccccxxzzzzlllllkkjjjhhhhhhgggfdddddssssspppiihmm9..AAA",
"A..+aBBBBBBBBBBBBBBBBBBBBBBBNNNNNNNNNNMMMmmmmmmmmmmmmmmmm0X. AAA",
"AA...<qffffffffffaaaaaaaaaaaaaaaaaaaaaaaaaaaaaaaaaaaaaa8=.. AAAA",
"AAA....................................................... AAAAA",
"AAAAAA.................................................  AAAAAAA",
"AAAAAAAAAAAAAAAAAAAAAAAAAAAAAAAAAAAAAAAAAAAAAAAAAAAAAAAAAAAAAAAA",
"AAAAAAAAAAAAAAAAAAAAAAAAAAAAAAAAAAAAAAAAAAAAAAAAAAAAAAAAAAAAAAAA"
};
